(G-CODE GENERATED BY FLATCAM v8.994 - www.flatcam.org - Version Date: 2020/11/7)

(Name: stoplight-Edge_Cuts.gbr_iso_combined_cnc)
(Type: G-code from Geometry)
(Units: MM)

(Created on quarta, 19 janeiro 2022 at 20:54)

(This preprocessor is the default preprocessor used by FlatCAM.)
(It is made to work with MACH3 compatible motion controllers.)

(TOOL DIAMETER: 1.0 mm)
(Feedrate_XY: 120.0 mm/min)
(Feedrate_Z: 60.0 mm/min)
(Feedrate rapids 1500.0 mm/min)

(Z_Cut: -1.7 mm)
(DepthPerCut: 0.3 mm <=>6 passes)
(Z_Move: 2.0 mm)
(Z Start: None mm)
(Z End: 15.0 mm)
(X,Y End: None mm)
(Steps per circle: 64)
(Preprocessor Geometry: default)

(X range:    1.1100 ...   84.7800  mm)
(Y range:    0.8200 ...   69.2500  mm)

(Spindle Speed: 0.0 RPM)
G21
G90
G94

G01 F120.00

M5
G00 Z15.0000
G00 X0.0000 Y0.0000
T1
M6    
(MSG, Change to Tool Dia = 1.0000)
M0
G00 Z15.0000

M03
G01 F120.00
G00 X1.1106 Y33.1545
G01 F60.00
G01 Z-0.3000
G01 F120.00
G01 X1.1100 Y33.1300
G01 X1.1100 Y1.3800
G01 X1.1106 Y1.3555
G01 X1.1127 Y1.3251
G01 X1.1165 Y1.2949
G01 X1.1207 Y1.2707
G01 X1.1233 Y1.2587
G01 X1.1307 Y1.2292
G01 X1.1341 Y1.2174
G01 X1.1418 Y1.1941
G01 X1.1526 Y1.1657
G01 X1.1651 Y1.1379
G01 X1.1704 Y1.1269
G01 X1.1820 Y1.1053
G01 X1.1977 Y1.0792
G01 X1.2113 Y1.0587
G01 X1.2185 Y1.0488
G01 X1.2371 Y1.0247
G01 X1.2571 Y1.0018
G01 X1.2740 Y0.9840
G01 X1.2961 Y0.9631
G01 X1.3147 Y0.9471
G01 X1.3243 Y0.9394
G01 X1.3388 Y0.9285
G01 X1.3589 Y0.9144
G01 X1.3796 Y0.9012
G01 X1.4060 Y0.8861
G01 X1.4279 Y0.8751
G01 X1.4444 Y0.8674
G01 X1.4671 Y0.8580
G01 X1.4841 Y0.8518
G01 X1.5074 Y0.8441
G01 X1.5311 Y0.8375
G01 X1.5487 Y0.8333
G01 X1.5728 Y0.8285
G01 X1.5908 Y0.8257
G01 X1.6151 Y0.8227
G01 X1.6455 Y0.8206
G01 X1.6700 Y0.8200
G01 X41.0400 Y0.8200
G01 X41.0645 Y0.8206
G01 X41.0949 Y0.8227
G01 X41.1251 Y0.8265
G01 X41.1372 Y0.8285
G01 X41.1613 Y0.8333
G01 X41.1908 Y0.8407
G01 X41.2026 Y0.8441
G01 X41.2259 Y0.8518
G01 X41.2543 Y0.8626
G01 X41.2821 Y0.8751
G01 X41.2931 Y0.8804
G01 X41.3147 Y0.8920
G01 X41.3408 Y0.9077
G01 X41.3511 Y0.9144
G01 X41.3712 Y0.9285
G01 X41.3953 Y0.9471
G01 X41.4182 Y0.9671
G01 X41.4360 Y0.9840
G01 X41.4569 Y1.0061
G01 X41.4729 Y1.0247
G01 X41.4806 Y1.0343
G01 X41.4915 Y1.0488
G01 X41.5056 Y1.0689
G01 X41.5218 Y1.0947
G01 X41.5339 Y1.1160
G01 X41.5396 Y1.1269
G01 X41.5475 Y1.1433
G01 X41.5574 Y1.1657
G01 X41.5662 Y1.1886
G01 X41.5722 Y1.2057
G01 X41.5759 Y1.2174
G01 X41.5825 Y1.2411
G01 X41.5893 Y1.2707
G01 X41.5935 Y1.2949
G01 X41.5960 Y1.3129
G01 X41.5973 Y1.3251
G01 X41.5991 Y1.3496
G01 X41.5999 Y1.3677
G01 X41.5999 Y1.3923
G01 X41.5991 Y1.4104
G01 X41.5973 Y1.4349
G01 X41.5935 Y1.4651
G01 X41.5893 Y1.4893
G01 X41.5867 Y1.5013
G01 X41.5825 Y1.5189
G01 X41.5759 Y1.5426
G01 X41.5682 Y1.5659
G01 X41.5620 Y1.5829
G01 X41.5526 Y1.6056
G01 X41.5475 Y1.6167
G01 X41.5339 Y1.6440
G01 X41.5218 Y1.6653
G01 X41.5123 Y1.6808
G01 X41.4987 Y1.7013
G01 X41.4915 Y1.7112
G01 X41.4806 Y1.7257
G01 X41.4650 Y1.7447
G01 X41.4529 Y1.7582
G01 X41.4360 Y1.7760
G01 X41.4139 Y1.7969
G01 X41.4047 Y1.8050
G01 X41.3857 Y1.8206
G01 X41.3712 Y1.8315
G01 X41.3511 Y1.8456
G01 X41.3304 Y1.8588
G01 X41.3147 Y1.8680
G01 X41.2931 Y1.8796
G01 X41.2767 Y1.8875
G01 X41.2656 Y1.8926
G01 X41.2429 Y1.9020
G01 X41.2259 Y1.9082
G01 X41.2026 Y1.9159
G01 X41.1789 Y1.9225
G01 X41.1613 Y1.9267
G01 X41.1372 Y1.9315
G01 X41.1251 Y1.9335
G01 X41.0949 Y1.9373
G01 X41.0704 Y1.9391
G01 X41.0523 Y1.9399
G01 X2.2300 Y1.9400
G01 X2.2299 Y33.1423
G01 X2.2291 Y33.1604
G01 X2.2273 Y33.1849
G01 X2.2243 Y33.2092
G01 X2.2193 Y33.2393
G01 X2.2139 Y33.2632
G01 X2.2059 Y33.2926
G01 X2.1962 Y33.3214
G01 X2.1874 Y33.3443
G01 X2.1775 Y33.3667
G01 X2.1639 Y33.3940
G01 X2.1488 Y33.4204
G01 X2.1356 Y33.4411
G01 X2.1215 Y33.4612
G01 X2.1029 Y33.4853
G01 X2.0829 Y33.5082
G01 X2.0660 Y33.5260
G01 X2.0482 Y33.5429
G01 X2.0253 Y33.5629
G01 X2.0012 Y33.5815
G01 X1.9811 Y33.5956
G01 X1.9553 Y33.6118
G01 X1.9340 Y33.6239
G01 X1.9121 Y33.6349
G01 X1.8843 Y33.6474
G01 X1.8559 Y33.6582
G01 X1.8326 Y33.6659
G01 X1.8032 Y33.6739
G01 X1.7793 Y33.6793
G01 X1.7551 Y33.6835
G01 X1.7249 Y33.6873
G01 X1.6945 Y33.6894
G01 X1.6700 Y33.6900
G01 X1.6455 Y33.6894
G01 X1.6151 Y33.6873
G01 X1.5849 Y33.6835
G01 X1.5607 Y33.6793
G01 X1.5368 Y33.6739
G01 X1.5074 Y33.6659
G01 X1.4841 Y33.6582
G01 X1.4557 Y33.6474
G01 X1.4279 Y33.6349
G01 X1.4060 Y33.6239
G01 X1.3847 Y33.6118
G01 X1.3589 Y33.5956
G01 X1.3388 Y33.5815
G01 X1.3147 Y33.5629
G01 X1.2961 Y33.5469
G01 X1.2828 Y33.5346
G01 X1.2654 Y33.5172
G01 X1.2450 Y33.4947
G01 X1.2294 Y33.4757
G01 X1.2113 Y33.4513
G01 X1.1977 Y33.4308
G01 X1.1820 Y33.4047
G01 X1.1704 Y33.3831
G01 X1.1574 Y33.3556
G01 X1.1480 Y33.3329
G01 X1.1378 Y33.3043
G01 X1.1307 Y33.2808
G01 X1.1233 Y33.2513
G01 X1.1185 Y33.2272
G01 X1.1140 Y33.1971
G01 X1.1116 Y33.1727
G01 X1.1106 Y33.1545
G00 X1.1106 Y33.1545
G01 F60.00
G01 Z-0.6000
G01 F120.00
G01 X1.1100 Y33.1300
G01 X1.1100 Y1.3800
G01 X1.1106 Y1.3555
G01 X1.1127 Y1.3251
G01 X1.1165 Y1.2949
G01 X1.1207 Y1.2707
G01 X1.1233 Y1.2587
G01 X1.1307 Y1.2292
G01 X1.1341 Y1.2174
G01 X1.1418 Y1.1941
G01 X1.1526 Y1.1657
G01 X1.1651 Y1.1379
G01 X1.1704 Y1.1269
G01 X1.1820 Y1.1053
G01 X1.1977 Y1.0792
G01 X1.2113 Y1.0587
G01 X1.2185 Y1.0488
G01 X1.2371 Y1.0247
G01 X1.2571 Y1.0018
G01 X1.2740 Y0.9840
G01 X1.2961 Y0.9631
G01 X1.3147 Y0.9471
G01 X1.3243 Y0.9394
G01 X1.3388 Y0.9285
G01 X1.3589 Y0.9144
G01 X1.3796 Y0.9012
G01 X1.4060 Y0.8861
G01 X1.4279 Y0.8751
G01 X1.4444 Y0.8674
G01 X1.4671 Y0.8580
G01 X1.4841 Y0.8518
G01 X1.5074 Y0.8441
G01 X1.5311 Y0.8375
G01 X1.5487 Y0.8333
G01 X1.5728 Y0.8285
G01 X1.5908 Y0.8257
G01 X1.6151 Y0.8227
G01 X1.6455 Y0.8206
G01 X1.6700 Y0.8200
G01 X41.0400 Y0.8200
G01 X41.0645 Y0.8206
G01 X41.0949 Y0.8227
G01 X41.1251 Y0.8265
G01 X41.1372 Y0.8285
G01 X41.1613 Y0.8333
G01 X41.1908 Y0.8407
G01 X41.2026 Y0.8441
G01 X41.2259 Y0.8518
G01 X41.2543 Y0.8626
G01 X41.2821 Y0.8751
G01 X41.2931 Y0.8804
G01 X41.3147 Y0.8920
G01 X41.3408 Y0.9077
G01 X41.3511 Y0.9144
G01 X41.3712 Y0.9285
G01 X41.3953 Y0.9471
G01 X41.4182 Y0.9671
G01 X41.4360 Y0.9840
G01 X41.4569 Y1.0061
G01 X41.4729 Y1.0247
G01 X41.4806 Y1.0343
G01 X41.4915 Y1.0488
G01 X41.5056 Y1.0689
G01 X41.5218 Y1.0947
G01 X41.5339 Y1.1160
G01 X41.5396 Y1.1269
G01 X41.5475 Y1.1433
G01 X41.5574 Y1.1657
G01 X41.5662 Y1.1886
G01 X41.5722 Y1.2057
G01 X41.5759 Y1.2174
G01 X41.5825 Y1.2411
G01 X41.5893 Y1.2707
G01 X41.5935 Y1.2949
G01 X41.5960 Y1.3129
G01 X41.5973 Y1.3251
G01 X41.5991 Y1.3496
G01 X41.5999 Y1.3677
G01 X41.5999 Y1.3923
G01 X41.5991 Y1.4104
G01 X41.5973 Y1.4349
G01 X41.5935 Y1.4651
G01 X41.5893 Y1.4893
G01 X41.5867 Y1.5013
G01 X41.5825 Y1.5189
G01 X41.5759 Y1.5426
G01 X41.5682 Y1.5659
G01 X41.5620 Y1.5829
G01 X41.5526 Y1.6056
G01 X41.5475 Y1.6167
G01 X41.5339 Y1.6440
G01 X41.5218 Y1.6653
G01 X41.5123 Y1.6808
G01 X41.4987 Y1.7013
G01 X41.4915 Y1.7112
G01 X41.4806 Y1.7257
G01 X41.4650 Y1.7447
G01 X41.4529 Y1.7582
G01 X41.4360 Y1.7760
G01 X41.4139 Y1.7969
G01 X41.4047 Y1.8050
G01 X41.3857 Y1.8206
G01 X41.3712 Y1.8315
G01 X41.3511 Y1.8456
G01 X41.3304 Y1.8588
G01 X41.3147 Y1.8680
G01 X41.2931 Y1.8796
G01 X41.2767 Y1.8875
G01 X41.2656 Y1.8926
G01 X41.2429 Y1.9020
G01 X41.2259 Y1.9082
G01 X41.2026 Y1.9159
G01 X41.1789 Y1.9225
G01 X41.1613 Y1.9267
G01 X41.1372 Y1.9315
G01 X41.1251 Y1.9335
G01 X41.0949 Y1.9373
G01 X41.0704 Y1.9391
G01 X41.0523 Y1.9399
G01 X2.2300 Y1.9400
G01 X2.2299 Y33.1423
G01 X2.2291 Y33.1604
G01 X2.2273 Y33.1849
G01 X2.2243 Y33.2092
G01 X2.2193 Y33.2393
G01 X2.2139 Y33.2632
G01 X2.2059 Y33.2926
G01 X2.1962 Y33.3214
G01 X2.1874 Y33.3443
G01 X2.1775 Y33.3667
G01 X2.1639 Y33.3940
G01 X2.1488 Y33.4204
G01 X2.1356 Y33.4411
G01 X2.1215 Y33.4612
G01 X2.1029 Y33.4853
G01 X2.0829 Y33.5082
G01 X2.0660 Y33.5260
G01 X2.0482 Y33.5429
G01 X2.0253 Y33.5629
G01 X2.0012 Y33.5815
G01 X1.9811 Y33.5956
G01 X1.9553 Y33.6118
G01 X1.9340 Y33.6239
G01 X1.9121 Y33.6349
G01 X1.8843 Y33.6474
G01 X1.8559 Y33.6582
G01 X1.8326 Y33.6659
G01 X1.8032 Y33.6739
G01 X1.7793 Y33.6793
G01 X1.7551 Y33.6835
G01 X1.7249 Y33.6873
G01 X1.6945 Y33.6894
G01 X1.6700 Y33.6900
G01 X1.6455 Y33.6894
G01 X1.6151 Y33.6873
G01 X1.5849 Y33.6835
G01 X1.5607 Y33.6793
G01 X1.5368 Y33.6739
G01 X1.5074 Y33.6659
G01 X1.4841 Y33.6582
G01 X1.4557 Y33.6474
G01 X1.4279 Y33.6349
G01 X1.4060 Y33.6239
G01 X1.3847 Y33.6118
G01 X1.3589 Y33.5956
G01 X1.3388 Y33.5815
G01 X1.3147 Y33.5629
G01 X1.2961 Y33.5469
G01 X1.2828 Y33.5346
G01 X1.2654 Y33.5172
G01 X1.2450 Y33.4947
G01 X1.2294 Y33.4757
G01 X1.2113 Y33.4513
G01 X1.1977 Y33.4308
G01 X1.1820 Y33.4047
G01 X1.1704 Y33.3831
G01 X1.1574 Y33.3556
G01 X1.1480 Y33.3329
G01 X1.1378 Y33.3043
G01 X1.1307 Y33.2808
G01 X1.1233 Y33.2513
G01 X1.1185 Y33.2272
G01 X1.1140 Y33.1971
G01 X1.1116 Y33.1727
G01 X1.1106 Y33.1545
G00 X1.1106 Y33.1545
G01 F60.00
G01 Z-0.9000
G01 F120.00
G01 X1.1100 Y33.1300
G01 X1.1100 Y1.3800
G01 X1.1106 Y1.3555
G01 X1.1127 Y1.3251
G01 X1.1165 Y1.2949
G01 X1.1207 Y1.2707
G01 X1.1233 Y1.2587
G01 X1.1307 Y1.2292
G01 X1.1341 Y1.2174
G01 X1.1418 Y1.1941
G01 X1.1526 Y1.1657
G01 X1.1651 Y1.1379
G01 X1.1704 Y1.1269
G01 X1.1820 Y1.1053
G01 X1.1977 Y1.0792
G01 X1.2113 Y1.0587
G01 X1.2185 Y1.0488
G01 X1.2371 Y1.0247
G01 X1.2571 Y1.0018
G01 X1.2740 Y0.9840
G01 X1.2961 Y0.9631
G01 X1.3147 Y0.9471
G01 X1.3243 Y0.9394
G01 X1.3388 Y0.9285
G01 X1.3589 Y0.9144
G01 X1.3796 Y0.9012
G01 X1.4060 Y0.8861
G01 X1.4279 Y0.8751
G01 X1.4444 Y0.8674
G01 X1.4671 Y0.8580
G01 X1.4841 Y0.8518
G01 X1.5074 Y0.8441
G01 X1.5311 Y0.8375
G01 X1.5487 Y0.8333
G01 X1.5728 Y0.8285
G01 X1.5908 Y0.8257
G01 X1.6151 Y0.8227
G01 X1.6455 Y0.8206
G01 X1.6700 Y0.8200
G01 X41.0400 Y0.8200
G01 X41.0645 Y0.8206
G01 X41.0949 Y0.8227
G01 X41.1251 Y0.8265
G01 X41.1372 Y0.8285
G01 X41.1613 Y0.8333
G01 X41.1908 Y0.8407
G01 X41.2026 Y0.8441
G01 X41.2259 Y0.8518
G01 X41.2543 Y0.8626
G01 X41.2821 Y0.8751
G01 X41.2931 Y0.8804
G01 X41.3147 Y0.8920
G01 X41.3408 Y0.9077
G01 X41.3511 Y0.9144
G01 X41.3712 Y0.9285
G01 X41.3953 Y0.9471
G01 X41.4182 Y0.9671
G01 X41.4360 Y0.9840
G01 X41.4569 Y1.0061
G01 X41.4729 Y1.0247
G01 X41.4806 Y1.0343
G01 X41.4915 Y1.0488
G01 X41.5056 Y1.0689
G01 X41.5218 Y1.0947
G01 X41.5339 Y1.1160
G01 X41.5396 Y1.1269
G01 X41.5475 Y1.1433
G01 X41.5574 Y1.1657
G01 X41.5662 Y1.1886
G01 X41.5722 Y1.2057
G01 X41.5759 Y1.2174
G01 X41.5825 Y1.2411
G01 X41.5893 Y1.2707
G01 X41.5935 Y1.2949
G01 X41.5960 Y1.3129
G01 X41.5973 Y1.3251
G01 X41.5991 Y1.3496
G01 X41.5999 Y1.3677
G01 X41.5999 Y1.3923
G01 X41.5991 Y1.4104
G01 X41.5973 Y1.4349
G01 X41.5935 Y1.4651
G01 X41.5893 Y1.4893
G01 X41.5867 Y1.5013
G01 X41.5825 Y1.5189
G01 X41.5759 Y1.5426
G01 X41.5682 Y1.5659
G01 X41.5620 Y1.5829
G01 X41.5526 Y1.6056
G01 X41.5475 Y1.6167
G01 X41.5339 Y1.6440
G01 X41.5218 Y1.6653
G01 X41.5123 Y1.6808
G01 X41.4987 Y1.7013
G01 X41.4915 Y1.7112
G01 X41.4806 Y1.7257
G01 X41.4650 Y1.7447
G01 X41.4529 Y1.7582
G01 X41.4360 Y1.7760
G01 X41.4139 Y1.7969
G01 X41.4047 Y1.8050
G01 X41.3857 Y1.8206
G01 X41.3712 Y1.8315
G01 X41.3511 Y1.8456
G01 X41.3304 Y1.8588
G01 X41.3147 Y1.8680
G01 X41.2931 Y1.8796
G01 X41.2767 Y1.8875
G01 X41.2656 Y1.8926
G01 X41.2429 Y1.9020
G01 X41.2259 Y1.9082
G01 X41.2026 Y1.9159
G01 X41.1789 Y1.9225
G01 X41.1613 Y1.9267
G01 X41.1372 Y1.9315
G01 X41.1251 Y1.9335
G01 X41.0949 Y1.9373
G01 X41.0704 Y1.9391
G01 X41.0523 Y1.9399
G01 X2.2300 Y1.9400
G01 X2.2299 Y33.1423
G01 X2.2291 Y33.1604
G01 X2.2273 Y33.1849
G01 X2.2243 Y33.2092
G01 X2.2193 Y33.2393
G01 X2.2139 Y33.2632
G01 X2.2059 Y33.2926
G01 X2.1962 Y33.3214
G01 X2.1874 Y33.3443
G01 X2.1775 Y33.3667
G01 X2.1639 Y33.3940
G01 X2.1488 Y33.4204
G01 X2.1356 Y33.4411
G01 X2.1215 Y33.4612
G01 X2.1029 Y33.4853
G01 X2.0829 Y33.5082
G01 X2.0660 Y33.5260
G01 X2.0482 Y33.5429
G01 X2.0253 Y33.5629
G01 X2.0012 Y33.5815
G01 X1.9811 Y33.5956
G01 X1.9553 Y33.6118
G01 X1.9340 Y33.6239
G01 X1.9121 Y33.6349
G01 X1.8843 Y33.6474
G01 X1.8559 Y33.6582
G01 X1.8326 Y33.6659
G01 X1.8032 Y33.6739
G01 X1.7793 Y33.6793
G01 X1.7551 Y33.6835
G01 X1.7249 Y33.6873
G01 X1.6945 Y33.6894
G01 X1.6700 Y33.6900
G01 X1.6455 Y33.6894
G01 X1.6151 Y33.6873
G01 X1.5849 Y33.6835
G01 X1.5607 Y33.6793
G01 X1.5368 Y33.6739
G01 X1.5074 Y33.6659
G01 X1.4841 Y33.6582
G01 X1.4557 Y33.6474
G01 X1.4279 Y33.6349
G01 X1.4060 Y33.6239
G01 X1.3847 Y33.6118
G01 X1.3589 Y33.5956
G01 X1.3388 Y33.5815
G01 X1.3147 Y33.5629
G01 X1.2961 Y33.5469
G01 X1.2828 Y33.5346
G01 X1.2654 Y33.5172
G01 X1.2450 Y33.4947
G01 X1.2294 Y33.4757
G01 X1.2113 Y33.4513
G01 X1.1977 Y33.4308
G01 X1.1820 Y33.4047
G01 X1.1704 Y33.3831
G01 X1.1574 Y33.3556
G01 X1.1480 Y33.3329
G01 X1.1378 Y33.3043
G01 X1.1307 Y33.2808
G01 X1.1233 Y33.2513
G01 X1.1185 Y33.2272
G01 X1.1140 Y33.1971
G01 X1.1116 Y33.1727
G01 X1.1106 Y33.1545
G00 X1.1106 Y33.1545
G01 F60.00
G01 Z-1.2000
G01 F120.00
G01 X1.1100 Y33.1300
G01 X1.1100 Y1.3800
G01 X1.1106 Y1.3555
G01 X1.1127 Y1.3251
G01 X1.1165 Y1.2949
G01 X1.1207 Y1.2707
G01 X1.1233 Y1.2587
G01 X1.1307 Y1.2292
G01 X1.1341 Y1.2174
G01 X1.1418 Y1.1941
G01 X1.1526 Y1.1657
G01 X1.1651 Y1.1379
G01 X1.1704 Y1.1269
G01 X1.1820 Y1.1053
G01 X1.1977 Y1.0792
G01 X1.2113 Y1.0587
G01 X1.2185 Y1.0488
G01 X1.2371 Y1.0247
G01 X1.2571 Y1.0018
G01 X1.2740 Y0.9840
G01 X1.2961 Y0.9631
G01 X1.3147 Y0.9471
G01 X1.3243 Y0.9394
G01 X1.3388 Y0.9285
G01 X1.3589 Y0.9144
G01 X1.3796 Y0.9012
G01 X1.4060 Y0.8861
G01 X1.4279 Y0.8751
G01 X1.4444 Y0.8674
G01 X1.4671 Y0.8580
G01 X1.4841 Y0.8518
G01 X1.5074 Y0.8441
G01 X1.5311 Y0.8375
G01 X1.5487 Y0.8333
G01 X1.5728 Y0.8285
G01 X1.5908 Y0.8257
G01 X1.6151 Y0.8227
G01 X1.6455 Y0.8206
G01 X1.6700 Y0.8200
G01 X41.0400 Y0.8200
G01 X41.0645 Y0.8206
G01 X41.0949 Y0.8227
G01 X41.1251 Y0.8265
G01 X41.1372 Y0.8285
G01 X41.1613 Y0.8333
G01 X41.1908 Y0.8407
G01 X41.2026 Y0.8441
G01 X41.2259 Y0.8518
G01 X41.2543 Y0.8626
G01 X41.2821 Y0.8751
G01 X41.2931 Y0.8804
G01 X41.3147 Y0.8920
G01 X41.3408 Y0.9077
G01 X41.3511 Y0.9144
G01 X41.3712 Y0.9285
G01 X41.3953 Y0.9471
G01 X41.4182 Y0.9671
G01 X41.4360 Y0.9840
G01 X41.4569 Y1.0061
G01 X41.4729 Y1.0247
G01 X41.4806 Y1.0343
G01 X41.4915 Y1.0488
G01 X41.5056 Y1.0689
G01 X41.5218 Y1.0947
G01 X41.5339 Y1.1160
G01 X41.5396 Y1.1269
G01 X41.5475 Y1.1433
G01 X41.5574 Y1.1657
G01 X41.5662 Y1.1886
G01 X41.5722 Y1.2057
G01 X41.5759 Y1.2174
G01 X41.5825 Y1.2411
G01 X41.5893 Y1.2707
G01 X41.5935 Y1.2949
G01 X41.5960 Y1.3129
G01 X41.5973 Y1.3251
G01 X41.5991 Y1.3496
G01 X41.5999 Y1.3677
G01 X41.5999 Y1.3923
G01 X41.5991 Y1.4104
G01 X41.5973 Y1.4349
G01 X41.5935 Y1.4651
G01 X41.5893 Y1.4893
G01 X41.5867 Y1.5013
G01 X41.5825 Y1.5189
G01 X41.5759 Y1.5426
G01 X41.5682 Y1.5659
G01 X41.5620 Y1.5829
G01 X41.5526 Y1.6056
G01 X41.5475 Y1.6167
G01 X41.5339 Y1.6440
G01 X41.5218 Y1.6653
G01 X41.5123 Y1.6808
G01 X41.4987 Y1.7013
G01 X41.4915 Y1.7112
G01 X41.4806 Y1.7257
G01 X41.4650 Y1.7447
G01 X41.4529 Y1.7582
G01 X41.4360 Y1.7760
G01 X41.4139 Y1.7969
G01 X41.4047 Y1.8050
G01 X41.3857 Y1.8206
G01 X41.3712 Y1.8315
G01 X41.3511 Y1.8456
G01 X41.3304 Y1.8588
G01 X41.3147 Y1.8680
G01 X41.2931 Y1.8796
G01 X41.2767 Y1.8875
G01 X41.2656 Y1.8926
G01 X41.2429 Y1.9020
G01 X41.2259 Y1.9082
G01 X41.2026 Y1.9159
G01 X41.1789 Y1.9225
G01 X41.1613 Y1.9267
G01 X41.1372 Y1.9315
G01 X41.1251 Y1.9335
G01 X41.0949 Y1.9373
G01 X41.0704 Y1.9391
G01 X41.0523 Y1.9399
G01 X2.2300 Y1.9400
G01 X2.2299 Y33.1423
G01 X2.2291 Y33.1604
G01 X2.2273 Y33.1849
G01 X2.2243 Y33.2092
G01 X2.2193 Y33.2393
G01 X2.2139 Y33.2632
G01 X2.2059 Y33.2926
G01 X2.1962 Y33.3214
G01 X2.1874 Y33.3443
G01 X2.1775 Y33.3667
G01 X2.1639 Y33.3940
G01 X2.1488 Y33.4204
G01 X2.1356 Y33.4411
G01 X2.1215 Y33.4612
G01 X2.1029 Y33.4853
G01 X2.0829 Y33.5082
G01 X2.0660 Y33.5260
G01 X2.0482 Y33.5429
G01 X2.0253 Y33.5629
G01 X2.0012 Y33.5815
G01 X1.9811 Y33.5956
G01 X1.9553 Y33.6118
G01 X1.9340 Y33.6239
G01 X1.9121 Y33.6349
G01 X1.8843 Y33.6474
G01 X1.8559 Y33.6582
G01 X1.8326 Y33.6659
G01 X1.8032 Y33.6739
G01 X1.7793 Y33.6793
G01 X1.7551 Y33.6835
G01 X1.7249 Y33.6873
G01 X1.6945 Y33.6894
G01 X1.6700 Y33.6900
G01 X1.6455 Y33.6894
G01 X1.6151 Y33.6873
G01 X1.5849 Y33.6835
G01 X1.5607 Y33.6793
G01 X1.5368 Y33.6739
G01 X1.5074 Y33.6659
G01 X1.4841 Y33.6582
G01 X1.4557 Y33.6474
G01 X1.4279 Y33.6349
G01 X1.4060 Y33.6239
G01 X1.3847 Y33.6118
G01 X1.3589 Y33.5956
G01 X1.3388 Y33.5815
G01 X1.3147 Y33.5629
G01 X1.2961 Y33.5469
G01 X1.2828 Y33.5346
G01 X1.2654 Y33.5172
G01 X1.2450 Y33.4947
G01 X1.2294 Y33.4757
G01 X1.2113 Y33.4513
G01 X1.1977 Y33.4308
G01 X1.1820 Y33.4047
G01 X1.1704 Y33.3831
G01 X1.1574 Y33.3556
G01 X1.1480 Y33.3329
G01 X1.1378 Y33.3043
G01 X1.1307 Y33.2808
G01 X1.1233 Y33.2513
G01 X1.1185 Y33.2272
G01 X1.1140 Y33.1971
G01 X1.1116 Y33.1727
G01 X1.1106 Y33.1545
G00 X1.1106 Y33.1545
G01 F60.00
G01 Z-1.5000
G01 F120.00
G01 X1.1100 Y33.1300
G01 X1.1100 Y1.3800
G01 X1.1106 Y1.3555
G01 X1.1127 Y1.3251
G01 X1.1165 Y1.2949
G01 X1.1207 Y1.2707
G01 X1.1233 Y1.2587
G01 X1.1307 Y1.2292
G01 X1.1341 Y1.2174
G01 X1.1418 Y1.1941
G01 X1.1526 Y1.1657
G01 X1.1651 Y1.1379
G01 X1.1704 Y1.1269
G01 X1.1820 Y1.1053
G01 X1.1977 Y1.0792
G01 X1.2113 Y1.0587
G01 X1.2185 Y1.0488
G01 X1.2371 Y1.0247
G01 X1.2571 Y1.0018
G01 X1.2740 Y0.9840
G01 X1.2961 Y0.9631
G01 X1.3147 Y0.9471
G01 X1.3243 Y0.9394
G01 X1.3388 Y0.9285
G01 X1.3589 Y0.9144
G01 X1.3796 Y0.9012
G01 X1.4060 Y0.8861
G01 X1.4279 Y0.8751
G01 X1.4444 Y0.8674
G01 X1.4671 Y0.8580
G01 X1.4841 Y0.8518
G01 X1.5074 Y0.8441
G01 X1.5311 Y0.8375
G01 X1.5487 Y0.8333
G01 X1.5728 Y0.8285
G01 X1.5908 Y0.8257
G01 X1.6151 Y0.8227
G01 X1.6455 Y0.8206
G01 X1.6700 Y0.8200
G01 X41.0400 Y0.8200
G01 X41.0645 Y0.8206
G01 X41.0949 Y0.8227
G01 X41.1251 Y0.8265
G01 X41.1372 Y0.8285
G01 X41.1613 Y0.8333
G01 X41.1908 Y0.8407
G01 X41.2026 Y0.8441
G01 X41.2259 Y0.8518
G01 X41.2543 Y0.8626
G01 X41.2821 Y0.8751
G01 X41.2931 Y0.8804
G01 X41.3147 Y0.8920
G01 X41.3408 Y0.9077
G01 X41.3511 Y0.9144
G01 X41.3712 Y0.9285
G01 X41.3953 Y0.9471
G01 X41.4182 Y0.9671
G01 X41.4360 Y0.9840
G01 X41.4569 Y1.0061
G01 X41.4729 Y1.0247
G01 X41.4806 Y1.0343
G01 X41.4915 Y1.0488
G01 X41.5056 Y1.0689
G01 X41.5218 Y1.0947
G01 X41.5339 Y1.1160
G01 X41.5396 Y1.1269
G01 X41.5475 Y1.1433
G01 X41.5574 Y1.1657
G01 X41.5662 Y1.1886
G01 X41.5722 Y1.2057
G01 X41.5759 Y1.2174
G01 X41.5825 Y1.2411
G01 X41.5893 Y1.2707
G01 X41.5935 Y1.2949
G01 X41.5960 Y1.3129
G01 X41.5973 Y1.3251
G01 X41.5991 Y1.3496
G01 X41.5999 Y1.3677
G01 X41.5999 Y1.3923
G01 X41.5991 Y1.4104
G01 X41.5973 Y1.4349
G01 X41.5935 Y1.4651
G01 X41.5893 Y1.4893
G01 X41.5867 Y1.5013
G01 X41.5825 Y1.5189
G01 X41.5759 Y1.5426
G01 X41.5682 Y1.5659
G01 X41.5620 Y1.5829
G01 X41.5526 Y1.6056
G01 X41.5475 Y1.6167
G01 X41.5339 Y1.6440
G01 X41.5218 Y1.6653
G01 X41.5123 Y1.6808
G01 X41.4987 Y1.7013
G01 X41.4915 Y1.7112
G01 X41.4806 Y1.7257
G01 X41.4650 Y1.7447
G01 X41.4529 Y1.7582
G01 X41.4360 Y1.7760
G01 X41.4139 Y1.7969
G01 X41.4047 Y1.8050
G01 X41.3857 Y1.8206
G01 X41.3712 Y1.8315
G01 X41.3511 Y1.8456
G01 X41.3304 Y1.8588
G01 X41.3147 Y1.8680
G01 X41.2931 Y1.8796
G01 X41.2767 Y1.8875
G01 X41.2656 Y1.8926
G01 X41.2429 Y1.9020
G01 X41.2259 Y1.9082
G01 X41.2026 Y1.9159
G01 X41.1789 Y1.9225
G01 X41.1613 Y1.9267
G01 X41.1372 Y1.9315
G01 X41.1251 Y1.9335
G01 X41.0949 Y1.9373
G01 X41.0704 Y1.9391
G01 X41.0523 Y1.9399
G01 X2.2300 Y1.9400
G01 X2.2299 Y33.1423
G01 X2.2291 Y33.1604
G01 X2.2273 Y33.1849
G01 X2.2243 Y33.2092
G01 X2.2193 Y33.2393
G01 X2.2139 Y33.2632
G01 X2.2059 Y33.2926
G01 X2.1962 Y33.3214
G01 X2.1874 Y33.3443
G01 X2.1775 Y33.3667
G01 X2.1639 Y33.3940
G01 X2.1488 Y33.4204
G01 X2.1356 Y33.4411
G01 X2.1215 Y33.4612
G01 X2.1029 Y33.4853
G01 X2.0829 Y33.5082
G01 X2.0660 Y33.5260
G01 X2.0482 Y33.5429
G01 X2.0253 Y33.5629
G01 X2.0012 Y33.5815
G01 X1.9811 Y33.5956
G01 X1.9553 Y33.6118
G01 X1.9340 Y33.6239
G01 X1.9121 Y33.6349
G01 X1.8843 Y33.6474
G01 X1.8559 Y33.6582
G01 X1.8326 Y33.6659
G01 X1.8032 Y33.6739
G01 X1.7793 Y33.6793
G01 X1.7551 Y33.6835
G01 X1.7249 Y33.6873
G01 X1.6945 Y33.6894
G01 X1.6700 Y33.6900
G01 X1.6455 Y33.6894
G01 X1.6151 Y33.6873
G01 X1.5849 Y33.6835
G01 X1.5607 Y33.6793
G01 X1.5368 Y33.6739
G01 X1.5074 Y33.6659
G01 X1.4841 Y33.6582
G01 X1.4557 Y33.6474
G01 X1.4279 Y33.6349
G01 X1.4060 Y33.6239
G01 X1.3847 Y33.6118
G01 X1.3589 Y33.5956
G01 X1.3388 Y33.5815
G01 X1.3147 Y33.5629
G01 X1.2961 Y33.5469
G01 X1.2828 Y33.5346
G01 X1.2654 Y33.5172
G01 X1.2450 Y33.4947
G01 X1.2294 Y33.4757
G01 X1.2113 Y33.4513
G01 X1.1977 Y33.4308
G01 X1.1820 Y33.4047
G01 X1.1704 Y33.3831
G01 X1.1574 Y33.3556
G01 X1.1480 Y33.3329
G01 X1.1378 Y33.3043
G01 X1.1307 Y33.2808
G01 X1.1233 Y33.2513
G01 X1.1185 Y33.2272
G01 X1.1140 Y33.1971
G01 X1.1116 Y33.1727
G01 X1.1106 Y33.1545
G00 X1.1106 Y33.1545
G01 F60.00
G01 Z-1.7000
G01 F120.00
G01 X1.1100 Y33.1300
G01 X1.1100 Y1.3800
G01 X1.1106 Y1.3555
G01 X1.1127 Y1.3251
G01 X1.1165 Y1.2949
G01 X1.1207 Y1.2707
G01 X1.1233 Y1.2587
G01 X1.1307 Y1.2292
G01 X1.1341 Y1.2174
G01 X1.1418 Y1.1941
G01 X1.1526 Y1.1657
G01 X1.1651 Y1.1379
G01 X1.1704 Y1.1269
G01 X1.1820 Y1.1053
G01 X1.1977 Y1.0792
G01 X1.2113 Y1.0587
G01 X1.2185 Y1.0488
G01 X1.2371 Y1.0247
G01 X1.2571 Y1.0018
G01 X1.2740 Y0.9840
G01 X1.2961 Y0.9631
G01 X1.3147 Y0.9471
G01 X1.3243 Y0.9394
G01 X1.3388 Y0.9285
G01 X1.3589 Y0.9144
G01 X1.3796 Y0.9012
G01 X1.4060 Y0.8861
G01 X1.4279 Y0.8751
G01 X1.4444 Y0.8674
G01 X1.4671 Y0.8580
G01 X1.4841 Y0.8518
G01 X1.5074 Y0.8441
G01 X1.5311 Y0.8375
G01 X1.5487 Y0.8333
G01 X1.5728 Y0.8285
G01 X1.5908 Y0.8257
G01 X1.6151 Y0.8227
G01 X1.6455 Y0.8206
G01 X1.6700 Y0.8200
G01 X41.0400 Y0.8200
G01 X41.0645 Y0.8206
G01 X41.0949 Y0.8227
G01 X41.1251 Y0.8265
G01 X41.1372 Y0.8285
G01 X41.1613 Y0.8333
G01 X41.1908 Y0.8407
G01 X41.2026 Y0.8441
G01 X41.2259 Y0.8518
G01 X41.2543 Y0.8626
G01 X41.2821 Y0.8751
G01 X41.2931 Y0.8804
G01 X41.3147 Y0.8920
G01 X41.3408 Y0.9077
G01 X41.3511 Y0.9144
G01 X41.3712 Y0.9285
G01 X41.3953 Y0.9471
G01 X41.4182 Y0.9671
G01 X41.4360 Y0.9840
G01 X41.4569 Y1.0061
G01 X41.4729 Y1.0247
G01 X41.4806 Y1.0343
G01 X41.4915 Y1.0488
G01 X41.5056 Y1.0689
G01 X41.5218 Y1.0947
G01 X41.5339 Y1.1160
G01 X41.5396 Y1.1269
G01 X41.5475 Y1.1433
G01 X41.5574 Y1.1657
G01 X41.5662 Y1.1886
G01 X41.5722 Y1.2057
G01 X41.5759 Y1.2174
G01 X41.5825 Y1.2411
G01 X41.5893 Y1.2707
G01 X41.5935 Y1.2949
G01 X41.5960 Y1.3129
G01 X41.5973 Y1.3251
G01 X41.5991 Y1.3496
G01 X41.5999 Y1.3677
G01 X41.5999 Y1.3923
G01 X41.5991 Y1.4104
G01 X41.5973 Y1.4349
G01 X41.5935 Y1.4651
G01 X41.5893 Y1.4893
G01 X41.5867 Y1.5013
G01 X41.5825 Y1.5189
G01 X41.5759 Y1.5426
G01 X41.5682 Y1.5659
G01 X41.5620 Y1.5829
G01 X41.5526 Y1.6056
G01 X41.5475 Y1.6167
G01 X41.5339 Y1.6440
G01 X41.5218 Y1.6653
G01 X41.5123 Y1.6808
G01 X41.4987 Y1.7013
G01 X41.4915 Y1.7112
G01 X41.4806 Y1.7257
G01 X41.4650 Y1.7447
G01 X41.4529 Y1.7582
G01 X41.4360 Y1.7760
G01 X41.4139 Y1.7969
G01 X41.4047 Y1.8050
G01 X41.3857 Y1.8206
G01 X41.3712 Y1.8315
G01 X41.3511 Y1.8456
G01 X41.3304 Y1.8588
G01 X41.3147 Y1.8680
G01 X41.2931 Y1.8796
G01 X41.2767 Y1.8875
G01 X41.2656 Y1.8926
G01 X41.2429 Y1.9020
G01 X41.2259 Y1.9082
G01 X41.2026 Y1.9159
G01 X41.1789 Y1.9225
G01 X41.1613 Y1.9267
G01 X41.1372 Y1.9315
G01 X41.1251 Y1.9335
G01 X41.0949 Y1.9373
G01 X41.0704 Y1.9391
G01 X41.0523 Y1.9399
G01 X2.2300 Y1.9400
G01 X2.2299 Y33.1423
G01 X2.2291 Y33.1604
G01 X2.2273 Y33.1849
G01 X2.2243 Y33.2092
G01 X2.2193 Y33.2393
G01 X2.2139 Y33.2632
G01 X2.2059 Y33.2926
G01 X2.1962 Y33.3214
G01 X2.1874 Y33.3443
G01 X2.1775 Y33.3667
G01 X2.1639 Y33.3940
G01 X2.1488 Y33.4204
G01 X2.1356 Y33.4411
G01 X2.1215 Y33.4612
G01 X2.1029 Y33.4853
G01 X2.0829 Y33.5082
G01 X2.0660 Y33.5260
G01 X2.0482 Y33.5429
G01 X2.0253 Y33.5629
G01 X2.0012 Y33.5815
G01 X1.9811 Y33.5956
G01 X1.9553 Y33.6118
G01 X1.9340 Y33.6239
G01 X1.9121 Y33.6349
G01 X1.8843 Y33.6474
G01 X1.8559 Y33.6582
G01 X1.8326 Y33.6659
G01 X1.8032 Y33.6739
G01 X1.7793 Y33.6793
G01 X1.7551 Y33.6835
G01 X1.7249 Y33.6873
G01 X1.6945 Y33.6894
G01 X1.6700 Y33.6900
G01 X1.6455 Y33.6894
G01 X1.6151 Y33.6873
G01 X1.5849 Y33.6835
G01 X1.5607 Y33.6793
G01 X1.5368 Y33.6739
G01 X1.5074 Y33.6659
G01 X1.4841 Y33.6582
G01 X1.4557 Y33.6474
G01 X1.4279 Y33.6349
G01 X1.4060 Y33.6239
G01 X1.3847 Y33.6118
G01 X1.3589 Y33.5956
G01 X1.3388 Y33.5815
G01 X1.3147 Y33.5629
G01 X1.2961 Y33.5469
G01 X1.2828 Y33.5346
G01 X1.2654 Y33.5172
G01 X1.2450 Y33.4947
G01 X1.2294 Y33.4757
G01 X1.2113 Y33.4513
G01 X1.1977 Y33.4308
G01 X1.1820 Y33.4047
G01 X1.1704 Y33.3831
G01 X1.1574 Y33.3556
G01 X1.1480 Y33.3329
G01 X1.1378 Y33.3043
G01 X1.1307 Y33.2808
G01 X1.1233 Y33.2513
G01 X1.1185 Y33.2272
G01 X1.1140 Y33.1971
G01 X1.1116 Y33.1727
G01 X1.1106 Y33.1545
G00 Z2.0000
G00 X1.1106 Y68.7145
G01 F60.00
G01 Z-0.3000
G01 F120.00
G01 X1.1100 Y68.6900
G01 X1.1101 Y35.6577
G01 X1.1109 Y35.6396
G01 X1.1127 Y35.6151
G01 X1.1157 Y35.5908
G01 X1.1207 Y35.5607
G01 X1.1261 Y35.5368
G01 X1.1341 Y35.5074
G01 X1.1438 Y35.4786
G01 X1.1526 Y35.4557
G01 X1.1625 Y35.4333
G01 X1.1761 Y35.4060
G01 X1.1912 Y35.3796
G01 X1.2044 Y35.3589
G01 X1.2185 Y35.3388
G01 X1.2371 Y35.3147
G01 X1.2571 Y35.2918
G01 X1.2740 Y35.2740
G01 X1.2918 Y35.2571
G01 X1.3147 Y35.2371
G01 X1.3388 Y35.2185
G01 X1.3589 Y35.2044
G01 X1.3847 Y35.1882
G01 X1.4060 Y35.1761
G01 X1.4279 Y35.1651
G01 X1.4557 Y35.1526
G01 X1.4841 Y35.1418
G01 X1.5074 Y35.1341
G01 X1.5368 Y35.1261
G01 X1.5607 Y35.1207
G01 X1.5849 Y35.1165
G01 X1.6151 Y35.1127
G01 X1.6455 Y35.1106
G01 X1.6700 Y35.1100
G01 X1.6945 Y35.1106
G01 X1.7249 Y35.1127
G01 X1.7551 Y35.1165
G01 X1.7793 Y35.1207
G01 X1.8032 Y35.1261
G01 X1.8326 Y35.1341
G01 X1.8559 Y35.1418
G01 X1.8843 Y35.1526
G01 X1.9121 Y35.1651
G01 X1.9340 Y35.1761
G01 X1.9553 Y35.1882
G01 X1.9811 Y35.2044
G01 X2.0012 Y35.2185
G01 X2.0253 Y35.2371
G01 X2.0482 Y35.2571
G01 X2.0660 Y35.2740
G01 X2.0829 Y35.2918
G01 X2.1029 Y35.3147
G01 X2.1215 Y35.3388
G01 X2.1356 Y35.3589
G01 X2.1488 Y35.3796
G01 X2.1639 Y35.4060
G01 X2.1775 Y35.4333
G01 X2.1874 Y35.4557
G01 X2.1962 Y35.4786
G01 X2.2059 Y35.5074
G01 X2.2125 Y35.5311
G01 X2.2193 Y35.5607
G01 X2.2235 Y35.5849
G01 X2.2273 Y35.6151
G01 X2.2291 Y35.6396
G01 X2.2299 Y35.6577
G01 X2.2300 Y68.1300
G01 X42.3223 Y68.1301
G01 X42.3404 Y68.1309
G01 X42.3649 Y68.1327
G01 X42.3951 Y68.1365
G01 X42.4193 Y68.1407
G01 X42.4432 Y68.1461
G01 X42.4726 Y68.1541
G01 X42.4959 Y68.1618
G01 X42.5243 Y68.1726
G01 X42.5521 Y68.1851
G01 X42.5740 Y68.1961
G01 X42.5953 Y68.2082
G01 X42.6211 Y68.2244
G01 X42.6412 Y68.2385
G01 X42.6653 Y68.2571
G01 X42.6882 Y68.2771
G01 X42.7060 Y68.2940
G01 X42.7229 Y68.3118
G01 X42.7429 Y68.3347
G01 X42.7615 Y68.3588
G01 X42.7756 Y68.3789
G01 X42.7888 Y68.3996
G01 X42.8039 Y68.4260
G01 X42.8175 Y68.4533
G01 X42.8274 Y68.4757
G01 X42.8362 Y68.4986
G01 X42.8459 Y68.5274
G01 X42.8525 Y68.5511
G01 X42.8593 Y68.5807
G01 X42.8643 Y68.6108
G01 X42.8673 Y68.6351
G01 X42.8691 Y68.6596
G01 X42.8700 Y68.6900
G01 X42.8691 Y68.7204
G01 X42.8673 Y68.7449
G01 X42.8643 Y68.7692
G01 X42.8593 Y68.7993
G01 X42.8539 Y68.8232
G01 X42.8459 Y68.8526
G01 X42.8362 Y68.8814
G01 X42.8274 Y68.9043
G01 X42.8175 Y68.9267
G01 X42.8039 Y68.9540
G01 X42.7888 Y68.9804
G01 X42.7756 Y69.0011
G01 X42.7615 Y69.0212
G01 X42.7429 Y69.0453
G01 X42.7229 Y69.0682
G01 X42.7060 Y69.0860
G01 X42.6882 Y69.1029
G01 X42.6653 Y69.1229
G01 X42.6412 Y69.1415
G01 X42.6211 Y69.1556
G01 X42.5953 Y69.1718
G01 X42.5740 Y69.1839
G01 X42.5521 Y69.1949
G01 X42.5243 Y69.2074
G01 X42.4959 Y69.2182
G01 X42.4726 Y69.2259
G01 X42.4432 Y69.2339
G01 X42.4193 Y69.2393
G01 X42.3951 Y69.2435
G01 X42.3649 Y69.2473
G01 X42.3345 Y69.2494
G01 X42.3100 Y69.2500
G01 X1.6577 Y69.2499
G01 X1.6396 Y69.2491
G01 X1.6151 Y69.2473
G01 X1.5849 Y69.2435
G01 X1.5607 Y69.2393
G01 X1.5368 Y69.2339
G01 X1.5074 Y69.2259
G01 X1.4841 Y69.2182
G01 X1.4557 Y69.2074
G01 X1.4279 Y69.1949
G01 X1.4060 Y69.1839
G01 X1.3847 Y69.1718
G01 X1.3589 Y69.1556
G01 X1.3388 Y69.1415
G01 X1.3147 Y69.1229
G01 X1.2918 Y69.1029
G01 X1.2740 Y69.0860
G01 X1.2571 Y69.0682
G01 X1.2371 Y69.0453
G01 X1.2185 Y69.0212
G01 X1.2044 Y69.0011
G01 X1.1912 Y68.9804
G01 X1.1761 Y68.9540
G01 X1.1651 Y68.9321
G01 X1.1574 Y68.9156
G01 X1.1480 Y68.8929
G01 X1.1378 Y68.8643
G01 X1.1307 Y68.8408
G01 X1.1233 Y68.8113
G01 X1.1185 Y68.7872
G01 X1.1140 Y68.7571
G01 X1.1116 Y68.7327
G01 X1.1106 Y68.7145
G00 X1.1106 Y68.7145
G01 F60.00
G01 Z-0.6000
G01 F120.00
G01 X1.1100 Y68.6900
G01 X1.1101 Y35.6577
G01 X1.1109 Y35.6396
G01 X1.1127 Y35.6151
G01 X1.1157 Y35.5908
G01 X1.1207 Y35.5607
G01 X1.1261 Y35.5368
G01 X1.1341 Y35.5074
G01 X1.1438 Y35.4786
G01 X1.1526 Y35.4557
G01 X1.1625 Y35.4333
G01 X1.1761 Y35.4060
G01 X1.1912 Y35.3796
G01 X1.2044 Y35.3589
G01 X1.2185 Y35.3388
G01 X1.2371 Y35.3147
G01 X1.2571 Y35.2918
G01 X1.2740 Y35.2740
G01 X1.2918 Y35.2571
G01 X1.3147 Y35.2371
G01 X1.3388 Y35.2185
G01 X1.3589 Y35.2044
G01 X1.3847 Y35.1882
G01 X1.4060 Y35.1761
G01 X1.4279 Y35.1651
G01 X1.4557 Y35.1526
G01 X1.4841 Y35.1418
G01 X1.5074 Y35.1341
G01 X1.5368 Y35.1261
G01 X1.5607 Y35.1207
G01 X1.5849 Y35.1165
G01 X1.6151 Y35.1127
G01 X1.6455 Y35.1106
G01 X1.6700 Y35.1100
G01 X1.6945 Y35.1106
G01 X1.7249 Y35.1127
G01 X1.7551 Y35.1165
G01 X1.7793 Y35.1207
G01 X1.8032 Y35.1261
G01 X1.8326 Y35.1341
G01 X1.8559 Y35.1418
G01 X1.8843 Y35.1526
G01 X1.9121 Y35.1651
G01 X1.9340 Y35.1761
G01 X1.9553 Y35.1882
G01 X1.9811 Y35.2044
G01 X2.0012 Y35.2185
G01 X2.0253 Y35.2371
G01 X2.0482 Y35.2571
G01 X2.0660 Y35.2740
G01 X2.0829 Y35.2918
G01 X2.1029 Y35.3147
G01 X2.1215 Y35.3388
G01 X2.1356 Y35.3589
G01 X2.1488 Y35.3796
G01 X2.1639 Y35.4060
G01 X2.1775 Y35.4333
G01 X2.1874 Y35.4557
G01 X2.1962 Y35.4786
G01 X2.2059 Y35.5074
G01 X2.2125 Y35.5311
G01 X2.2193 Y35.5607
G01 X2.2235 Y35.5849
G01 X2.2273 Y35.6151
G01 X2.2291 Y35.6396
G01 X2.2299 Y35.6577
G01 X2.2300 Y68.1300
G01 X42.3223 Y68.1301
G01 X42.3404 Y68.1309
G01 X42.3649 Y68.1327
G01 X42.3951 Y68.1365
G01 X42.4193 Y68.1407
G01 X42.4432 Y68.1461
G01 X42.4726 Y68.1541
G01 X42.4959 Y68.1618
G01 X42.5243 Y68.1726
G01 X42.5521 Y68.1851
G01 X42.5740 Y68.1961
G01 X42.5953 Y68.2082
G01 X42.6211 Y68.2244
G01 X42.6412 Y68.2385
G01 X42.6653 Y68.2571
G01 X42.6882 Y68.2771
G01 X42.7060 Y68.2940
G01 X42.7229 Y68.3118
G01 X42.7429 Y68.3347
G01 X42.7615 Y68.3588
G01 X42.7756 Y68.3789
G01 X42.7888 Y68.3996
G01 X42.8039 Y68.4260
G01 X42.8175 Y68.4533
G01 X42.8274 Y68.4757
G01 X42.8362 Y68.4986
G01 X42.8459 Y68.5274
G01 X42.8525 Y68.5511
G01 X42.8593 Y68.5807
G01 X42.8643 Y68.6108
G01 X42.8673 Y68.6351
G01 X42.8691 Y68.6596
G01 X42.8700 Y68.6900
G01 X42.8691 Y68.7204
G01 X42.8673 Y68.7449
G01 X42.8643 Y68.7692
G01 X42.8593 Y68.7993
G01 X42.8539 Y68.8232
G01 X42.8459 Y68.8526
G01 X42.8362 Y68.8814
G01 X42.8274 Y68.9043
G01 X42.8175 Y68.9267
G01 X42.8039 Y68.9540
G01 X42.7888 Y68.9804
G01 X42.7756 Y69.0011
G01 X42.7615 Y69.0212
G01 X42.7429 Y69.0453
G01 X42.7229 Y69.0682
G01 X42.7060 Y69.0860
G01 X42.6882 Y69.1029
G01 X42.6653 Y69.1229
G01 X42.6412 Y69.1415
G01 X42.6211 Y69.1556
G01 X42.5953 Y69.1718
G01 X42.5740 Y69.1839
G01 X42.5521 Y69.1949
G01 X42.5243 Y69.2074
G01 X42.4959 Y69.2182
G01 X42.4726 Y69.2259
G01 X42.4432 Y69.2339
G01 X42.4193 Y69.2393
G01 X42.3951 Y69.2435
G01 X42.3649 Y69.2473
G01 X42.3345 Y69.2494
G01 X42.3100 Y69.2500
G01 X1.6577 Y69.2499
G01 X1.6396 Y69.2491
G01 X1.6151 Y69.2473
G01 X1.5849 Y69.2435
G01 X1.5607 Y69.2393
G01 X1.5368 Y69.2339
G01 X1.5074 Y69.2259
G01 X1.4841 Y69.2182
G01 X1.4557 Y69.2074
G01 X1.4279 Y69.1949
G01 X1.4060 Y69.1839
G01 X1.3847 Y69.1718
G01 X1.3589 Y69.1556
G01 X1.3388 Y69.1415
G01 X1.3147 Y69.1229
G01 X1.2918 Y69.1029
G01 X1.2740 Y69.0860
G01 X1.2571 Y69.0682
G01 X1.2371 Y69.0453
G01 X1.2185 Y69.0212
G01 X1.2044 Y69.0011
G01 X1.1912 Y68.9804
G01 X1.1761 Y68.9540
G01 X1.1651 Y68.9321
G01 X1.1574 Y68.9156
G01 X1.1480 Y68.8929
G01 X1.1378 Y68.8643
G01 X1.1307 Y68.8408
G01 X1.1233 Y68.8113
G01 X1.1185 Y68.7872
G01 X1.1140 Y68.7571
G01 X1.1116 Y68.7327
G01 X1.1106 Y68.7145
G00 X1.1106 Y68.7145
G01 F60.00
G01 Z-0.9000
G01 F120.00
G01 X1.1100 Y68.6900
G01 X1.1101 Y35.6577
G01 X1.1109 Y35.6396
G01 X1.1127 Y35.6151
G01 X1.1157 Y35.5908
G01 X1.1207 Y35.5607
G01 X1.1261 Y35.5368
G01 X1.1341 Y35.5074
G01 X1.1438 Y35.4786
G01 X1.1526 Y35.4557
G01 X1.1625 Y35.4333
G01 X1.1761 Y35.4060
G01 X1.1912 Y35.3796
G01 X1.2044 Y35.3589
G01 X1.2185 Y35.3388
G01 X1.2371 Y35.3147
G01 X1.2571 Y35.2918
G01 X1.2740 Y35.2740
G01 X1.2918 Y35.2571
G01 X1.3147 Y35.2371
G01 X1.3388 Y35.2185
G01 X1.3589 Y35.2044
G01 X1.3847 Y35.1882
G01 X1.4060 Y35.1761
G01 X1.4279 Y35.1651
G01 X1.4557 Y35.1526
G01 X1.4841 Y35.1418
G01 X1.5074 Y35.1341
G01 X1.5368 Y35.1261
G01 X1.5607 Y35.1207
G01 X1.5849 Y35.1165
G01 X1.6151 Y35.1127
G01 X1.6455 Y35.1106
G01 X1.6700 Y35.1100
G01 X1.6945 Y35.1106
G01 X1.7249 Y35.1127
G01 X1.7551 Y35.1165
G01 X1.7793 Y35.1207
G01 X1.8032 Y35.1261
G01 X1.8326 Y35.1341
G01 X1.8559 Y35.1418
G01 X1.8843 Y35.1526
G01 X1.9121 Y35.1651
G01 X1.9340 Y35.1761
G01 X1.9553 Y35.1882
G01 X1.9811 Y35.2044
G01 X2.0012 Y35.2185
G01 X2.0253 Y35.2371
G01 X2.0482 Y35.2571
G01 X2.0660 Y35.2740
G01 X2.0829 Y35.2918
G01 X2.1029 Y35.3147
G01 X2.1215 Y35.3388
G01 X2.1356 Y35.3589
G01 X2.1488 Y35.3796
G01 X2.1639 Y35.4060
G01 X2.1775 Y35.4333
G01 X2.1874 Y35.4557
G01 X2.1962 Y35.4786
G01 X2.2059 Y35.5074
G01 X2.2125 Y35.5311
G01 X2.2193 Y35.5607
G01 X2.2235 Y35.5849
G01 X2.2273 Y35.6151
G01 X2.2291 Y35.6396
G01 X2.2299 Y35.6577
G01 X2.2300 Y68.1300
G01 X42.3223 Y68.1301
G01 X42.3404 Y68.1309
G01 X42.3649 Y68.1327
G01 X42.3951 Y68.1365
G01 X42.4193 Y68.1407
G01 X42.4432 Y68.1461
G01 X42.4726 Y68.1541
G01 X42.4959 Y68.1618
G01 X42.5243 Y68.1726
G01 X42.5521 Y68.1851
G01 X42.5740 Y68.1961
G01 X42.5953 Y68.2082
G01 X42.6211 Y68.2244
G01 X42.6412 Y68.2385
G01 X42.6653 Y68.2571
G01 X42.6882 Y68.2771
G01 X42.7060 Y68.2940
G01 X42.7229 Y68.3118
G01 X42.7429 Y68.3347
G01 X42.7615 Y68.3588
G01 X42.7756 Y68.3789
G01 X42.7888 Y68.3996
G01 X42.8039 Y68.4260
G01 X42.8175 Y68.4533
G01 X42.8274 Y68.4757
G01 X42.8362 Y68.4986
G01 X42.8459 Y68.5274
G01 X42.8525 Y68.5511
G01 X42.8593 Y68.5807
G01 X42.8643 Y68.6108
G01 X42.8673 Y68.6351
G01 X42.8691 Y68.6596
G01 X42.8700 Y68.6900
G01 X42.8691 Y68.7204
G01 X42.8673 Y68.7449
G01 X42.8643 Y68.7692
G01 X42.8593 Y68.7993
G01 X42.8539 Y68.8232
G01 X42.8459 Y68.8526
G01 X42.8362 Y68.8814
G01 X42.8274 Y68.9043
G01 X42.8175 Y68.9267
G01 X42.8039 Y68.9540
G01 X42.7888 Y68.9804
G01 X42.7756 Y69.0011
G01 X42.7615 Y69.0212
G01 X42.7429 Y69.0453
G01 X42.7229 Y69.0682
G01 X42.7060 Y69.0860
G01 X42.6882 Y69.1029
G01 X42.6653 Y69.1229
G01 X42.6412 Y69.1415
G01 X42.6211 Y69.1556
G01 X42.5953 Y69.1718
G01 X42.5740 Y69.1839
G01 X42.5521 Y69.1949
G01 X42.5243 Y69.2074
G01 X42.4959 Y69.2182
G01 X42.4726 Y69.2259
G01 X42.4432 Y69.2339
G01 X42.4193 Y69.2393
G01 X42.3951 Y69.2435
G01 X42.3649 Y69.2473
G01 X42.3345 Y69.2494
G01 X42.3100 Y69.2500
G01 X1.6577 Y69.2499
G01 X1.6396 Y69.2491
G01 X1.6151 Y69.2473
G01 X1.5849 Y69.2435
G01 X1.5607 Y69.2393
G01 X1.5368 Y69.2339
G01 X1.5074 Y69.2259
G01 X1.4841 Y69.2182
G01 X1.4557 Y69.2074
G01 X1.4279 Y69.1949
G01 X1.4060 Y69.1839
G01 X1.3847 Y69.1718
G01 X1.3589 Y69.1556
G01 X1.3388 Y69.1415
G01 X1.3147 Y69.1229
G01 X1.2918 Y69.1029
G01 X1.2740 Y69.0860
G01 X1.2571 Y69.0682
G01 X1.2371 Y69.0453
G01 X1.2185 Y69.0212
G01 X1.2044 Y69.0011
G01 X1.1912 Y68.9804
G01 X1.1761 Y68.9540
G01 X1.1651 Y68.9321
G01 X1.1574 Y68.9156
G01 X1.1480 Y68.8929
G01 X1.1378 Y68.8643
G01 X1.1307 Y68.8408
G01 X1.1233 Y68.8113
G01 X1.1185 Y68.7872
G01 X1.1140 Y68.7571
G01 X1.1116 Y68.7327
G01 X1.1106 Y68.7145
G00 X1.1106 Y68.7145
G01 F60.00
G01 Z-1.2000
G01 F120.00
G01 X1.1100 Y68.6900
G01 X1.1101 Y35.6577
G01 X1.1109 Y35.6396
G01 X1.1127 Y35.6151
G01 X1.1157 Y35.5908
G01 X1.1207 Y35.5607
G01 X1.1261 Y35.5368
G01 X1.1341 Y35.5074
G01 X1.1438 Y35.4786
G01 X1.1526 Y35.4557
G01 X1.1625 Y35.4333
G01 X1.1761 Y35.4060
G01 X1.1912 Y35.3796
G01 X1.2044 Y35.3589
G01 X1.2185 Y35.3388
G01 X1.2371 Y35.3147
G01 X1.2571 Y35.2918
G01 X1.2740 Y35.2740
G01 X1.2918 Y35.2571
G01 X1.3147 Y35.2371
G01 X1.3388 Y35.2185
G01 X1.3589 Y35.2044
G01 X1.3847 Y35.1882
G01 X1.4060 Y35.1761
G01 X1.4279 Y35.1651
G01 X1.4557 Y35.1526
G01 X1.4841 Y35.1418
G01 X1.5074 Y35.1341
G01 X1.5368 Y35.1261
G01 X1.5607 Y35.1207
G01 X1.5849 Y35.1165
G01 X1.6151 Y35.1127
G01 X1.6455 Y35.1106
G01 X1.6700 Y35.1100
G01 X1.6945 Y35.1106
G01 X1.7249 Y35.1127
G01 X1.7551 Y35.1165
G01 X1.7793 Y35.1207
G01 X1.8032 Y35.1261
G01 X1.8326 Y35.1341
G01 X1.8559 Y35.1418
G01 X1.8843 Y35.1526
G01 X1.9121 Y35.1651
G01 X1.9340 Y35.1761
G01 X1.9553 Y35.1882
G01 X1.9811 Y35.2044
G01 X2.0012 Y35.2185
G01 X2.0253 Y35.2371
G01 X2.0482 Y35.2571
G01 X2.0660 Y35.2740
G01 X2.0829 Y35.2918
G01 X2.1029 Y35.3147
G01 X2.1215 Y35.3388
G01 X2.1356 Y35.3589
G01 X2.1488 Y35.3796
G01 X2.1639 Y35.4060
G01 X2.1775 Y35.4333
G01 X2.1874 Y35.4557
G01 X2.1962 Y35.4786
G01 X2.2059 Y35.5074
G01 X2.2125 Y35.5311
G01 X2.2193 Y35.5607
G01 X2.2235 Y35.5849
G01 X2.2273 Y35.6151
G01 X2.2291 Y35.6396
G01 X2.2299 Y35.6577
G01 X2.2300 Y68.1300
G01 X42.3223 Y68.1301
G01 X42.3404 Y68.1309
G01 X42.3649 Y68.1327
G01 X42.3951 Y68.1365
G01 X42.4193 Y68.1407
G01 X42.4432 Y68.1461
G01 X42.4726 Y68.1541
G01 X42.4959 Y68.1618
G01 X42.5243 Y68.1726
G01 X42.5521 Y68.1851
G01 X42.5740 Y68.1961
G01 X42.5953 Y68.2082
G01 X42.6211 Y68.2244
G01 X42.6412 Y68.2385
G01 X42.6653 Y68.2571
G01 X42.6882 Y68.2771
G01 X42.7060 Y68.2940
G01 X42.7229 Y68.3118
G01 X42.7429 Y68.3347
G01 X42.7615 Y68.3588
G01 X42.7756 Y68.3789
G01 X42.7888 Y68.3996
G01 X42.8039 Y68.4260
G01 X42.8175 Y68.4533
G01 X42.8274 Y68.4757
G01 X42.8362 Y68.4986
G01 X42.8459 Y68.5274
G01 X42.8525 Y68.5511
G01 X42.8593 Y68.5807
G01 X42.8643 Y68.6108
G01 X42.8673 Y68.6351
G01 X42.8691 Y68.6596
G01 X42.8700 Y68.6900
G01 X42.8691 Y68.7204
G01 X42.8673 Y68.7449
G01 X42.8643 Y68.7692
G01 X42.8593 Y68.7993
G01 X42.8539 Y68.8232
G01 X42.8459 Y68.8526
G01 X42.8362 Y68.8814
G01 X42.8274 Y68.9043
G01 X42.8175 Y68.9267
G01 X42.8039 Y68.9540
G01 X42.7888 Y68.9804
G01 X42.7756 Y69.0011
G01 X42.7615 Y69.0212
G01 X42.7429 Y69.0453
G01 X42.7229 Y69.0682
G01 X42.7060 Y69.0860
G01 X42.6882 Y69.1029
G01 X42.6653 Y69.1229
G01 X42.6412 Y69.1415
G01 X42.6211 Y69.1556
G01 X42.5953 Y69.1718
G01 X42.5740 Y69.1839
G01 X42.5521 Y69.1949
G01 X42.5243 Y69.2074
G01 X42.4959 Y69.2182
G01 X42.4726 Y69.2259
G01 X42.4432 Y69.2339
G01 X42.4193 Y69.2393
G01 X42.3951 Y69.2435
G01 X42.3649 Y69.2473
G01 X42.3345 Y69.2494
G01 X42.3100 Y69.2500
G01 X1.6577 Y69.2499
G01 X1.6396 Y69.2491
G01 X1.6151 Y69.2473
G01 X1.5849 Y69.2435
G01 X1.5607 Y69.2393
G01 X1.5368 Y69.2339
G01 X1.5074 Y69.2259
G01 X1.4841 Y69.2182
G01 X1.4557 Y69.2074
G01 X1.4279 Y69.1949
G01 X1.4060 Y69.1839
G01 X1.3847 Y69.1718
G01 X1.3589 Y69.1556
G01 X1.3388 Y69.1415
G01 X1.3147 Y69.1229
G01 X1.2918 Y69.1029
G01 X1.2740 Y69.0860
G01 X1.2571 Y69.0682
G01 X1.2371 Y69.0453
G01 X1.2185 Y69.0212
G01 X1.2044 Y69.0011
G01 X1.1912 Y68.9804
G01 X1.1761 Y68.9540
G01 X1.1651 Y68.9321
G01 X1.1574 Y68.9156
G01 X1.1480 Y68.8929
G01 X1.1378 Y68.8643
G01 X1.1307 Y68.8408
G01 X1.1233 Y68.8113
G01 X1.1185 Y68.7872
G01 X1.1140 Y68.7571
G01 X1.1116 Y68.7327
G01 X1.1106 Y68.7145
G00 X1.1106 Y68.7145
G01 F60.00
G01 Z-1.5000
G01 F120.00
G01 X1.1100 Y68.6900
G01 X1.1101 Y35.6577
G01 X1.1109 Y35.6396
G01 X1.1127 Y35.6151
G01 X1.1157 Y35.5908
G01 X1.1207 Y35.5607
G01 X1.1261 Y35.5368
G01 X1.1341 Y35.5074
G01 X1.1438 Y35.4786
G01 X1.1526 Y35.4557
G01 X1.1625 Y35.4333
G01 X1.1761 Y35.4060
G01 X1.1912 Y35.3796
G01 X1.2044 Y35.3589
G01 X1.2185 Y35.3388
G01 X1.2371 Y35.3147
G01 X1.2571 Y35.2918
G01 X1.2740 Y35.2740
G01 X1.2918 Y35.2571
G01 X1.3147 Y35.2371
G01 X1.3388 Y35.2185
G01 X1.3589 Y35.2044
G01 X1.3847 Y35.1882
G01 X1.4060 Y35.1761
G01 X1.4279 Y35.1651
G01 X1.4557 Y35.1526
G01 X1.4841 Y35.1418
G01 X1.5074 Y35.1341
G01 X1.5368 Y35.1261
G01 X1.5607 Y35.1207
G01 X1.5849 Y35.1165
G01 X1.6151 Y35.1127
G01 X1.6455 Y35.1106
G01 X1.6700 Y35.1100
G01 X1.6945 Y35.1106
G01 X1.7249 Y35.1127
G01 X1.7551 Y35.1165
G01 X1.7793 Y35.1207
G01 X1.8032 Y35.1261
G01 X1.8326 Y35.1341
G01 X1.8559 Y35.1418
G01 X1.8843 Y35.1526
G01 X1.9121 Y35.1651
G01 X1.9340 Y35.1761
G01 X1.9553 Y35.1882
G01 X1.9811 Y35.2044
G01 X2.0012 Y35.2185
G01 X2.0253 Y35.2371
G01 X2.0482 Y35.2571
G01 X2.0660 Y35.2740
G01 X2.0829 Y35.2918
G01 X2.1029 Y35.3147
G01 X2.1215 Y35.3388
G01 X2.1356 Y35.3589
G01 X2.1488 Y35.3796
G01 X2.1639 Y35.4060
G01 X2.1775 Y35.4333
G01 X2.1874 Y35.4557
G01 X2.1962 Y35.4786
G01 X2.2059 Y35.5074
G01 X2.2125 Y35.5311
G01 X2.2193 Y35.5607
G01 X2.2235 Y35.5849
G01 X2.2273 Y35.6151
G01 X2.2291 Y35.6396
G01 X2.2299 Y35.6577
G01 X2.2300 Y68.1300
G01 X42.3223 Y68.1301
G01 X42.3404 Y68.1309
G01 X42.3649 Y68.1327
G01 X42.3951 Y68.1365
G01 X42.4193 Y68.1407
G01 X42.4432 Y68.1461
G01 X42.4726 Y68.1541
G01 X42.4959 Y68.1618
G01 X42.5243 Y68.1726
G01 X42.5521 Y68.1851
G01 X42.5740 Y68.1961
G01 X42.5953 Y68.2082
G01 X42.6211 Y68.2244
G01 X42.6412 Y68.2385
G01 X42.6653 Y68.2571
G01 X42.6882 Y68.2771
G01 X42.7060 Y68.2940
G01 X42.7229 Y68.3118
G01 X42.7429 Y68.3347
G01 X42.7615 Y68.3588
G01 X42.7756 Y68.3789
G01 X42.7888 Y68.3996
G01 X42.8039 Y68.4260
G01 X42.8175 Y68.4533
G01 X42.8274 Y68.4757
G01 X42.8362 Y68.4986
G01 X42.8459 Y68.5274
G01 X42.8525 Y68.5511
G01 X42.8593 Y68.5807
G01 X42.8643 Y68.6108
G01 X42.8673 Y68.6351
G01 X42.8691 Y68.6596
G01 X42.8700 Y68.6900
G01 X42.8691 Y68.7204
G01 X42.8673 Y68.7449
G01 X42.8643 Y68.7692
G01 X42.8593 Y68.7993
G01 X42.8539 Y68.8232
G01 X42.8459 Y68.8526
G01 X42.8362 Y68.8814
G01 X42.8274 Y68.9043
G01 X42.8175 Y68.9267
G01 X42.8039 Y68.9540
G01 X42.7888 Y68.9804
G01 X42.7756 Y69.0011
G01 X42.7615 Y69.0212
G01 X42.7429 Y69.0453
G01 X42.7229 Y69.0682
G01 X42.7060 Y69.0860
G01 X42.6882 Y69.1029
G01 X42.6653 Y69.1229
G01 X42.6412 Y69.1415
G01 X42.6211 Y69.1556
G01 X42.5953 Y69.1718
G01 X42.5740 Y69.1839
G01 X42.5521 Y69.1949
G01 X42.5243 Y69.2074
G01 X42.4959 Y69.2182
G01 X42.4726 Y69.2259
G01 X42.4432 Y69.2339
G01 X42.4193 Y69.2393
G01 X42.3951 Y69.2435
G01 X42.3649 Y69.2473
G01 X42.3345 Y69.2494
G01 X42.3100 Y69.2500
G01 X1.6577 Y69.2499
G01 X1.6396 Y69.2491
G01 X1.6151 Y69.2473
G01 X1.5849 Y69.2435
G01 X1.5607 Y69.2393
G01 X1.5368 Y69.2339
G01 X1.5074 Y69.2259
G01 X1.4841 Y69.2182
G01 X1.4557 Y69.2074
G01 X1.4279 Y69.1949
G01 X1.4060 Y69.1839
G01 X1.3847 Y69.1718
G01 X1.3589 Y69.1556
G01 X1.3388 Y69.1415
G01 X1.3147 Y69.1229
G01 X1.2918 Y69.1029
G01 X1.2740 Y69.0860
G01 X1.2571 Y69.0682
G01 X1.2371 Y69.0453
G01 X1.2185 Y69.0212
G01 X1.2044 Y69.0011
G01 X1.1912 Y68.9804
G01 X1.1761 Y68.9540
G01 X1.1651 Y68.9321
G01 X1.1574 Y68.9156
G01 X1.1480 Y68.8929
G01 X1.1378 Y68.8643
G01 X1.1307 Y68.8408
G01 X1.1233 Y68.8113
G01 X1.1185 Y68.7872
G01 X1.1140 Y68.7571
G01 X1.1116 Y68.7327
G01 X1.1106 Y68.7145
G00 X1.1106 Y68.7145
G01 F60.00
G01 Z-1.7000
G01 F120.00
G01 X1.1100 Y68.6900
G01 X1.1101 Y35.6577
G01 X1.1109 Y35.6396
G01 X1.1127 Y35.6151
G01 X1.1157 Y35.5908
G01 X1.1207 Y35.5607
G01 X1.1261 Y35.5368
G01 X1.1341 Y35.5074
G01 X1.1438 Y35.4786
G01 X1.1526 Y35.4557
G01 X1.1625 Y35.4333
G01 X1.1761 Y35.4060
G01 X1.1912 Y35.3796
G01 X1.2044 Y35.3589
G01 X1.2185 Y35.3388
G01 X1.2371 Y35.3147
G01 X1.2571 Y35.2918
G01 X1.2740 Y35.2740
G01 X1.2918 Y35.2571
G01 X1.3147 Y35.2371
G01 X1.3388 Y35.2185
G01 X1.3589 Y35.2044
G01 X1.3847 Y35.1882
G01 X1.4060 Y35.1761
G01 X1.4279 Y35.1651
G01 X1.4557 Y35.1526
G01 X1.4841 Y35.1418
G01 X1.5074 Y35.1341
G01 X1.5368 Y35.1261
G01 X1.5607 Y35.1207
G01 X1.5849 Y35.1165
G01 X1.6151 Y35.1127
G01 X1.6455 Y35.1106
G01 X1.6700 Y35.1100
G01 X1.6945 Y35.1106
G01 X1.7249 Y35.1127
G01 X1.7551 Y35.1165
G01 X1.7793 Y35.1207
G01 X1.8032 Y35.1261
G01 X1.8326 Y35.1341
G01 X1.8559 Y35.1418
G01 X1.8843 Y35.1526
G01 X1.9121 Y35.1651
G01 X1.9340 Y35.1761
G01 X1.9553 Y35.1882
G01 X1.9811 Y35.2044
G01 X2.0012 Y35.2185
G01 X2.0253 Y35.2371
G01 X2.0482 Y35.2571
G01 X2.0660 Y35.2740
G01 X2.0829 Y35.2918
G01 X2.1029 Y35.3147
G01 X2.1215 Y35.3388
G01 X2.1356 Y35.3589
G01 X2.1488 Y35.3796
G01 X2.1639 Y35.4060
G01 X2.1775 Y35.4333
G01 X2.1874 Y35.4557
G01 X2.1962 Y35.4786
G01 X2.2059 Y35.5074
G01 X2.2125 Y35.5311
G01 X2.2193 Y35.5607
G01 X2.2235 Y35.5849
G01 X2.2273 Y35.6151
G01 X2.2291 Y35.6396
G01 X2.2299 Y35.6577
G01 X2.2300 Y68.1300
G01 X42.3223 Y68.1301
G01 X42.3404 Y68.1309
G01 X42.3649 Y68.1327
G01 X42.3951 Y68.1365
G01 X42.4193 Y68.1407
G01 X42.4432 Y68.1461
G01 X42.4726 Y68.1541
G01 X42.4959 Y68.1618
G01 X42.5243 Y68.1726
G01 X42.5521 Y68.1851
G01 X42.5740 Y68.1961
G01 X42.5953 Y68.2082
G01 X42.6211 Y68.2244
G01 X42.6412 Y68.2385
G01 X42.6653 Y68.2571
G01 X42.6882 Y68.2771
G01 X42.7060 Y68.2940
G01 X42.7229 Y68.3118
G01 X42.7429 Y68.3347
G01 X42.7615 Y68.3588
G01 X42.7756 Y68.3789
G01 X42.7888 Y68.3996
G01 X42.8039 Y68.4260
G01 X42.8175 Y68.4533
G01 X42.8274 Y68.4757
G01 X42.8362 Y68.4986
G01 X42.8459 Y68.5274
G01 X42.8525 Y68.5511
G01 X42.8593 Y68.5807
G01 X42.8643 Y68.6108
G01 X42.8673 Y68.6351
G01 X42.8691 Y68.6596
G01 X42.8700 Y68.6900
G01 X42.8691 Y68.7204
G01 X42.8673 Y68.7449
G01 X42.8643 Y68.7692
G01 X42.8593 Y68.7993
G01 X42.8539 Y68.8232
G01 X42.8459 Y68.8526
G01 X42.8362 Y68.8814
G01 X42.8274 Y68.9043
G01 X42.8175 Y68.9267
G01 X42.8039 Y68.9540
G01 X42.7888 Y68.9804
G01 X42.7756 Y69.0011
G01 X42.7615 Y69.0212
G01 X42.7429 Y69.0453
G01 X42.7229 Y69.0682
G01 X42.7060 Y69.0860
G01 X42.6882 Y69.1029
G01 X42.6653 Y69.1229
G01 X42.6412 Y69.1415
G01 X42.6211 Y69.1556
G01 X42.5953 Y69.1718
G01 X42.5740 Y69.1839
G01 X42.5521 Y69.1949
G01 X42.5243 Y69.2074
G01 X42.4959 Y69.2182
G01 X42.4726 Y69.2259
G01 X42.4432 Y69.2339
G01 X42.4193 Y69.2393
G01 X42.3951 Y69.2435
G01 X42.3649 Y69.2473
G01 X42.3345 Y69.2494
G01 X42.3100 Y69.2500
G01 X1.6577 Y69.2499
G01 X1.6396 Y69.2491
G01 X1.6151 Y69.2473
G01 X1.5849 Y69.2435
G01 X1.5607 Y69.2393
G01 X1.5368 Y69.2339
G01 X1.5074 Y69.2259
G01 X1.4841 Y69.2182
G01 X1.4557 Y69.2074
G01 X1.4279 Y69.1949
G01 X1.4060 Y69.1839
G01 X1.3847 Y69.1718
G01 X1.3589 Y69.1556
G01 X1.3388 Y69.1415
G01 X1.3147 Y69.1229
G01 X1.2918 Y69.1029
G01 X1.2740 Y69.0860
G01 X1.2571 Y69.0682
G01 X1.2371 Y69.0453
G01 X1.2185 Y69.0212
G01 X1.2044 Y69.0011
G01 X1.1912 Y68.9804
G01 X1.1761 Y68.9540
G01 X1.1651 Y68.9321
G01 X1.1574 Y68.9156
G01 X1.1480 Y68.8929
G01 X1.1378 Y68.8643
G01 X1.1307 Y68.8408
G01 X1.1233 Y68.8113
G01 X1.1185 Y68.7872
G01 X1.1140 Y68.7571
G01 X1.1116 Y68.7327
G01 X1.1106 Y68.7145
G00 Z2.0000
G00 X44.6357 Y68.1726
G01 F60.00
G01 Z-0.3000
G01 F120.00
G01 X44.6586 Y68.1638
G01 X44.6874 Y68.1541
G01 X44.7168 Y68.1461
G01 X44.7407 Y68.1407
G01 X44.7649 Y68.1365
G01 X44.7951 Y68.1327
G01 X44.8196 Y68.1309
G01 X44.8500 Y68.1300
G01 X83.6600 Y68.1300
G01 X83.6601 Y35.6577
G01 X83.6609 Y35.6396
G01 X83.6627 Y35.6151
G01 X83.6657 Y35.5908
G01 X83.6685 Y35.5728
G01 X83.6733 Y35.5487
G01 X83.6761 Y35.5368
G01 X83.6807 Y35.5192
G01 X83.6878 Y35.4957
G01 X83.6938 Y35.4786
G01 X83.7026 Y35.4557
G01 X83.7125 Y35.4333
G01 X83.7204 Y35.4169
G01 X83.7320 Y35.3953
G01 X83.7412 Y35.3796
G01 X83.7544 Y35.3589
G01 X83.7685 Y35.3388
G01 X83.7794 Y35.3243
G01 X83.7950 Y35.3053
G01 X83.8071 Y35.2918
G01 X83.8240 Y35.2740
G01 X83.8418 Y35.2571
G01 X83.8553 Y35.2450
G01 X83.8743 Y35.2294
G01 X83.8888 Y35.2185
G01 X83.9089 Y35.2044
G01 X83.9192 Y35.1977
G01 X83.9347 Y35.1882
G01 X83.9560 Y35.1761
G01 X83.9779 Y35.1651
G01 X83.9944 Y35.1574
G01 X84.0171 Y35.1480
G01 X84.0341 Y35.1418
G01 X84.0574 Y35.1341
G01 X84.0811 Y35.1275
G01 X84.0987 Y35.1233
G01 X84.1228 Y35.1185
G01 X84.1408 Y35.1157
G01 X84.1651 Y35.1127
G01 X84.1896 Y35.1109
G01 X84.2077 Y35.1101
G01 X84.2323 Y35.1101
G01 X84.2445 Y35.1106
G01 X84.2627 Y35.1116
G01 X84.2871 Y35.1140
G01 X84.3051 Y35.1165
G01 X84.3293 Y35.1207
G01 X84.3532 Y35.1261
G01 X84.3708 Y35.1307
G01 X84.3943 Y35.1378
G01 X84.4114 Y35.1438
G01 X84.4343 Y35.1526
G01 X84.4567 Y35.1625
G01 X84.4731 Y35.1704
G01 X84.4947 Y35.1820
G01 X84.5104 Y35.1912
G01 X84.5311 Y35.2044
G01 X84.5512 Y35.2185
G01 X84.5657 Y35.2294
G01 X84.5847 Y35.2450
G01 X84.5982 Y35.2571
G01 X84.6072 Y35.2654
G01 X84.6246 Y35.2828
G01 X84.6369 Y35.2961
G01 X84.6529 Y35.3147
G01 X84.6715 Y35.3388
G01 X84.6856 Y35.3589
G01 X84.6988 Y35.3796
G01 X84.7080 Y35.3953
G01 X84.7196 Y35.4169
G01 X84.7275 Y35.4333
G01 X84.7374 Y35.4557
G01 X84.7462 Y35.4786
G01 X84.7522 Y35.4957
G01 X84.7593 Y35.5192
G01 X84.7667 Y35.5487
G01 X84.7715 Y35.5728
G01 X84.7743 Y35.5908
G01 X84.7773 Y35.6151
G01 X84.7794 Y35.6455
G01 X84.7800 Y35.6700
G01 X84.7800 Y68.6900
G01 X84.7794 Y68.7145
G01 X84.7773 Y68.7449
G01 X84.7735 Y68.7751
G01 X84.7715 Y68.7872
G01 X84.7667 Y68.8113
G01 X84.7593 Y68.8408
G01 X84.7522 Y68.8643
G01 X84.7420 Y68.8929
G01 X84.7374 Y68.9043
G01 X84.7275 Y68.9267
G01 X84.7139 Y68.9540
G01 X84.6988 Y68.9804
G01 X84.6856 Y69.0011
G01 X84.6787 Y69.0113
G01 X84.6606 Y69.0357
G01 X84.6529 Y69.0453
G01 X84.6369 Y69.0639
G01 X84.6160 Y69.0860
G01 X84.5982 Y69.1029
G01 X84.5753 Y69.1229
G01 X84.5512 Y69.1415
G01 X84.5311 Y69.1556
G01 X84.5104 Y69.1688
G01 X84.4947 Y69.1780
G01 X84.4731 Y69.1896
G01 X84.4567 Y69.1975
G01 X84.4343 Y69.2074
G01 X84.4114 Y69.2162
G01 X84.3943 Y69.2222
G01 X84.3708 Y69.2293
G01 X84.3413 Y69.2367
G01 X84.3172 Y69.2415
G01 X84.2992 Y69.2443
G01 X84.2749 Y69.2473
G01 X84.2445 Y69.2494
G01 X84.2200 Y69.2500
G01 X44.8377 Y69.2499
G01 X44.8196 Y69.2491
G01 X44.7951 Y69.2473
G01 X44.7649 Y69.2435
G01 X44.7407 Y69.2393
G01 X44.7168 Y69.2339
G01 X44.6992 Y69.2293
G01 X44.6757 Y69.2222
G01 X44.6586 Y69.2162
G01 X44.6357 Y69.2074
G01 X44.6133 Y69.1975
G01 X44.5969 Y69.1896
G01 X44.5753 Y69.1780
G01 X44.5596 Y69.1688
G01 X44.5389 Y69.1556
G01 X44.5188 Y69.1415
G01 X44.4947 Y69.1229
G01 X44.4718 Y69.1029
G01 X44.4540 Y69.0860
G01 X44.4371 Y69.0682
G01 X44.4250 Y69.0547
G01 X44.4094 Y69.0357
G01 X44.3985 Y69.0212
G01 X44.3844 Y69.0011
G01 X44.3712 Y68.9804
G01 X44.3620 Y68.9647
G01 X44.3504 Y68.9431
G01 X44.3374 Y68.9156
G01 X44.3280 Y68.8929
G01 X44.3218 Y68.8759
G01 X44.3141 Y68.8526
G01 X44.3075 Y68.8289
G01 X44.3007 Y68.7993
G01 X44.2957 Y68.7692
G01 X44.2927 Y68.7449
G01 X44.2909 Y68.7204
G01 X44.2901 Y68.7023
G01 X44.2901 Y68.6777
G01 X44.2909 Y68.6596
G01 X44.2927 Y68.6351
G01 X44.2957 Y68.6108
G01 X44.2985 Y68.5928
G01 X44.3033 Y68.5687
G01 X44.3107 Y68.5392
G01 X44.3178 Y68.5157
G01 X44.3238 Y68.4986
G01 X44.3326 Y68.4757
G01 X44.3425 Y68.4533
G01 X44.3561 Y68.4260
G01 X44.3712 Y68.3996
G01 X44.3844 Y68.3789
G01 X44.3985 Y68.3588
G01 X44.4094 Y68.3443
G01 X44.4250 Y68.3253
G01 X44.4371 Y68.3118
G01 X44.4540 Y68.2940
G01 X44.4718 Y68.2771
G01 X44.4853 Y68.2650
G01 X44.5043 Y68.2494
G01 X44.5287 Y68.2313
G01 X44.5492 Y68.2177
G01 X44.5647 Y68.2082
G01 X44.5860 Y68.1961
G01 X44.6133 Y68.1825
G01 X44.6357 Y68.1726
G00 X44.6357 Y68.1726
G01 F60.00
G01 Z-0.6000
G01 F120.00
G01 X44.6586 Y68.1638
G01 X44.6874 Y68.1541
G01 X44.7168 Y68.1461
G01 X44.7407 Y68.1407
G01 X44.7649 Y68.1365
G01 X44.7951 Y68.1327
G01 X44.8196 Y68.1309
G01 X44.8500 Y68.1300
G01 X83.6600 Y68.1300
G01 X83.6601 Y35.6577
G01 X83.6609 Y35.6396
G01 X83.6627 Y35.6151
G01 X83.6657 Y35.5908
G01 X83.6685 Y35.5728
G01 X83.6733 Y35.5487
G01 X83.6761 Y35.5368
G01 X83.6807 Y35.5192
G01 X83.6878 Y35.4957
G01 X83.6938 Y35.4786
G01 X83.7026 Y35.4557
G01 X83.7125 Y35.4333
G01 X83.7204 Y35.4169
G01 X83.7320 Y35.3953
G01 X83.7412 Y35.3796
G01 X83.7544 Y35.3589
G01 X83.7685 Y35.3388
G01 X83.7794 Y35.3243
G01 X83.7950 Y35.3053
G01 X83.8071 Y35.2918
G01 X83.8240 Y35.2740
G01 X83.8418 Y35.2571
G01 X83.8553 Y35.2450
G01 X83.8743 Y35.2294
G01 X83.8888 Y35.2185
G01 X83.9089 Y35.2044
G01 X83.9192 Y35.1977
G01 X83.9347 Y35.1882
G01 X83.9560 Y35.1761
G01 X83.9779 Y35.1651
G01 X83.9944 Y35.1574
G01 X84.0171 Y35.1480
G01 X84.0341 Y35.1418
G01 X84.0574 Y35.1341
G01 X84.0811 Y35.1275
G01 X84.0987 Y35.1233
G01 X84.1228 Y35.1185
G01 X84.1408 Y35.1157
G01 X84.1651 Y35.1127
G01 X84.1896 Y35.1109
G01 X84.2077 Y35.1101
G01 X84.2323 Y35.1101
G01 X84.2445 Y35.1106
G01 X84.2627 Y35.1116
G01 X84.2871 Y35.1140
G01 X84.3051 Y35.1165
G01 X84.3293 Y35.1207
G01 X84.3532 Y35.1261
G01 X84.3708 Y35.1307
G01 X84.3943 Y35.1378
G01 X84.4114 Y35.1438
G01 X84.4343 Y35.1526
G01 X84.4567 Y35.1625
G01 X84.4731 Y35.1704
G01 X84.4947 Y35.1820
G01 X84.5104 Y35.1912
G01 X84.5311 Y35.2044
G01 X84.5512 Y35.2185
G01 X84.5657 Y35.2294
G01 X84.5847 Y35.2450
G01 X84.5982 Y35.2571
G01 X84.6072 Y35.2654
G01 X84.6246 Y35.2828
G01 X84.6369 Y35.2961
G01 X84.6529 Y35.3147
G01 X84.6715 Y35.3388
G01 X84.6856 Y35.3589
G01 X84.6988 Y35.3796
G01 X84.7080 Y35.3953
G01 X84.7196 Y35.4169
G01 X84.7275 Y35.4333
G01 X84.7374 Y35.4557
G01 X84.7462 Y35.4786
G01 X84.7522 Y35.4957
G01 X84.7593 Y35.5192
G01 X84.7667 Y35.5487
G01 X84.7715 Y35.5728
G01 X84.7743 Y35.5908
G01 X84.7773 Y35.6151
G01 X84.7794 Y35.6455
G01 X84.7800 Y35.6700
G01 X84.7800 Y68.6900
G01 X84.7794 Y68.7145
G01 X84.7773 Y68.7449
G01 X84.7735 Y68.7751
G01 X84.7715 Y68.7872
G01 X84.7667 Y68.8113
G01 X84.7593 Y68.8408
G01 X84.7522 Y68.8643
G01 X84.7420 Y68.8929
G01 X84.7374 Y68.9043
G01 X84.7275 Y68.9267
G01 X84.7139 Y68.9540
G01 X84.6988 Y68.9804
G01 X84.6856 Y69.0011
G01 X84.6787 Y69.0113
G01 X84.6606 Y69.0357
G01 X84.6529 Y69.0453
G01 X84.6369 Y69.0639
G01 X84.6160 Y69.0860
G01 X84.5982 Y69.1029
G01 X84.5753 Y69.1229
G01 X84.5512 Y69.1415
G01 X84.5311 Y69.1556
G01 X84.5104 Y69.1688
G01 X84.4947 Y69.1780
G01 X84.4731 Y69.1896
G01 X84.4567 Y69.1975
G01 X84.4343 Y69.2074
G01 X84.4114 Y69.2162
G01 X84.3943 Y69.2222
G01 X84.3708 Y69.2293
G01 X84.3413 Y69.2367
G01 X84.3172 Y69.2415
G01 X84.2992 Y69.2443
G01 X84.2749 Y69.2473
G01 X84.2445 Y69.2494
G01 X84.2200 Y69.2500
G01 X44.8377 Y69.2499
G01 X44.8196 Y69.2491
G01 X44.7951 Y69.2473
G01 X44.7649 Y69.2435
G01 X44.7407 Y69.2393
G01 X44.7168 Y69.2339
G01 X44.6992 Y69.2293
G01 X44.6757 Y69.2222
G01 X44.6586 Y69.2162
G01 X44.6357 Y69.2074
G01 X44.6133 Y69.1975
G01 X44.5969 Y69.1896
G01 X44.5753 Y69.1780
G01 X44.5596 Y69.1688
G01 X44.5389 Y69.1556
G01 X44.5188 Y69.1415
G01 X44.4947 Y69.1229
G01 X44.4718 Y69.1029
G01 X44.4540 Y69.0860
G01 X44.4371 Y69.0682
G01 X44.4250 Y69.0547
G01 X44.4094 Y69.0357
G01 X44.3985 Y69.0212
G01 X44.3844 Y69.0011
G01 X44.3712 Y68.9804
G01 X44.3620 Y68.9647
G01 X44.3504 Y68.9431
G01 X44.3374 Y68.9156
G01 X44.3280 Y68.8929
G01 X44.3218 Y68.8759
G01 X44.3141 Y68.8526
G01 X44.3075 Y68.8289
G01 X44.3007 Y68.7993
G01 X44.2957 Y68.7692
G01 X44.2927 Y68.7449
G01 X44.2909 Y68.7204
G01 X44.2901 Y68.7023
G01 X44.2901 Y68.6777
G01 X44.2909 Y68.6596
G01 X44.2927 Y68.6351
G01 X44.2957 Y68.6108
G01 X44.2985 Y68.5928
G01 X44.3033 Y68.5687
G01 X44.3107 Y68.5392
G01 X44.3178 Y68.5157
G01 X44.3238 Y68.4986
G01 X44.3326 Y68.4757
G01 X44.3425 Y68.4533
G01 X44.3561 Y68.4260
G01 X44.3712 Y68.3996
G01 X44.3844 Y68.3789
G01 X44.3985 Y68.3588
G01 X44.4094 Y68.3443
G01 X44.4250 Y68.3253
G01 X44.4371 Y68.3118
G01 X44.4540 Y68.2940
G01 X44.4718 Y68.2771
G01 X44.4853 Y68.2650
G01 X44.5043 Y68.2494
G01 X44.5287 Y68.2313
G01 X44.5492 Y68.2177
G01 X44.5647 Y68.2082
G01 X44.5860 Y68.1961
G01 X44.6133 Y68.1825
G01 X44.6357 Y68.1726
G00 X44.6357 Y68.1726
G01 F60.00
G01 Z-0.9000
G01 F120.00
G01 X44.6586 Y68.1638
G01 X44.6874 Y68.1541
G01 X44.7168 Y68.1461
G01 X44.7407 Y68.1407
G01 X44.7649 Y68.1365
G01 X44.7951 Y68.1327
G01 X44.8196 Y68.1309
G01 X44.8500 Y68.1300
G01 X83.6600 Y68.1300
G01 X83.6601 Y35.6577
G01 X83.6609 Y35.6396
G01 X83.6627 Y35.6151
G01 X83.6657 Y35.5908
G01 X83.6685 Y35.5728
G01 X83.6733 Y35.5487
G01 X83.6761 Y35.5368
G01 X83.6807 Y35.5192
G01 X83.6878 Y35.4957
G01 X83.6938 Y35.4786
G01 X83.7026 Y35.4557
G01 X83.7125 Y35.4333
G01 X83.7204 Y35.4169
G01 X83.7320 Y35.3953
G01 X83.7412 Y35.3796
G01 X83.7544 Y35.3589
G01 X83.7685 Y35.3388
G01 X83.7794 Y35.3243
G01 X83.7950 Y35.3053
G01 X83.8071 Y35.2918
G01 X83.8240 Y35.2740
G01 X83.8418 Y35.2571
G01 X83.8553 Y35.2450
G01 X83.8743 Y35.2294
G01 X83.8888 Y35.2185
G01 X83.9089 Y35.2044
G01 X83.9192 Y35.1977
G01 X83.9347 Y35.1882
G01 X83.9560 Y35.1761
G01 X83.9779 Y35.1651
G01 X83.9944 Y35.1574
G01 X84.0171 Y35.1480
G01 X84.0341 Y35.1418
G01 X84.0574 Y35.1341
G01 X84.0811 Y35.1275
G01 X84.0987 Y35.1233
G01 X84.1228 Y35.1185
G01 X84.1408 Y35.1157
G01 X84.1651 Y35.1127
G01 X84.1896 Y35.1109
G01 X84.2077 Y35.1101
G01 X84.2323 Y35.1101
G01 X84.2445 Y35.1106
G01 X84.2627 Y35.1116
G01 X84.2871 Y35.1140
G01 X84.3051 Y35.1165
G01 X84.3293 Y35.1207
G01 X84.3532 Y35.1261
G01 X84.3708 Y35.1307
G01 X84.3943 Y35.1378
G01 X84.4114 Y35.1438
G01 X84.4343 Y35.1526
G01 X84.4567 Y35.1625
G01 X84.4731 Y35.1704
G01 X84.4947 Y35.1820
G01 X84.5104 Y35.1912
G01 X84.5311 Y35.2044
G01 X84.5512 Y35.2185
G01 X84.5657 Y35.2294
G01 X84.5847 Y35.2450
G01 X84.5982 Y35.2571
G01 X84.6072 Y35.2654
G01 X84.6246 Y35.2828
G01 X84.6369 Y35.2961
G01 X84.6529 Y35.3147
G01 X84.6715 Y35.3388
G01 X84.6856 Y35.3589
G01 X84.6988 Y35.3796
G01 X84.7080 Y35.3953
G01 X84.7196 Y35.4169
G01 X84.7275 Y35.4333
G01 X84.7374 Y35.4557
G01 X84.7462 Y35.4786
G01 X84.7522 Y35.4957
G01 X84.7593 Y35.5192
G01 X84.7667 Y35.5487
G01 X84.7715 Y35.5728
G01 X84.7743 Y35.5908
G01 X84.7773 Y35.6151
G01 X84.7794 Y35.6455
G01 X84.7800 Y35.6700
G01 X84.7800 Y68.6900
G01 X84.7794 Y68.7145
G01 X84.7773 Y68.7449
G01 X84.7735 Y68.7751
G01 X84.7715 Y68.7872
G01 X84.7667 Y68.8113
G01 X84.7593 Y68.8408
G01 X84.7522 Y68.8643
G01 X84.7420 Y68.8929
G01 X84.7374 Y68.9043
G01 X84.7275 Y68.9267
G01 X84.7139 Y68.9540
G01 X84.6988 Y68.9804
G01 X84.6856 Y69.0011
G01 X84.6787 Y69.0113
G01 X84.6606 Y69.0357
G01 X84.6529 Y69.0453
G01 X84.6369 Y69.0639
G01 X84.6160 Y69.0860
G01 X84.5982 Y69.1029
G01 X84.5753 Y69.1229
G01 X84.5512 Y69.1415
G01 X84.5311 Y69.1556
G01 X84.5104 Y69.1688
G01 X84.4947 Y69.1780
G01 X84.4731 Y69.1896
G01 X84.4567 Y69.1975
G01 X84.4343 Y69.2074
G01 X84.4114 Y69.2162
G01 X84.3943 Y69.2222
G01 X84.3708 Y69.2293
G01 X84.3413 Y69.2367
G01 X84.3172 Y69.2415
G01 X84.2992 Y69.2443
G01 X84.2749 Y69.2473
G01 X84.2445 Y69.2494
G01 X84.2200 Y69.2500
G01 X44.8377 Y69.2499
G01 X44.8196 Y69.2491
G01 X44.7951 Y69.2473
G01 X44.7649 Y69.2435
G01 X44.7407 Y69.2393
G01 X44.7168 Y69.2339
G01 X44.6992 Y69.2293
G01 X44.6757 Y69.2222
G01 X44.6586 Y69.2162
G01 X44.6357 Y69.2074
G01 X44.6133 Y69.1975
G01 X44.5969 Y69.1896
G01 X44.5753 Y69.1780
G01 X44.5596 Y69.1688
G01 X44.5389 Y69.1556
G01 X44.5188 Y69.1415
G01 X44.4947 Y69.1229
G01 X44.4718 Y69.1029
G01 X44.4540 Y69.0860
G01 X44.4371 Y69.0682
G01 X44.4250 Y69.0547
G01 X44.4094 Y69.0357
G01 X44.3985 Y69.0212
G01 X44.3844 Y69.0011
G01 X44.3712 Y68.9804
G01 X44.3620 Y68.9647
G01 X44.3504 Y68.9431
G01 X44.3374 Y68.9156
G01 X44.3280 Y68.8929
G01 X44.3218 Y68.8759
G01 X44.3141 Y68.8526
G01 X44.3075 Y68.8289
G01 X44.3007 Y68.7993
G01 X44.2957 Y68.7692
G01 X44.2927 Y68.7449
G01 X44.2909 Y68.7204
G01 X44.2901 Y68.7023
G01 X44.2901 Y68.6777
G01 X44.2909 Y68.6596
G01 X44.2927 Y68.6351
G01 X44.2957 Y68.6108
G01 X44.2985 Y68.5928
G01 X44.3033 Y68.5687
G01 X44.3107 Y68.5392
G01 X44.3178 Y68.5157
G01 X44.3238 Y68.4986
G01 X44.3326 Y68.4757
G01 X44.3425 Y68.4533
G01 X44.3561 Y68.4260
G01 X44.3712 Y68.3996
G01 X44.3844 Y68.3789
G01 X44.3985 Y68.3588
G01 X44.4094 Y68.3443
G01 X44.4250 Y68.3253
G01 X44.4371 Y68.3118
G01 X44.4540 Y68.2940
G01 X44.4718 Y68.2771
G01 X44.4853 Y68.2650
G01 X44.5043 Y68.2494
G01 X44.5287 Y68.2313
G01 X44.5492 Y68.2177
G01 X44.5647 Y68.2082
G01 X44.5860 Y68.1961
G01 X44.6133 Y68.1825
G01 X44.6357 Y68.1726
G00 X44.6357 Y68.1726
G01 F60.00
G01 Z-1.2000
G01 F120.00
G01 X44.6586 Y68.1638
G01 X44.6874 Y68.1541
G01 X44.7168 Y68.1461
G01 X44.7407 Y68.1407
G01 X44.7649 Y68.1365
G01 X44.7951 Y68.1327
G01 X44.8196 Y68.1309
G01 X44.8500 Y68.1300
G01 X83.6600 Y68.1300
G01 X83.6601 Y35.6577
G01 X83.6609 Y35.6396
G01 X83.6627 Y35.6151
G01 X83.6657 Y35.5908
G01 X83.6685 Y35.5728
G01 X83.6733 Y35.5487
G01 X83.6761 Y35.5368
G01 X83.6807 Y35.5192
G01 X83.6878 Y35.4957
G01 X83.6938 Y35.4786
G01 X83.7026 Y35.4557
G01 X83.7125 Y35.4333
G01 X83.7204 Y35.4169
G01 X83.7320 Y35.3953
G01 X83.7412 Y35.3796
G01 X83.7544 Y35.3589
G01 X83.7685 Y35.3388
G01 X83.7794 Y35.3243
G01 X83.7950 Y35.3053
G01 X83.8071 Y35.2918
G01 X83.8240 Y35.2740
G01 X83.8418 Y35.2571
G01 X83.8553 Y35.2450
G01 X83.8743 Y35.2294
G01 X83.8888 Y35.2185
G01 X83.9089 Y35.2044
G01 X83.9192 Y35.1977
G01 X83.9347 Y35.1882
G01 X83.9560 Y35.1761
G01 X83.9779 Y35.1651
G01 X83.9944 Y35.1574
G01 X84.0171 Y35.1480
G01 X84.0341 Y35.1418
G01 X84.0574 Y35.1341
G01 X84.0811 Y35.1275
G01 X84.0987 Y35.1233
G01 X84.1228 Y35.1185
G01 X84.1408 Y35.1157
G01 X84.1651 Y35.1127
G01 X84.1896 Y35.1109
G01 X84.2077 Y35.1101
G01 X84.2323 Y35.1101
G01 X84.2445 Y35.1106
G01 X84.2627 Y35.1116
G01 X84.2871 Y35.1140
G01 X84.3051 Y35.1165
G01 X84.3293 Y35.1207
G01 X84.3532 Y35.1261
G01 X84.3708 Y35.1307
G01 X84.3943 Y35.1378
G01 X84.4114 Y35.1438
G01 X84.4343 Y35.1526
G01 X84.4567 Y35.1625
G01 X84.4731 Y35.1704
G01 X84.4947 Y35.1820
G01 X84.5104 Y35.1912
G01 X84.5311 Y35.2044
G01 X84.5512 Y35.2185
G01 X84.5657 Y35.2294
G01 X84.5847 Y35.2450
G01 X84.5982 Y35.2571
G01 X84.6072 Y35.2654
G01 X84.6246 Y35.2828
G01 X84.6369 Y35.2961
G01 X84.6529 Y35.3147
G01 X84.6715 Y35.3388
G01 X84.6856 Y35.3589
G01 X84.6988 Y35.3796
G01 X84.7080 Y35.3953
G01 X84.7196 Y35.4169
G01 X84.7275 Y35.4333
G01 X84.7374 Y35.4557
G01 X84.7462 Y35.4786
G01 X84.7522 Y35.4957
G01 X84.7593 Y35.5192
G01 X84.7667 Y35.5487
G01 X84.7715 Y35.5728
G01 X84.7743 Y35.5908
G01 X84.7773 Y35.6151
G01 X84.7794 Y35.6455
G01 X84.7800 Y35.6700
G01 X84.7800 Y68.6900
G01 X84.7794 Y68.7145
G01 X84.7773 Y68.7449
G01 X84.7735 Y68.7751
G01 X84.7715 Y68.7872
G01 X84.7667 Y68.8113
G01 X84.7593 Y68.8408
G01 X84.7522 Y68.8643
G01 X84.7420 Y68.8929
G01 X84.7374 Y68.9043
G01 X84.7275 Y68.9267
G01 X84.7139 Y68.9540
G01 X84.6988 Y68.9804
G01 X84.6856 Y69.0011
G01 X84.6787 Y69.0113
G01 X84.6606 Y69.0357
G01 X84.6529 Y69.0453
G01 X84.6369 Y69.0639
G01 X84.6160 Y69.0860
G01 X84.5982 Y69.1029
G01 X84.5753 Y69.1229
G01 X84.5512 Y69.1415
G01 X84.5311 Y69.1556
G01 X84.5104 Y69.1688
G01 X84.4947 Y69.1780
G01 X84.4731 Y69.1896
G01 X84.4567 Y69.1975
G01 X84.4343 Y69.2074
G01 X84.4114 Y69.2162
G01 X84.3943 Y69.2222
G01 X84.3708 Y69.2293
G01 X84.3413 Y69.2367
G01 X84.3172 Y69.2415
G01 X84.2992 Y69.2443
G01 X84.2749 Y69.2473
G01 X84.2445 Y69.2494
G01 X84.2200 Y69.2500
G01 X44.8377 Y69.2499
G01 X44.8196 Y69.2491
G01 X44.7951 Y69.2473
G01 X44.7649 Y69.2435
G01 X44.7407 Y69.2393
G01 X44.7168 Y69.2339
G01 X44.6992 Y69.2293
G01 X44.6757 Y69.2222
G01 X44.6586 Y69.2162
G01 X44.6357 Y69.2074
G01 X44.6133 Y69.1975
G01 X44.5969 Y69.1896
G01 X44.5753 Y69.1780
G01 X44.5596 Y69.1688
G01 X44.5389 Y69.1556
G01 X44.5188 Y69.1415
G01 X44.4947 Y69.1229
G01 X44.4718 Y69.1029
G01 X44.4540 Y69.0860
G01 X44.4371 Y69.0682
G01 X44.4250 Y69.0547
G01 X44.4094 Y69.0357
G01 X44.3985 Y69.0212
G01 X44.3844 Y69.0011
G01 X44.3712 Y68.9804
G01 X44.3620 Y68.9647
G01 X44.3504 Y68.9431
G01 X44.3374 Y68.9156
G01 X44.3280 Y68.8929
G01 X44.3218 Y68.8759
G01 X44.3141 Y68.8526
G01 X44.3075 Y68.8289
G01 X44.3007 Y68.7993
G01 X44.2957 Y68.7692
G01 X44.2927 Y68.7449
G01 X44.2909 Y68.7204
G01 X44.2901 Y68.7023
G01 X44.2901 Y68.6777
G01 X44.2909 Y68.6596
G01 X44.2927 Y68.6351
G01 X44.2957 Y68.6108
G01 X44.2985 Y68.5928
G01 X44.3033 Y68.5687
G01 X44.3107 Y68.5392
G01 X44.3178 Y68.5157
G01 X44.3238 Y68.4986
G01 X44.3326 Y68.4757
G01 X44.3425 Y68.4533
G01 X44.3561 Y68.4260
G01 X44.3712 Y68.3996
G01 X44.3844 Y68.3789
G01 X44.3985 Y68.3588
G01 X44.4094 Y68.3443
G01 X44.4250 Y68.3253
G01 X44.4371 Y68.3118
G01 X44.4540 Y68.2940
G01 X44.4718 Y68.2771
G01 X44.4853 Y68.2650
G01 X44.5043 Y68.2494
G01 X44.5287 Y68.2313
G01 X44.5492 Y68.2177
G01 X44.5647 Y68.2082
G01 X44.5860 Y68.1961
G01 X44.6133 Y68.1825
G01 X44.6357 Y68.1726
G00 X44.6357 Y68.1726
G01 F60.00
G01 Z-1.5000
G01 F120.00
G01 X44.6586 Y68.1638
G01 X44.6874 Y68.1541
G01 X44.7168 Y68.1461
G01 X44.7407 Y68.1407
G01 X44.7649 Y68.1365
G01 X44.7951 Y68.1327
G01 X44.8196 Y68.1309
G01 X44.8500 Y68.1300
G01 X83.6600 Y68.1300
G01 X83.6601 Y35.6577
G01 X83.6609 Y35.6396
G01 X83.6627 Y35.6151
G01 X83.6657 Y35.5908
G01 X83.6685 Y35.5728
G01 X83.6733 Y35.5487
G01 X83.6761 Y35.5368
G01 X83.6807 Y35.5192
G01 X83.6878 Y35.4957
G01 X83.6938 Y35.4786
G01 X83.7026 Y35.4557
G01 X83.7125 Y35.4333
G01 X83.7204 Y35.4169
G01 X83.7320 Y35.3953
G01 X83.7412 Y35.3796
G01 X83.7544 Y35.3589
G01 X83.7685 Y35.3388
G01 X83.7794 Y35.3243
G01 X83.7950 Y35.3053
G01 X83.8071 Y35.2918
G01 X83.8240 Y35.2740
G01 X83.8418 Y35.2571
G01 X83.8553 Y35.2450
G01 X83.8743 Y35.2294
G01 X83.8888 Y35.2185
G01 X83.9089 Y35.2044
G01 X83.9192 Y35.1977
G01 X83.9347 Y35.1882
G01 X83.9560 Y35.1761
G01 X83.9779 Y35.1651
G01 X83.9944 Y35.1574
G01 X84.0171 Y35.1480
G01 X84.0341 Y35.1418
G01 X84.0574 Y35.1341
G01 X84.0811 Y35.1275
G01 X84.0987 Y35.1233
G01 X84.1228 Y35.1185
G01 X84.1408 Y35.1157
G01 X84.1651 Y35.1127
G01 X84.1896 Y35.1109
G01 X84.2077 Y35.1101
G01 X84.2323 Y35.1101
G01 X84.2445 Y35.1106
G01 X84.2627 Y35.1116
G01 X84.2871 Y35.1140
G01 X84.3051 Y35.1165
G01 X84.3293 Y35.1207
G01 X84.3532 Y35.1261
G01 X84.3708 Y35.1307
G01 X84.3943 Y35.1378
G01 X84.4114 Y35.1438
G01 X84.4343 Y35.1526
G01 X84.4567 Y35.1625
G01 X84.4731 Y35.1704
G01 X84.4947 Y35.1820
G01 X84.5104 Y35.1912
G01 X84.5311 Y35.2044
G01 X84.5512 Y35.2185
G01 X84.5657 Y35.2294
G01 X84.5847 Y35.2450
G01 X84.5982 Y35.2571
G01 X84.6072 Y35.2654
G01 X84.6246 Y35.2828
G01 X84.6369 Y35.2961
G01 X84.6529 Y35.3147
G01 X84.6715 Y35.3388
G01 X84.6856 Y35.3589
G01 X84.6988 Y35.3796
G01 X84.7080 Y35.3953
G01 X84.7196 Y35.4169
G01 X84.7275 Y35.4333
G01 X84.7374 Y35.4557
G01 X84.7462 Y35.4786
G01 X84.7522 Y35.4957
G01 X84.7593 Y35.5192
G01 X84.7667 Y35.5487
G01 X84.7715 Y35.5728
G01 X84.7743 Y35.5908
G01 X84.7773 Y35.6151
G01 X84.7794 Y35.6455
G01 X84.7800 Y35.6700
G01 X84.7800 Y68.6900
G01 X84.7794 Y68.7145
G01 X84.7773 Y68.7449
G01 X84.7735 Y68.7751
G01 X84.7715 Y68.7872
G01 X84.7667 Y68.8113
G01 X84.7593 Y68.8408
G01 X84.7522 Y68.8643
G01 X84.7420 Y68.8929
G01 X84.7374 Y68.9043
G01 X84.7275 Y68.9267
G01 X84.7139 Y68.9540
G01 X84.6988 Y68.9804
G01 X84.6856 Y69.0011
G01 X84.6787 Y69.0113
G01 X84.6606 Y69.0357
G01 X84.6529 Y69.0453
G01 X84.6369 Y69.0639
G01 X84.6160 Y69.0860
G01 X84.5982 Y69.1029
G01 X84.5753 Y69.1229
G01 X84.5512 Y69.1415
G01 X84.5311 Y69.1556
G01 X84.5104 Y69.1688
G01 X84.4947 Y69.1780
G01 X84.4731 Y69.1896
G01 X84.4567 Y69.1975
G01 X84.4343 Y69.2074
G01 X84.4114 Y69.2162
G01 X84.3943 Y69.2222
G01 X84.3708 Y69.2293
G01 X84.3413 Y69.2367
G01 X84.3172 Y69.2415
G01 X84.2992 Y69.2443
G01 X84.2749 Y69.2473
G01 X84.2445 Y69.2494
G01 X84.2200 Y69.2500
G01 X44.8377 Y69.2499
G01 X44.8196 Y69.2491
G01 X44.7951 Y69.2473
G01 X44.7649 Y69.2435
G01 X44.7407 Y69.2393
G01 X44.7168 Y69.2339
G01 X44.6992 Y69.2293
G01 X44.6757 Y69.2222
G01 X44.6586 Y69.2162
G01 X44.6357 Y69.2074
G01 X44.6133 Y69.1975
G01 X44.5969 Y69.1896
G01 X44.5753 Y69.1780
G01 X44.5596 Y69.1688
G01 X44.5389 Y69.1556
G01 X44.5188 Y69.1415
G01 X44.4947 Y69.1229
G01 X44.4718 Y69.1029
G01 X44.4540 Y69.0860
G01 X44.4371 Y69.0682
G01 X44.4250 Y69.0547
G01 X44.4094 Y69.0357
G01 X44.3985 Y69.0212
G01 X44.3844 Y69.0011
G01 X44.3712 Y68.9804
G01 X44.3620 Y68.9647
G01 X44.3504 Y68.9431
G01 X44.3374 Y68.9156
G01 X44.3280 Y68.8929
G01 X44.3218 Y68.8759
G01 X44.3141 Y68.8526
G01 X44.3075 Y68.8289
G01 X44.3007 Y68.7993
G01 X44.2957 Y68.7692
G01 X44.2927 Y68.7449
G01 X44.2909 Y68.7204
G01 X44.2901 Y68.7023
G01 X44.2901 Y68.6777
G01 X44.2909 Y68.6596
G01 X44.2927 Y68.6351
G01 X44.2957 Y68.6108
G01 X44.2985 Y68.5928
G01 X44.3033 Y68.5687
G01 X44.3107 Y68.5392
G01 X44.3178 Y68.5157
G01 X44.3238 Y68.4986
G01 X44.3326 Y68.4757
G01 X44.3425 Y68.4533
G01 X44.3561 Y68.4260
G01 X44.3712 Y68.3996
G01 X44.3844 Y68.3789
G01 X44.3985 Y68.3588
G01 X44.4094 Y68.3443
G01 X44.4250 Y68.3253
G01 X44.4371 Y68.3118
G01 X44.4540 Y68.2940
G01 X44.4718 Y68.2771
G01 X44.4853 Y68.2650
G01 X44.5043 Y68.2494
G01 X44.5287 Y68.2313
G01 X44.5492 Y68.2177
G01 X44.5647 Y68.2082
G01 X44.5860 Y68.1961
G01 X44.6133 Y68.1825
G01 X44.6357 Y68.1726
G00 X44.6357 Y68.1726
G01 F60.00
G01 Z-1.7000
G01 F120.00
G01 X44.6586 Y68.1638
G01 X44.6874 Y68.1541
G01 X44.7168 Y68.1461
G01 X44.7407 Y68.1407
G01 X44.7649 Y68.1365
G01 X44.7951 Y68.1327
G01 X44.8196 Y68.1309
G01 X44.8500 Y68.1300
G01 X83.6600 Y68.1300
G01 X83.6601 Y35.6577
G01 X83.6609 Y35.6396
G01 X83.6627 Y35.6151
G01 X83.6657 Y35.5908
G01 X83.6685 Y35.5728
G01 X83.6733 Y35.5487
G01 X83.6761 Y35.5368
G01 X83.6807 Y35.5192
G01 X83.6878 Y35.4957
G01 X83.6938 Y35.4786
G01 X83.7026 Y35.4557
G01 X83.7125 Y35.4333
G01 X83.7204 Y35.4169
G01 X83.7320 Y35.3953
G01 X83.7412 Y35.3796
G01 X83.7544 Y35.3589
G01 X83.7685 Y35.3388
G01 X83.7794 Y35.3243
G01 X83.7950 Y35.3053
G01 X83.8071 Y35.2918
G01 X83.8240 Y35.2740
G01 X83.8418 Y35.2571
G01 X83.8553 Y35.2450
G01 X83.8743 Y35.2294
G01 X83.8888 Y35.2185
G01 X83.9089 Y35.2044
G01 X83.9192 Y35.1977
G01 X83.9347 Y35.1882
G01 X83.9560 Y35.1761
G01 X83.9779 Y35.1651
G01 X83.9944 Y35.1574
G01 X84.0171 Y35.1480
G01 X84.0341 Y35.1418
G01 X84.0574 Y35.1341
G01 X84.0811 Y35.1275
G01 X84.0987 Y35.1233
G01 X84.1228 Y35.1185
G01 X84.1408 Y35.1157
G01 X84.1651 Y35.1127
G01 X84.1896 Y35.1109
G01 X84.2077 Y35.1101
G01 X84.2323 Y35.1101
G01 X84.2445 Y35.1106
G01 X84.2627 Y35.1116
G01 X84.2871 Y35.1140
G01 X84.3051 Y35.1165
G01 X84.3293 Y35.1207
G01 X84.3532 Y35.1261
G01 X84.3708 Y35.1307
G01 X84.3943 Y35.1378
G01 X84.4114 Y35.1438
G01 X84.4343 Y35.1526
G01 X84.4567 Y35.1625
G01 X84.4731 Y35.1704
G01 X84.4947 Y35.1820
G01 X84.5104 Y35.1912
G01 X84.5311 Y35.2044
G01 X84.5512 Y35.2185
G01 X84.5657 Y35.2294
G01 X84.5847 Y35.2450
G01 X84.5982 Y35.2571
G01 X84.6072 Y35.2654
G01 X84.6246 Y35.2828
G01 X84.6369 Y35.2961
G01 X84.6529 Y35.3147
G01 X84.6715 Y35.3388
G01 X84.6856 Y35.3589
G01 X84.6988 Y35.3796
G01 X84.7080 Y35.3953
G01 X84.7196 Y35.4169
G01 X84.7275 Y35.4333
G01 X84.7374 Y35.4557
G01 X84.7462 Y35.4786
G01 X84.7522 Y35.4957
G01 X84.7593 Y35.5192
G01 X84.7667 Y35.5487
G01 X84.7715 Y35.5728
G01 X84.7743 Y35.5908
G01 X84.7773 Y35.6151
G01 X84.7794 Y35.6455
G01 X84.7800 Y35.6700
G01 X84.7800 Y68.6900
G01 X84.7794 Y68.7145
G01 X84.7773 Y68.7449
G01 X84.7735 Y68.7751
G01 X84.7715 Y68.7872
G01 X84.7667 Y68.8113
G01 X84.7593 Y68.8408
G01 X84.7522 Y68.8643
G01 X84.7420 Y68.8929
G01 X84.7374 Y68.9043
G01 X84.7275 Y68.9267
G01 X84.7139 Y68.9540
G01 X84.6988 Y68.9804
G01 X84.6856 Y69.0011
G01 X84.6787 Y69.0113
G01 X84.6606 Y69.0357
G01 X84.6529 Y69.0453
G01 X84.6369 Y69.0639
G01 X84.6160 Y69.0860
G01 X84.5982 Y69.1029
G01 X84.5753 Y69.1229
G01 X84.5512 Y69.1415
G01 X84.5311 Y69.1556
G01 X84.5104 Y69.1688
G01 X84.4947 Y69.1780
G01 X84.4731 Y69.1896
G01 X84.4567 Y69.1975
G01 X84.4343 Y69.2074
G01 X84.4114 Y69.2162
G01 X84.3943 Y69.2222
G01 X84.3708 Y69.2293
G01 X84.3413 Y69.2367
G01 X84.3172 Y69.2415
G01 X84.2992 Y69.2443
G01 X84.2749 Y69.2473
G01 X84.2445 Y69.2494
G01 X84.2200 Y69.2500
G01 X44.8377 Y69.2499
G01 X44.8196 Y69.2491
G01 X44.7951 Y69.2473
G01 X44.7649 Y69.2435
G01 X44.7407 Y69.2393
G01 X44.7168 Y69.2339
G01 X44.6992 Y69.2293
G01 X44.6757 Y69.2222
G01 X44.6586 Y69.2162
G01 X44.6357 Y69.2074
G01 X44.6133 Y69.1975
G01 X44.5969 Y69.1896
G01 X44.5753 Y69.1780
G01 X44.5596 Y69.1688
G01 X44.5389 Y69.1556
G01 X44.5188 Y69.1415
G01 X44.4947 Y69.1229
G01 X44.4718 Y69.1029
G01 X44.4540 Y69.0860
G01 X44.4371 Y69.0682
G01 X44.4250 Y69.0547
G01 X44.4094 Y69.0357
G01 X44.3985 Y69.0212
G01 X44.3844 Y69.0011
G01 X44.3712 Y68.9804
G01 X44.3620 Y68.9647
G01 X44.3504 Y68.9431
G01 X44.3374 Y68.9156
G01 X44.3280 Y68.8929
G01 X44.3218 Y68.8759
G01 X44.3141 Y68.8526
G01 X44.3075 Y68.8289
G01 X44.3007 Y68.7993
G01 X44.2957 Y68.7692
G01 X44.2927 Y68.7449
G01 X44.2909 Y68.7204
G01 X44.2901 Y68.7023
G01 X44.2901 Y68.6777
G01 X44.2909 Y68.6596
G01 X44.2927 Y68.6351
G01 X44.2957 Y68.6108
G01 X44.2985 Y68.5928
G01 X44.3033 Y68.5687
G01 X44.3107 Y68.5392
G01 X44.3178 Y68.5157
G01 X44.3238 Y68.4986
G01 X44.3326 Y68.4757
G01 X44.3425 Y68.4533
G01 X44.3561 Y68.4260
G01 X44.3712 Y68.3996
G01 X44.3844 Y68.3789
G01 X44.3985 Y68.3588
G01 X44.4094 Y68.3443
G01 X44.4250 Y68.3253
G01 X44.4371 Y68.3118
G01 X44.4540 Y68.2940
G01 X44.4718 Y68.2771
G01 X44.4853 Y68.2650
G01 X44.5043 Y68.2494
G01 X44.5287 Y68.2313
G01 X44.5492 Y68.2177
G01 X44.5647 Y68.2082
G01 X44.5860 Y68.1961
G01 X44.6133 Y68.1825
G01 X44.6357 Y68.1726
G00 Z2.0000
G00 X43.5555 Y0.8206
G01 F60.00
G01 Z-0.3000
G01 F120.00
G01 X43.5800 Y0.8200
G01 X84.2200 Y0.8200
G01 X84.2445 Y0.8206
G01 X84.2749 Y0.8227
G01 X84.2992 Y0.8257
G01 X84.3172 Y0.8285
G01 X84.3413 Y0.8333
G01 X84.3589 Y0.8375
G01 X84.3826 Y0.8441
G01 X84.4059 Y0.8518
G01 X84.4229 Y0.8580
G01 X84.4456 Y0.8674
G01 X84.4621 Y0.8751
G01 X84.4840 Y0.8861
G01 X84.5104 Y0.9012
G01 X84.5311 Y0.9144
G01 X84.5512 Y0.9285
G01 X84.5657 Y0.9394
G01 X84.5753 Y0.9471
G01 X84.5939 Y0.9631
G01 X84.6160 Y0.9840
G01 X84.6329 Y1.0018
G01 X84.6529 Y1.0247
G01 X84.6715 Y1.0488
G01 X84.6787 Y1.0587
G01 X84.6923 Y1.0792
G01 X84.7080 Y1.1053
G01 X84.7196 Y1.1269
G01 X84.7249 Y1.1379
G01 X84.7374 Y1.1657
G01 X84.7482 Y1.1941
G01 X84.7559 Y1.2174
G01 X84.7593 Y1.2292
G01 X84.7667 Y1.2587
G01 X84.7715 Y1.2828
G01 X84.7735 Y1.2949
G01 X84.7773 Y1.3251
G01 X84.7794 Y1.3555
G01 X84.7800 Y1.3800
G01 X84.7800 Y33.1300
G01 X84.7794 Y33.1545
G01 X84.7773 Y33.1849
G01 X84.7743 Y33.2092
G01 X84.7715 Y33.2272
G01 X84.7667 Y33.2513
G01 X84.7625 Y33.2689
G01 X84.7559 Y33.2926
G01 X84.7482 Y33.3159
G01 X84.7420 Y33.3329
G01 X84.7326 Y33.3556
G01 X84.7249 Y33.3721
G01 X84.7139 Y33.3940
G01 X84.6988 Y33.4204
G01 X84.6856 Y33.4411
G01 X84.6715 Y33.4612
G01 X84.6606 Y33.4757
G01 X84.6450 Y33.4947
G01 X84.6329 Y33.5082
G01 X84.6160 Y33.5260
G01 X84.5982 Y33.5429
G01 X84.5847 Y33.5550
G01 X84.5657 Y33.5706
G01 X84.5512 Y33.5815
G01 X84.5311 Y33.5956
G01 X84.5104 Y33.6088
G01 X84.4947 Y33.6180
G01 X84.4840 Y33.6239
G01 X84.4621 Y33.6349
G01 X84.4456 Y33.6426
G01 X84.4229 Y33.6520
G01 X84.4059 Y33.6582
G01 X84.3826 Y33.6659
G01 X84.3589 Y33.6725
G01 X84.3413 Y33.6767
G01 X84.3293 Y33.6793
G01 X84.3051 Y33.6835
G01 X84.2871 Y33.6860
G01 X84.2627 Y33.6884
G01 X84.2445 Y33.6894
G01 X84.2200 Y33.6900
G01 X84.1955 Y33.6894
G01 X84.1773 Y33.6884
G01 X84.1529 Y33.6860
G01 X84.1349 Y33.6835
G01 X84.1107 Y33.6793
G01 X84.0868 Y33.6739
G01 X84.0692 Y33.6693
G01 X84.0457 Y33.6622
G01 X84.0286 Y33.6562
G01 X84.0057 Y33.6474
G01 X83.9833 Y33.6375
G01 X83.9669 Y33.6296
G01 X83.9453 Y33.6180
G01 X83.9347 Y33.6118
G01 X83.9192 Y33.6023
G01 X83.8987 Y33.5887
G01 X83.8841 Y33.5780
G01 X83.8647 Y33.5629
G01 X83.8461 Y33.5469
G01 X83.8328 Y33.5346
G01 X83.8154 Y33.5172
G01 X83.8031 Y33.5039
G01 X83.7871 Y33.4853
G01 X83.7720 Y33.4659
G01 X83.7613 Y33.4513
G01 X83.7477 Y33.4308
G01 X83.7382 Y33.4153
G01 X83.7261 Y33.3940
G01 X83.7151 Y33.3721
G01 X83.7074 Y33.3556
G01 X83.6980 Y33.3329
G01 X83.6918 Y33.3159
G01 X83.6841 Y33.2926
G01 X83.6775 Y33.2689
G01 X83.6733 Y33.2513
G01 X83.6685 Y33.2272
G01 X83.6657 Y33.2092
G01 X83.6627 Y33.1849
G01 X83.6609 Y33.1604
G01 X83.6601 Y33.1423
G01 X83.6600 Y1.9400
G01 X43.5677 Y1.9399
G01 X43.5496 Y1.9391
G01 X43.5251 Y1.9373
G01 X43.5008 Y1.9343
G01 X43.4707 Y1.9293
G01 X43.4411 Y1.9225
G01 X43.4174 Y1.9159
G01 X43.3886 Y1.9062
G01 X43.3657 Y1.8974
G01 X43.3433 Y1.8875
G01 X43.3160 Y1.8739
G01 X43.2896 Y1.8588
G01 X43.2689 Y1.8456
G01 X43.2488 Y1.8315
G01 X43.2247 Y1.8129
G01 X43.2018 Y1.7929
G01 X43.1840 Y1.7760
G01 X43.1671 Y1.7582
G01 X43.1471 Y1.7353
G01 X43.1320 Y1.7159
G01 X43.1144 Y1.6911
G01 X43.1012 Y1.6704
G01 X43.0861 Y1.6440
G01 X43.0725 Y1.6167
G01 X43.0626 Y1.5943
G01 X43.0538 Y1.5714
G01 X43.0441 Y1.5426
G01 X43.0361 Y1.5132
G01 X43.0307 Y1.4893
G01 X43.0257 Y1.4592
G01 X43.0227 Y1.4349
G01 X43.0209 Y1.4104
G01 X43.0200 Y1.3800
G01 X43.0209 Y1.3496
G01 X43.0227 Y1.3251
G01 X43.0257 Y1.3008
G01 X43.0307 Y1.2707
G01 X43.0375 Y1.2411
G01 X43.0441 Y1.2174
G01 X43.0538 Y1.1886
G01 X43.0626 Y1.1657
G01 X43.0725 Y1.1433
G01 X43.0861 Y1.1160
G01 X43.1012 Y1.0896
G01 X43.1144 Y1.0689
G01 X43.1285 Y1.0488
G01 X43.1471 Y1.0247
G01 X43.1631 Y1.0061
G01 X43.1754 Y0.9928
G01 X43.1928 Y0.9754
G01 X43.2153 Y0.9550
G01 X43.2343 Y0.9394
G01 X43.2587 Y0.9213
G01 X43.2792 Y0.9077
G01 X43.3053 Y0.8920
G01 X43.3269 Y0.8804
G01 X43.3544 Y0.8674
G01 X43.3771 Y0.8580
G01 X43.4057 Y0.8478
G01 X43.4292 Y0.8407
G01 X43.4587 Y0.8333
G01 X43.4828 Y0.8285
G01 X43.5129 Y0.8240
G01 X43.5373 Y0.8216
G01 X43.5555 Y0.8206
G00 X43.5555 Y0.8206
G01 F60.00
G01 Z-0.6000
G01 F120.00
G01 X43.5800 Y0.8200
G01 X84.2200 Y0.8200
G01 X84.2445 Y0.8206
G01 X84.2749 Y0.8227
G01 X84.2992 Y0.8257
G01 X84.3172 Y0.8285
G01 X84.3413 Y0.8333
G01 X84.3589 Y0.8375
G01 X84.3826 Y0.8441
G01 X84.4059 Y0.8518
G01 X84.4229 Y0.8580
G01 X84.4456 Y0.8674
G01 X84.4621 Y0.8751
G01 X84.4840 Y0.8861
G01 X84.5104 Y0.9012
G01 X84.5311 Y0.9144
G01 X84.5512 Y0.9285
G01 X84.5657 Y0.9394
G01 X84.5753 Y0.9471
G01 X84.5939 Y0.9631
G01 X84.6160 Y0.9840
G01 X84.6329 Y1.0018
G01 X84.6529 Y1.0247
G01 X84.6715 Y1.0488
G01 X84.6787 Y1.0587
G01 X84.6923 Y1.0792
G01 X84.7080 Y1.1053
G01 X84.7196 Y1.1269
G01 X84.7249 Y1.1379
G01 X84.7374 Y1.1657
G01 X84.7482 Y1.1941
G01 X84.7559 Y1.2174
G01 X84.7593 Y1.2292
G01 X84.7667 Y1.2587
G01 X84.7715 Y1.2828
G01 X84.7735 Y1.2949
G01 X84.7773 Y1.3251
G01 X84.7794 Y1.3555
G01 X84.7800 Y1.3800
G01 X84.7800 Y33.1300
G01 X84.7794 Y33.1545
G01 X84.7773 Y33.1849
G01 X84.7743 Y33.2092
G01 X84.7715 Y33.2272
G01 X84.7667 Y33.2513
G01 X84.7625 Y33.2689
G01 X84.7559 Y33.2926
G01 X84.7482 Y33.3159
G01 X84.7420 Y33.3329
G01 X84.7326 Y33.3556
G01 X84.7249 Y33.3721
G01 X84.7139 Y33.3940
G01 X84.6988 Y33.4204
G01 X84.6856 Y33.4411
G01 X84.6715 Y33.4612
G01 X84.6606 Y33.4757
G01 X84.6450 Y33.4947
G01 X84.6329 Y33.5082
G01 X84.6160 Y33.5260
G01 X84.5982 Y33.5429
G01 X84.5847 Y33.5550
G01 X84.5657 Y33.5706
G01 X84.5512 Y33.5815
G01 X84.5311 Y33.5956
G01 X84.5104 Y33.6088
G01 X84.4947 Y33.6180
G01 X84.4840 Y33.6239
G01 X84.4621 Y33.6349
G01 X84.4456 Y33.6426
G01 X84.4229 Y33.6520
G01 X84.4059 Y33.6582
G01 X84.3826 Y33.6659
G01 X84.3589 Y33.6725
G01 X84.3413 Y33.6767
G01 X84.3293 Y33.6793
G01 X84.3051 Y33.6835
G01 X84.2871 Y33.6860
G01 X84.2627 Y33.6884
G01 X84.2445 Y33.6894
G01 X84.2200 Y33.6900
G01 X84.1955 Y33.6894
G01 X84.1773 Y33.6884
G01 X84.1529 Y33.6860
G01 X84.1349 Y33.6835
G01 X84.1107 Y33.6793
G01 X84.0868 Y33.6739
G01 X84.0692 Y33.6693
G01 X84.0457 Y33.6622
G01 X84.0286 Y33.6562
G01 X84.0057 Y33.6474
G01 X83.9833 Y33.6375
G01 X83.9669 Y33.6296
G01 X83.9453 Y33.6180
G01 X83.9347 Y33.6118
G01 X83.9192 Y33.6023
G01 X83.8987 Y33.5887
G01 X83.8841 Y33.5780
G01 X83.8647 Y33.5629
G01 X83.8461 Y33.5469
G01 X83.8328 Y33.5346
G01 X83.8154 Y33.5172
G01 X83.8031 Y33.5039
G01 X83.7871 Y33.4853
G01 X83.7720 Y33.4659
G01 X83.7613 Y33.4513
G01 X83.7477 Y33.4308
G01 X83.7382 Y33.4153
G01 X83.7261 Y33.3940
G01 X83.7151 Y33.3721
G01 X83.7074 Y33.3556
G01 X83.6980 Y33.3329
G01 X83.6918 Y33.3159
G01 X83.6841 Y33.2926
G01 X83.6775 Y33.2689
G01 X83.6733 Y33.2513
G01 X83.6685 Y33.2272
G01 X83.6657 Y33.2092
G01 X83.6627 Y33.1849
G01 X83.6609 Y33.1604
G01 X83.6601 Y33.1423
G01 X83.6600 Y1.9400
G01 X43.5677 Y1.9399
G01 X43.5496 Y1.9391
G01 X43.5251 Y1.9373
G01 X43.5008 Y1.9343
G01 X43.4707 Y1.9293
G01 X43.4411 Y1.9225
G01 X43.4174 Y1.9159
G01 X43.3886 Y1.9062
G01 X43.3657 Y1.8974
G01 X43.3433 Y1.8875
G01 X43.3160 Y1.8739
G01 X43.2896 Y1.8588
G01 X43.2689 Y1.8456
G01 X43.2488 Y1.8315
G01 X43.2247 Y1.8129
G01 X43.2018 Y1.7929
G01 X43.1840 Y1.7760
G01 X43.1671 Y1.7582
G01 X43.1471 Y1.7353
G01 X43.1320 Y1.7159
G01 X43.1144 Y1.6911
G01 X43.1012 Y1.6704
G01 X43.0861 Y1.6440
G01 X43.0725 Y1.6167
G01 X43.0626 Y1.5943
G01 X43.0538 Y1.5714
G01 X43.0441 Y1.5426
G01 X43.0361 Y1.5132
G01 X43.0307 Y1.4893
G01 X43.0257 Y1.4592
G01 X43.0227 Y1.4349
G01 X43.0209 Y1.4104
G01 X43.0200 Y1.3800
G01 X43.0209 Y1.3496
G01 X43.0227 Y1.3251
G01 X43.0257 Y1.3008
G01 X43.0307 Y1.2707
G01 X43.0375 Y1.2411
G01 X43.0441 Y1.2174
G01 X43.0538 Y1.1886
G01 X43.0626 Y1.1657
G01 X43.0725 Y1.1433
G01 X43.0861 Y1.1160
G01 X43.1012 Y1.0896
G01 X43.1144 Y1.0689
G01 X43.1285 Y1.0488
G01 X43.1471 Y1.0247
G01 X43.1631 Y1.0061
G01 X43.1754 Y0.9928
G01 X43.1928 Y0.9754
G01 X43.2153 Y0.9550
G01 X43.2343 Y0.9394
G01 X43.2587 Y0.9213
G01 X43.2792 Y0.9077
G01 X43.3053 Y0.8920
G01 X43.3269 Y0.8804
G01 X43.3544 Y0.8674
G01 X43.3771 Y0.8580
G01 X43.4057 Y0.8478
G01 X43.4292 Y0.8407
G01 X43.4587 Y0.8333
G01 X43.4828 Y0.8285
G01 X43.5129 Y0.8240
G01 X43.5373 Y0.8216
G01 X43.5555 Y0.8206
G00 X43.5555 Y0.8206
G01 F60.00
G01 Z-0.9000
G01 F120.00
G01 X43.5800 Y0.8200
G01 X84.2200 Y0.8200
G01 X84.2445 Y0.8206
G01 X84.2749 Y0.8227
G01 X84.2992 Y0.8257
G01 X84.3172 Y0.8285
G01 X84.3413 Y0.8333
G01 X84.3589 Y0.8375
G01 X84.3826 Y0.8441
G01 X84.4059 Y0.8518
G01 X84.4229 Y0.8580
G01 X84.4456 Y0.8674
G01 X84.4621 Y0.8751
G01 X84.4840 Y0.8861
G01 X84.5104 Y0.9012
G01 X84.5311 Y0.9144
G01 X84.5512 Y0.9285
G01 X84.5657 Y0.9394
G01 X84.5753 Y0.9471
G01 X84.5939 Y0.9631
G01 X84.6160 Y0.9840
G01 X84.6329 Y1.0018
G01 X84.6529 Y1.0247
G01 X84.6715 Y1.0488
G01 X84.6787 Y1.0587
G01 X84.6923 Y1.0792
G01 X84.7080 Y1.1053
G01 X84.7196 Y1.1269
G01 X84.7249 Y1.1379
G01 X84.7374 Y1.1657
G01 X84.7482 Y1.1941
G01 X84.7559 Y1.2174
G01 X84.7593 Y1.2292
G01 X84.7667 Y1.2587
G01 X84.7715 Y1.2828
G01 X84.7735 Y1.2949
G01 X84.7773 Y1.3251
G01 X84.7794 Y1.3555
G01 X84.7800 Y1.3800
G01 X84.7800 Y33.1300
G01 X84.7794 Y33.1545
G01 X84.7773 Y33.1849
G01 X84.7743 Y33.2092
G01 X84.7715 Y33.2272
G01 X84.7667 Y33.2513
G01 X84.7625 Y33.2689
G01 X84.7559 Y33.2926
G01 X84.7482 Y33.3159
G01 X84.7420 Y33.3329
G01 X84.7326 Y33.3556
G01 X84.7249 Y33.3721
G01 X84.7139 Y33.3940
G01 X84.6988 Y33.4204
G01 X84.6856 Y33.4411
G01 X84.6715 Y33.4612
G01 X84.6606 Y33.4757
G01 X84.6450 Y33.4947
G01 X84.6329 Y33.5082
G01 X84.6160 Y33.5260
G01 X84.5982 Y33.5429
G01 X84.5847 Y33.5550
G01 X84.5657 Y33.5706
G01 X84.5512 Y33.5815
G01 X84.5311 Y33.5956
G01 X84.5104 Y33.6088
G01 X84.4947 Y33.6180
G01 X84.4840 Y33.6239
G01 X84.4621 Y33.6349
G01 X84.4456 Y33.6426
G01 X84.4229 Y33.6520
G01 X84.4059 Y33.6582
G01 X84.3826 Y33.6659
G01 X84.3589 Y33.6725
G01 X84.3413 Y33.6767
G01 X84.3293 Y33.6793
G01 X84.3051 Y33.6835
G01 X84.2871 Y33.6860
G01 X84.2627 Y33.6884
G01 X84.2445 Y33.6894
G01 X84.2200 Y33.6900
G01 X84.1955 Y33.6894
G01 X84.1773 Y33.6884
G01 X84.1529 Y33.6860
G01 X84.1349 Y33.6835
G01 X84.1107 Y33.6793
G01 X84.0868 Y33.6739
G01 X84.0692 Y33.6693
G01 X84.0457 Y33.6622
G01 X84.0286 Y33.6562
G01 X84.0057 Y33.6474
G01 X83.9833 Y33.6375
G01 X83.9669 Y33.6296
G01 X83.9453 Y33.6180
G01 X83.9347 Y33.6118
G01 X83.9192 Y33.6023
G01 X83.8987 Y33.5887
G01 X83.8841 Y33.5780
G01 X83.8647 Y33.5629
G01 X83.8461 Y33.5469
G01 X83.8328 Y33.5346
G01 X83.8154 Y33.5172
G01 X83.8031 Y33.5039
G01 X83.7871 Y33.4853
G01 X83.7720 Y33.4659
G01 X83.7613 Y33.4513
G01 X83.7477 Y33.4308
G01 X83.7382 Y33.4153
G01 X83.7261 Y33.3940
G01 X83.7151 Y33.3721
G01 X83.7074 Y33.3556
G01 X83.6980 Y33.3329
G01 X83.6918 Y33.3159
G01 X83.6841 Y33.2926
G01 X83.6775 Y33.2689
G01 X83.6733 Y33.2513
G01 X83.6685 Y33.2272
G01 X83.6657 Y33.2092
G01 X83.6627 Y33.1849
G01 X83.6609 Y33.1604
G01 X83.6601 Y33.1423
G01 X83.6600 Y1.9400
G01 X43.5677 Y1.9399
G01 X43.5496 Y1.9391
G01 X43.5251 Y1.9373
G01 X43.5008 Y1.9343
G01 X43.4707 Y1.9293
G01 X43.4411 Y1.9225
G01 X43.4174 Y1.9159
G01 X43.3886 Y1.9062
G01 X43.3657 Y1.8974
G01 X43.3433 Y1.8875
G01 X43.3160 Y1.8739
G01 X43.2896 Y1.8588
G01 X43.2689 Y1.8456
G01 X43.2488 Y1.8315
G01 X43.2247 Y1.8129
G01 X43.2018 Y1.7929
G01 X43.1840 Y1.7760
G01 X43.1671 Y1.7582
G01 X43.1471 Y1.7353
G01 X43.1320 Y1.7159
G01 X43.1144 Y1.6911
G01 X43.1012 Y1.6704
G01 X43.0861 Y1.6440
G01 X43.0725 Y1.6167
G01 X43.0626 Y1.5943
G01 X43.0538 Y1.5714
G01 X43.0441 Y1.5426
G01 X43.0361 Y1.5132
G01 X43.0307 Y1.4893
G01 X43.0257 Y1.4592
G01 X43.0227 Y1.4349
G01 X43.0209 Y1.4104
G01 X43.0200 Y1.3800
G01 X43.0209 Y1.3496
G01 X43.0227 Y1.3251
G01 X43.0257 Y1.3008
G01 X43.0307 Y1.2707
G01 X43.0375 Y1.2411
G01 X43.0441 Y1.2174
G01 X43.0538 Y1.1886
G01 X43.0626 Y1.1657
G01 X43.0725 Y1.1433
G01 X43.0861 Y1.1160
G01 X43.1012 Y1.0896
G01 X43.1144 Y1.0689
G01 X43.1285 Y1.0488
G01 X43.1471 Y1.0247
G01 X43.1631 Y1.0061
G01 X43.1754 Y0.9928
G01 X43.1928 Y0.9754
G01 X43.2153 Y0.9550
G01 X43.2343 Y0.9394
G01 X43.2587 Y0.9213
G01 X43.2792 Y0.9077
G01 X43.3053 Y0.8920
G01 X43.3269 Y0.8804
G01 X43.3544 Y0.8674
G01 X43.3771 Y0.8580
G01 X43.4057 Y0.8478
G01 X43.4292 Y0.8407
G01 X43.4587 Y0.8333
G01 X43.4828 Y0.8285
G01 X43.5129 Y0.8240
G01 X43.5373 Y0.8216
G01 X43.5555 Y0.8206
G00 X43.5555 Y0.8206
G01 F60.00
G01 Z-1.2000
G01 F120.00
G01 X43.5800 Y0.8200
G01 X84.2200 Y0.8200
G01 X84.2445 Y0.8206
G01 X84.2749 Y0.8227
G01 X84.2992 Y0.8257
G01 X84.3172 Y0.8285
G01 X84.3413 Y0.8333
G01 X84.3589 Y0.8375
G01 X84.3826 Y0.8441
G01 X84.4059 Y0.8518
G01 X84.4229 Y0.8580
G01 X84.4456 Y0.8674
G01 X84.4621 Y0.8751
G01 X84.4840 Y0.8861
G01 X84.5104 Y0.9012
G01 X84.5311 Y0.9144
G01 X84.5512 Y0.9285
G01 X84.5657 Y0.9394
G01 X84.5753 Y0.9471
G01 X84.5939 Y0.9631
G01 X84.6160 Y0.9840
G01 X84.6329 Y1.0018
G01 X84.6529 Y1.0247
G01 X84.6715 Y1.0488
G01 X84.6787 Y1.0587
G01 X84.6923 Y1.0792
G01 X84.7080 Y1.1053
G01 X84.7196 Y1.1269
G01 X84.7249 Y1.1379
G01 X84.7374 Y1.1657
G01 X84.7482 Y1.1941
G01 X84.7559 Y1.2174
G01 X84.7593 Y1.2292
G01 X84.7667 Y1.2587
G01 X84.7715 Y1.2828
G01 X84.7735 Y1.2949
G01 X84.7773 Y1.3251
G01 X84.7794 Y1.3555
G01 X84.7800 Y1.3800
G01 X84.7800 Y33.1300
G01 X84.7794 Y33.1545
G01 X84.7773 Y33.1849
G01 X84.7743 Y33.2092
G01 X84.7715 Y33.2272
G01 X84.7667 Y33.2513
G01 X84.7625 Y33.2689
G01 X84.7559 Y33.2926
G01 X84.7482 Y33.3159
G01 X84.7420 Y33.3329
G01 X84.7326 Y33.3556
G01 X84.7249 Y33.3721
G01 X84.7139 Y33.3940
G01 X84.6988 Y33.4204
G01 X84.6856 Y33.4411
G01 X84.6715 Y33.4612
G01 X84.6606 Y33.4757
G01 X84.6450 Y33.4947
G01 X84.6329 Y33.5082
G01 X84.6160 Y33.5260
G01 X84.5982 Y33.5429
G01 X84.5847 Y33.5550
G01 X84.5657 Y33.5706
G01 X84.5512 Y33.5815
G01 X84.5311 Y33.5956
G01 X84.5104 Y33.6088
G01 X84.4947 Y33.6180
G01 X84.4840 Y33.6239
G01 X84.4621 Y33.6349
G01 X84.4456 Y33.6426
G01 X84.4229 Y33.6520
G01 X84.4059 Y33.6582
G01 X84.3826 Y33.6659
G01 X84.3589 Y33.6725
G01 X84.3413 Y33.6767
G01 X84.3293 Y33.6793
G01 X84.3051 Y33.6835
G01 X84.2871 Y33.6860
G01 X84.2627 Y33.6884
G01 X84.2445 Y33.6894
G01 X84.2200 Y33.6900
G01 X84.1955 Y33.6894
G01 X84.1773 Y33.6884
G01 X84.1529 Y33.6860
G01 X84.1349 Y33.6835
G01 X84.1107 Y33.6793
G01 X84.0868 Y33.6739
G01 X84.0692 Y33.6693
G01 X84.0457 Y33.6622
G01 X84.0286 Y33.6562
G01 X84.0057 Y33.6474
G01 X83.9833 Y33.6375
G01 X83.9669 Y33.6296
G01 X83.9453 Y33.6180
G01 X83.9347 Y33.6118
G01 X83.9192 Y33.6023
G01 X83.8987 Y33.5887
G01 X83.8841 Y33.5780
G01 X83.8647 Y33.5629
G01 X83.8461 Y33.5469
G01 X83.8328 Y33.5346
G01 X83.8154 Y33.5172
G01 X83.8031 Y33.5039
G01 X83.7871 Y33.4853
G01 X83.7720 Y33.4659
G01 X83.7613 Y33.4513
G01 X83.7477 Y33.4308
G01 X83.7382 Y33.4153
G01 X83.7261 Y33.3940
G01 X83.7151 Y33.3721
G01 X83.7074 Y33.3556
G01 X83.6980 Y33.3329
G01 X83.6918 Y33.3159
G01 X83.6841 Y33.2926
G01 X83.6775 Y33.2689
G01 X83.6733 Y33.2513
G01 X83.6685 Y33.2272
G01 X83.6657 Y33.2092
G01 X83.6627 Y33.1849
G01 X83.6609 Y33.1604
G01 X83.6601 Y33.1423
G01 X83.6600 Y1.9400
G01 X43.5677 Y1.9399
G01 X43.5496 Y1.9391
G01 X43.5251 Y1.9373
G01 X43.5008 Y1.9343
G01 X43.4707 Y1.9293
G01 X43.4411 Y1.9225
G01 X43.4174 Y1.9159
G01 X43.3886 Y1.9062
G01 X43.3657 Y1.8974
G01 X43.3433 Y1.8875
G01 X43.3160 Y1.8739
G01 X43.2896 Y1.8588
G01 X43.2689 Y1.8456
G01 X43.2488 Y1.8315
G01 X43.2247 Y1.8129
G01 X43.2018 Y1.7929
G01 X43.1840 Y1.7760
G01 X43.1671 Y1.7582
G01 X43.1471 Y1.7353
G01 X43.1320 Y1.7159
G01 X43.1144 Y1.6911
G01 X43.1012 Y1.6704
G01 X43.0861 Y1.6440
G01 X43.0725 Y1.6167
G01 X43.0626 Y1.5943
G01 X43.0538 Y1.5714
G01 X43.0441 Y1.5426
G01 X43.0361 Y1.5132
G01 X43.0307 Y1.4893
G01 X43.0257 Y1.4592
G01 X43.0227 Y1.4349
G01 X43.0209 Y1.4104
G01 X43.0200 Y1.3800
G01 X43.0209 Y1.3496
G01 X43.0227 Y1.3251
G01 X43.0257 Y1.3008
G01 X43.0307 Y1.2707
G01 X43.0375 Y1.2411
G01 X43.0441 Y1.2174
G01 X43.0538 Y1.1886
G01 X43.0626 Y1.1657
G01 X43.0725 Y1.1433
G01 X43.0861 Y1.1160
G01 X43.1012 Y1.0896
G01 X43.1144 Y1.0689
G01 X43.1285 Y1.0488
G01 X43.1471 Y1.0247
G01 X43.1631 Y1.0061
G01 X43.1754 Y0.9928
G01 X43.1928 Y0.9754
G01 X43.2153 Y0.9550
G01 X43.2343 Y0.9394
G01 X43.2587 Y0.9213
G01 X43.2792 Y0.9077
G01 X43.3053 Y0.8920
G01 X43.3269 Y0.8804
G01 X43.3544 Y0.8674
G01 X43.3771 Y0.8580
G01 X43.4057 Y0.8478
G01 X43.4292 Y0.8407
G01 X43.4587 Y0.8333
G01 X43.4828 Y0.8285
G01 X43.5129 Y0.8240
G01 X43.5373 Y0.8216
G01 X43.5555 Y0.8206
G00 X43.5555 Y0.8206
G01 F60.00
G01 Z-1.5000
G01 F120.00
G01 X43.5800 Y0.8200
G01 X84.2200 Y0.8200
G01 X84.2445 Y0.8206
G01 X84.2749 Y0.8227
G01 X84.2992 Y0.8257
G01 X84.3172 Y0.8285
G01 X84.3413 Y0.8333
G01 X84.3589 Y0.8375
G01 X84.3826 Y0.8441
G01 X84.4059 Y0.8518
G01 X84.4229 Y0.8580
G01 X84.4456 Y0.8674
G01 X84.4621 Y0.8751
G01 X84.4840 Y0.8861
G01 X84.5104 Y0.9012
G01 X84.5311 Y0.9144
G01 X84.5512 Y0.9285
G01 X84.5657 Y0.9394
G01 X84.5753 Y0.9471
G01 X84.5939 Y0.9631
G01 X84.6160 Y0.9840
G01 X84.6329 Y1.0018
G01 X84.6529 Y1.0247
G01 X84.6715 Y1.0488
G01 X84.6787 Y1.0587
G01 X84.6923 Y1.0792
G01 X84.7080 Y1.1053
G01 X84.7196 Y1.1269
G01 X84.7249 Y1.1379
G01 X84.7374 Y1.1657
G01 X84.7482 Y1.1941
G01 X84.7559 Y1.2174
G01 X84.7593 Y1.2292
G01 X84.7667 Y1.2587
G01 X84.7715 Y1.2828
G01 X84.7735 Y1.2949
G01 X84.7773 Y1.3251
G01 X84.7794 Y1.3555
G01 X84.7800 Y1.3800
G01 X84.7800 Y33.1300
G01 X84.7794 Y33.1545
G01 X84.7773 Y33.1849
G01 X84.7743 Y33.2092
G01 X84.7715 Y33.2272
G01 X84.7667 Y33.2513
G01 X84.7625 Y33.2689
G01 X84.7559 Y33.2926
G01 X84.7482 Y33.3159
G01 X84.7420 Y33.3329
G01 X84.7326 Y33.3556
G01 X84.7249 Y33.3721
G01 X84.7139 Y33.3940
G01 X84.6988 Y33.4204
G01 X84.6856 Y33.4411
G01 X84.6715 Y33.4612
G01 X84.6606 Y33.4757
G01 X84.6450 Y33.4947
G01 X84.6329 Y33.5082
G01 X84.6160 Y33.5260
G01 X84.5982 Y33.5429
G01 X84.5847 Y33.5550
G01 X84.5657 Y33.5706
G01 X84.5512 Y33.5815
G01 X84.5311 Y33.5956
G01 X84.5104 Y33.6088
G01 X84.4947 Y33.6180
G01 X84.4840 Y33.6239
G01 X84.4621 Y33.6349
G01 X84.4456 Y33.6426
G01 X84.4229 Y33.6520
G01 X84.4059 Y33.6582
G01 X84.3826 Y33.6659
G01 X84.3589 Y33.6725
G01 X84.3413 Y33.6767
G01 X84.3293 Y33.6793
G01 X84.3051 Y33.6835
G01 X84.2871 Y33.6860
G01 X84.2627 Y33.6884
G01 X84.2445 Y33.6894
G01 X84.2200 Y33.6900
G01 X84.1955 Y33.6894
G01 X84.1773 Y33.6884
G01 X84.1529 Y33.6860
G01 X84.1349 Y33.6835
G01 X84.1107 Y33.6793
G01 X84.0868 Y33.6739
G01 X84.0692 Y33.6693
G01 X84.0457 Y33.6622
G01 X84.0286 Y33.6562
G01 X84.0057 Y33.6474
G01 X83.9833 Y33.6375
G01 X83.9669 Y33.6296
G01 X83.9453 Y33.6180
G01 X83.9347 Y33.6118
G01 X83.9192 Y33.6023
G01 X83.8987 Y33.5887
G01 X83.8841 Y33.5780
G01 X83.8647 Y33.5629
G01 X83.8461 Y33.5469
G01 X83.8328 Y33.5346
G01 X83.8154 Y33.5172
G01 X83.8031 Y33.5039
G01 X83.7871 Y33.4853
G01 X83.7720 Y33.4659
G01 X83.7613 Y33.4513
G01 X83.7477 Y33.4308
G01 X83.7382 Y33.4153
G01 X83.7261 Y33.3940
G01 X83.7151 Y33.3721
G01 X83.7074 Y33.3556
G01 X83.6980 Y33.3329
G01 X83.6918 Y33.3159
G01 X83.6841 Y33.2926
G01 X83.6775 Y33.2689
G01 X83.6733 Y33.2513
G01 X83.6685 Y33.2272
G01 X83.6657 Y33.2092
G01 X83.6627 Y33.1849
G01 X83.6609 Y33.1604
G01 X83.6601 Y33.1423
G01 X83.6600 Y1.9400
G01 X43.5677 Y1.9399
G01 X43.5496 Y1.9391
G01 X43.5251 Y1.9373
G01 X43.5008 Y1.9343
G01 X43.4707 Y1.9293
G01 X43.4411 Y1.9225
G01 X43.4174 Y1.9159
G01 X43.3886 Y1.9062
G01 X43.3657 Y1.8974
G01 X43.3433 Y1.8875
G01 X43.3160 Y1.8739
G01 X43.2896 Y1.8588
G01 X43.2689 Y1.8456
G01 X43.2488 Y1.8315
G01 X43.2247 Y1.8129
G01 X43.2018 Y1.7929
G01 X43.1840 Y1.7760
G01 X43.1671 Y1.7582
G01 X43.1471 Y1.7353
G01 X43.1320 Y1.7159
G01 X43.1144 Y1.6911
G01 X43.1012 Y1.6704
G01 X43.0861 Y1.6440
G01 X43.0725 Y1.6167
G01 X43.0626 Y1.5943
G01 X43.0538 Y1.5714
G01 X43.0441 Y1.5426
G01 X43.0361 Y1.5132
G01 X43.0307 Y1.4893
G01 X43.0257 Y1.4592
G01 X43.0227 Y1.4349
G01 X43.0209 Y1.4104
G01 X43.0200 Y1.3800
G01 X43.0209 Y1.3496
G01 X43.0227 Y1.3251
G01 X43.0257 Y1.3008
G01 X43.0307 Y1.2707
G01 X43.0375 Y1.2411
G01 X43.0441 Y1.2174
G01 X43.0538 Y1.1886
G01 X43.0626 Y1.1657
G01 X43.0725 Y1.1433
G01 X43.0861 Y1.1160
G01 X43.1012 Y1.0896
G01 X43.1144 Y1.0689
G01 X43.1285 Y1.0488
G01 X43.1471 Y1.0247
G01 X43.1631 Y1.0061
G01 X43.1754 Y0.9928
G01 X43.1928 Y0.9754
G01 X43.2153 Y0.9550
G01 X43.2343 Y0.9394
G01 X43.2587 Y0.9213
G01 X43.2792 Y0.9077
G01 X43.3053 Y0.8920
G01 X43.3269 Y0.8804
G01 X43.3544 Y0.8674
G01 X43.3771 Y0.8580
G01 X43.4057 Y0.8478
G01 X43.4292 Y0.8407
G01 X43.4587 Y0.8333
G01 X43.4828 Y0.8285
G01 X43.5129 Y0.8240
G01 X43.5373 Y0.8216
G01 X43.5555 Y0.8206
G00 X43.5555 Y0.8206
G01 F60.00
G01 Z-1.7000
G01 F120.00
G01 X43.5800 Y0.8200
G01 X84.2200 Y0.8200
G01 X84.2445 Y0.8206
G01 X84.2749 Y0.8227
G01 X84.2992 Y0.8257
G01 X84.3172 Y0.8285
G01 X84.3413 Y0.8333
G01 X84.3589 Y0.8375
G01 X84.3826 Y0.8441
G01 X84.4059 Y0.8518
G01 X84.4229 Y0.8580
G01 X84.4456 Y0.8674
G01 X84.4621 Y0.8751
G01 X84.4840 Y0.8861
G01 X84.5104 Y0.9012
G01 X84.5311 Y0.9144
G01 X84.5512 Y0.9285
G01 X84.5657 Y0.9394
G01 X84.5753 Y0.9471
G01 X84.5939 Y0.9631
G01 X84.6160 Y0.9840
G01 X84.6329 Y1.0018
G01 X84.6529 Y1.0247
G01 X84.6715 Y1.0488
G01 X84.6787 Y1.0587
G01 X84.6923 Y1.0792
G01 X84.7080 Y1.1053
G01 X84.7196 Y1.1269
G01 X84.7249 Y1.1379
G01 X84.7374 Y1.1657
G01 X84.7482 Y1.1941
G01 X84.7559 Y1.2174
G01 X84.7593 Y1.2292
G01 X84.7667 Y1.2587
G01 X84.7715 Y1.2828
G01 X84.7735 Y1.2949
G01 X84.7773 Y1.3251
G01 X84.7794 Y1.3555
G01 X84.7800 Y1.3800
G01 X84.7800 Y33.1300
G01 X84.7794 Y33.1545
G01 X84.7773 Y33.1849
G01 X84.7743 Y33.2092
G01 X84.7715 Y33.2272
G01 X84.7667 Y33.2513
G01 X84.7625 Y33.2689
G01 X84.7559 Y33.2926
G01 X84.7482 Y33.3159
G01 X84.7420 Y33.3329
G01 X84.7326 Y33.3556
G01 X84.7249 Y33.3721
G01 X84.7139 Y33.3940
G01 X84.6988 Y33.4204
G01 X84.6856 Y33.4411
G01 X84.6715 Y33.4612
G01 X84.6606 Y33.4757
G01 X84.6450 Y33.4947
G01 X84.6329 Y33.5082
G01 X84.6160 Y33.5260
G01 X84.5982 Y33.5429
G01 X84.5847 Y33.5550
G01 X84.5657 Y33.5706
G01 X84.5512 Y33.5815
G01 X84.5311 Y33.5956
G01 X84.5104 Y33.6088
G01 X84.4947 Y33.6180
G01 X84.4840 Y33.6239
G01 X84.4621 Y33.6349
G01 X84.4456 Y33.6426
G01 X84.4229 Y33.6520
G01 X84.4059 Y33.6582
G01 X84.3826 Y33.6659
G01 X84.3589 Y33.6725
G01 X84.3413 Y33.6767
G01 X84.3293 Y33.6793
G01 X84.3051 Y33.6835
G01 X84.2871 Y33.6860
G01 X84.2627 Y33.6884
G01 X84.2445 Y33.6894
G01 X84.2200 Y33.6900
G01 X84.1955 Y33.6894
G01 X84.1773 Y33.6884
G01 X84.1529 Y33.6860
G01 X84.1349 Y33.6835
G01 X84.1107 Y33.6793
G01 X84.0868 Y33.6739
G01 X84.0692 Y33.6693
G01 X84.0457 Y33.6622
G01 X84.0286 Y33.6562
G01 X84.0057 Y33.6474
G01 X83.9833 Y33.6375
G01 X83.9669 Y33.6296
G01 X83.9453 Y33.6180
G01 X83.9347 Y33.6118
G01 X83.9192 Y33.6023
G01 X83.8987 Y33.5887
G01 X83.8841 Y33.5780
G01 X83.8647 Y33.5629
G01 X83.8461 Y33.5469
G01 X83.8328 Y33.5346
G01 X83.8154 Y33.5172
G01 X83.8031 Y33.5039
G01 X83.7871 Y33.4853
G01 X83.7720 Y33.4659
G01 X83.7613 Y33.4513
G01 X83.7477 Y33.4308
G01 X83.7382 Y33.4153
G01 X83.7261 Y33.3940
G01 X83.7151 Y33.3721
G01 X83.7074 Y33.3556
G01 X83.6980 Y33.3329
G01 X83.6918 Y33.3159
G01 X83.6841 Y33.2926
G01 X83.6775 Y33.2689
G01 X83.6733 Y33.2513
G01 X83.6685 Y33.2272
G01 X83.6657 Y33.2092
G01 X83.6627 Y33.1849
G01 X83.6609 Y33.1604
G01 X83.6601 Y33.1423
G01 X83.6600 Y1.9400
G01 X43.5677 Y1.9399
G01 X43.5496 Y1.9391
G01 X43.5251 Y1.9373
G01 X43.5008 Y1.9343
G01 X43.4707 Y1.9293
G01 X43.4411 Y1.9225
G01 X43.4174 Y1.9159
G01 X43.3886 Y1.9062
G01 X43.3657 Y1.8974
G01 X43.3433 Y1.8875
G01 X43.3160 Y1.8739
G01 X43.2896 Y1.8588
G01 X43.2689 Y1.8456
G01 X43.2488 Y1.8315
G01 X43.2247 Y1.8129
G01 X43.2018 Y1.7929
G01 X43.1840 Y1.7760
G01 X43.1671 Y1.7582
G01 X43.1471 Y1.7353
G01 X43.1320 Y1.7159
G01 X43.1144 Y1.6911
G01 X43.1012 Y1.6704
G01 X43.0861 Y1.6440
G01 X43.0725 Y1.6167
G01 X43.0626 Y1.5943
G01 X43.0538 Y1.5714
G01 X43.0441 Y1.5426
G01 X43.0361 Y1.5132
G01 X43.0307 Y1.4893
G01 X43.0257 Y1.4592
G01 X43.0227 Y1.4349
G01 X43.0209 Y1.4104
G01 X43.0200 Y1.3800
G01 X43.0209 Y1.3496
G01 X43.0227 Y1.3251
G01 X43.0257 Y1.3008
G01 X43.0307 Y1.2707
G01 X43.0375 Y1.2411
G01 X43.0441 Y1.2174
G01 X43.0538 Y1.1886
G01 X43.0626 Y1.1657
G01 X43.0725 Y1.1433
G01 X43.0861 Y1.1160
G01 X43.1012 Y1.0896
G01 X43.1144 Y1.0689
G01 X43.1285 Y1.0488
G01 X43.1471 Y1.0247
G01 X43.1631 Y1.0061
G01 X43.1754 Y0.9928
G01 X43.1928 Y0.9754
G01 X43.2153 Y0.9550
G01 X43.2343 Y0.9394
G01 X43.2587 Y0.9213
G01 X43.2792 Y0.9077
G01 X43.3053 Y0.8920
G01 X43.3269 Y0.8804
G01 X43.3544 Y0.8674
G01 X43.3771 Y0.8580
G01 X43.4057 Y0.8478
G01 X43.4292 Y0.8407
G01 X43.4587 Y0.8333
G01 X43.4828 Y0.8285
G01 X43.5129 Y0.8240
G01 X43.5373 Y0.8216
G01 X43.5555 Y0.8206
G00 Z2.0000
M05
G00 Z2.0000
G00 Z15.00


