(G-CODE GENERATED BY FLATCAM v8.994 - www.flatcam.org - Version Date: 2020/11/7)

(Name: stoplight-F_Cu.gbr_iso_combined_cnc)
(Type: G-code from Geometry)
(Units: MM)

(Created on quarta, 19 janeiro 2022 at 11:39)

(This preprocessor is the default preprocessor used by FlatCAM.)
(It is made to work with MACH3 compatible motion controllers.)

(TOOL DIAMETER: 0.2536 mm)
(Feedrate_XY: 120.0 mm/min)
(Feedrate_Z: 60.0 mm/min)
(Feedrate rapids 1500.0 mm/min)

(Z_Cut: -0.18 mm)
(Z_Move: 2.0 mm)
(Z Start: None mm)
(Z End: 15.0 mm)
(X,Y End: None mm)
(Steps per circle: 64)
(Preprocessor Geometry: default)

(X range:    2.7728 ...   83.1172  mm)
(Y range:    6.4724 ...   67.5872  mm)

(Spindle Speed: 0.0 RPM)
G21
G90
G94

G01 F120.00

M5
G00 Z15.0000
G00 X0.0000 Y0.0000
T1
M6    
(MSG, Change to Tool Dia = 0.2536)
M0
G00 Z15.0000

M03
G01 F120.00
G00 X13.0929 Y11.7835
G01 F60.00
G01 Z-0.1800
G01 F120.00
G01 X13.0929 Y11.8717
G01 X12.9806 Y11.9759
G01 X12.8042 Y12.0401
G01 X12.5637 Y12.0642
G01 X12.0104 Y12.0642
G01 X11.8821 Y12.0962
G01 X11.7377 Y12.0401
G01 X11.5613 Y11.8557
G01 X11.5613 Y11.6552
G01 X11.6495 Y11.5189
G01 X11.8340 Y11.4146
G01 X12.1146 Y11.3585
G01 X12.4915 Y11.3585
G01 X12.7802 Y11.4226
G01 X12.9806 Y11.5349
G01 X13.0929 Y11.6873
G01 X13.0929 Y11.7835
G00 Z2.0000
G00 X12.2670 Y12.9623
G01 F60.00
G01 Z-0.1800
G01 F120.00
G01 X12.4033 Y12.9623
G01 X12.6198 Y13.0505
G01 X12.7641 Y13.2108
G01 X12.8283 Y13.4354
G01 X12.8283 Y13.8523
G01 X12.5396 Y14.1811
G01 X11.9943 Y14.1811
G01 X11.6976 Y13.8523
G01 X11.6976 Y13.4354
G01 X11.7778 Y13.2108
G01 X11.9222 Y13.0505
G01 X12.1307 Y12.9623
G01 X12.2670 Y12.9623
G00 Z2.0000
G00 X12.2670 Y14.5660
G01 F60.00
G01 Z-0.1800
G01 F120.00
G01 X12.0505 Y14.5660
G01 X11.6896 Y14.4297
G01 X11.4250 Y14.1731
G01 X11.2807 Y13.8122
G01 X11.2807 Y13.3071
G01 X11.4972 Y12.8901
G01 X11.6896 Y12.7618
G01 X11.6094 Y12.7297
G01 X11.4811 Y12.6575
G01 X11.4009 Y12.5693
G01 X11.3608 Y12.4811
G01 X11.3608 Y12.3368
G01 X11.4891 Y12.2165
G01 X11.6094 Y12.1764
G01 X11.4009 Y12.0962
G01 X11.1604 Y11.8396
G01 X11.1604 Y11.5109
G01 X11.2967 Y11.2703
G01 X11.5854 Y11.0859
G01 X12.0104 Y10.9736
G01 X12.5797 Y10.9736
G01 X13.0288 Y11.1179
G01 X13.3415 Y11.3665
G01 X13.5099 Y11.6873
G01 X13.5099 Y12.0321
G01 X13.3575 Y12.2646
G01 X13.1170 Y12.3929
G01 X12.7962 Y12.4491
G01 X12.1547 Y12.4491
G01 X11.9061 Y12.4651
G01 X11.7538 Y12.5052
G01 X11.7538 Y12.5613
G01 X11.8420 Y12.6094
G01 X11.9222 Y12.6335
G01 X12.0825 Y12.5774
G01 X12.4755 Y12.5774
G01 X12.8363 Y12.7217
G01 X13.0929 Y12.9783
G01 X13.2372 Y13.3472
G01 X13.2372 Y13.8203
G01 X13.1490 Y14.0207
G01 X13.4457 Y14.0929
G01 X13.5580 Y14.1330
G01 X13.5580 Y14.5660
G01 X12.2670 Y14.5660
G00 Z2.0000
G00 X14.4080 Y14.5660
G01 F60.00
G01 Z-0.1800
G01 F120.00
G01 X13.9509 Y14.5660
G01 X13.9509 Y12.0000
G01 X14.4080 Y12.0000
G01 X14.4080 Y14.5660
G00 Z2.0000
G00 X14.5042 Y15.4000
G01 F60.00
G01 Z-0.1800
G01 F120.00
G01 X14.5042 Y15.4401
G01 X14.4561 Y15.5122
G01 X14.3679 Y15.5603
G01 X14.2396 Y15.5924
G01 X14.1113 Y15.5924
G01 X13.9910 Y15.5603
G01 X13.9108 Y15.5122
G01 X13.8547 Y15.4401
G01 X13.8547 Y15.3599
G01 X13.9108 Y15.2877
G01 X13.9910 Y15.2396
G01 X14.1113 Y15.2075
G01 X14.2396 Y15.2075
G01 X14.3679 Y15.2396
G01 X14.4561 Y15.2877
G01 X14.5042 Y15.3599
G01 X14.5042 Y15.4000
G00 Z2.0000
G00 X15.7551 Y12.0000
G01 F60.00
G01 Z-0.1800
G01 F120.00
G01 X15.9316 Y12.0000
G01 X16.2603 Y12.1203
G01 X16.3806 Y12.2245
G01 X16.2443 Y12.4410
G01 X16.2202 Y12.4811
G01 X16.1641 Y12.4811
G01 X16.1080 Y12.4410
G01 X16.0358 Y12.4009
G01 X15.9235 Y12.3608
G01 X15.7311 Y12.3608
G01 X15.5707 Y12.5132
G01 X15.5707 Y14.1811
G01 X16.3245 Y14.1811
G01 X16.3245 Y14.5660
G01 X15.5707 Y14.5660
G01 X15.5707 Y15.3358
G01 X15.2981 Y15.3358
G01 X15.2419 Y15.2957
G01 X15.2339 Y15.2556
G01 X15.1297 Y14.5500
G01 X14.7047 Y14.5019
G01 X14.7047 Y14.2372
G01 X14.7608 Y14.1811
G01 X15.1136 Y14.1811
G01 X15.1136 Y12.3288
G01 X15.4424 Y12.0000
G01 X15.7551 Y12.0000
G00 Z2.0000
G00 X17.0061 Y12.0000
G01 F60.00
G01 Z-0.1800
G01 F120.00
G01 X17.4632 Y12.0000
G01 X17.4632 Y13.8122
G01 X17.6155 Y13.9806
G01 X17.9603 Y14.1811
G01 X18.4414 Y14.1811
G01 X18.7141 Y13.8684
G01 X18.7141 Y12.0000
G01 X19.1712 Y12.0000
G01 X19.1712 Y13.8203
G01 X19.0589 Y14.1731
G01 X18.8424 Y14.4297
G01 X18.5136 Y14.5660
G01 X18.0405 Y14.5660
G01 X17.6315 Y14.3255
G01 X17.4632 Y14.1250
G01 X17.4632 Y15.5924
G01 X17.0061 Y15.5924
G01 X17.0061 Y12.0000
G00 Z2.0000
G00 X20.5183 Y14.5660
G01 F60.00
G01 Z-0.1800
G01 F120.00
G01 X20.0612 Y14.5660
G01 X20.0612 Y12.7377
G01 X20.1735 Y12.3849
G01 X20.3900 Y12.1363
G01 X20.7188 Y12.0000
G01 X21.1999 Y12.0000
G01 X21.6249 Y12.2406
G01 X21.7933 Y12.4410
G01 X21.8254 Y12.1123
G01 X21.8575 Y12.0000
G01 X22.2263 Y12.0000
G01 X22.2263 Y14.5660
G01 X21.7692 Y14.5660
G01 X21.7692 Y12.7297
G01 X21.6169 Y12.5693
G01 X21.2641 Y12.3849
G01 X20.7829 Y12.3849
G01 X20.5183 Y12.6976
G01 X20.5183 Y14.5660
G00 Z2.0000
G00 X23.1645 Y12.0000
G01 F60.00
G01 Z-0.1800
G01 F120.00
G01 X23.5574 Y12.0000
G01 X23.5815 Y12.1203
G01 X23.6055 Y12.4009
G01 X23.7338 Y12.2085
G01 X24.0867 Y12.0000
G01 X24.5999 Y12.0000
G01 X25.0169 Y12.1925
G01 X25.3055 Y12.5453
G01 X25.4579 Y13.0424
G01 X25.4579 Y13.6278
G01 X25.3216 Y14.0849
G01 X25.0650 Y14.3976
G01 X24.6961 Y14.5660
G01 X24.1989 Y14.5660
G01 X23.7900 Y14.3255
G01 X23.6216 Y14.1250
G01 X23.6216 Y15.5924
G01 X23.1645 Y15.5924
G01 X23.1645 Y12.0000
G00 Z2.0000
G00 X24.3192 Y14.1811
G01 F60.00
G01 Z-0.1800
G01 F120.00
G01 X24.0947 Y14.1811
G01 X23.7659 Y13.9887
G01 X23.6216 Y13.8122
G01 X23.6216 Y12.6656
G01 X23.7499 Y12.5132
G01 X24.0546 Y12.3849
G01 X24.5999 Y12.3849
G01 X24.9848 Y12.8580
G01 X24.9848 Y13.7722
G01 X24.6400 Y14.1811
G01 X24.3192 Y14.1811
G00 Z2.0000
G00 X26.1716 Y12.1925
G01 F60.00
G01 Z-0.1800
G01 F120.00
G01 X26.1716 Y12.1524
G01 X26.2197 Y12.0802
G01 X26.2999 Y12.0321
G01 X26.4201 Y12.0000
G01 X26.5565 Y12.0000
G01 X26.6687 Y12.0321
G01 X26.7569 Y12.0802
G01 X26.8131 Y12.1524
G01 X26.8131 Y12.2325
G01 X26.7569 Y12.3047
G01 X26.6687 Y12.3528
G01 X26.5565 Y12.3849
G01 X26.4201 Y12.3849
G01 X26.2999 Y12.3528
G01 X26.2197 Y12.3047
G01 X26.1716 Y12.2325
G01 X26.1716 Y12.1925
G00 Z2.0000
G00 X29.0824 Y14.0448
G01 F60.00
G01 Z-0.1800
G01 F120.00
G01 X29.2027 Y14.1972
G01 X29.0423 Y14.3736
G01 X28.6173 Y14.5660
G01 X28.0480 Y14.5660
G01 X27.5989 Y14.3736
G01 X27.2862 Y14.0288
G01 X27.1258 Y13.5637
G01 X27.1258 Y12.9783
G01 X27.3022 Y12.4972
G01 X27.6069 Y12.1684
G01 X28.0239 Y12.0000
G01 X28.4088 Y12.0000
G01 X28.6814 Y12.0481
G01 X28.9300 Y12.1524
G01 X29.1465 Y12.3127
G01 X29.2347 Y12.4250
G01 X29.1064 Y12.5934
G01 X29.0744 Y12.6335
G01 X28.9701 Y12.6335
G01 X28.8739 Y12.5533
G01 X28.7376 Y12.4651
G01 X28.5211 Y12.3849
G01 X28.1763 Y12.3849
G01 X27.8956 Y12.5052
G01 X27.7032 Y12.7297
G01 X27.5909 Y13.0665
G01 X27.5909 Y13.4915
G01 X27.6951 Y13.8203
G01 X27.8876 Y14.0608
G01 X28.1843 Y14.1811
G01 X28.5211 Y14.1811
G01 X28.7135 Y14.1250
G01 X28.8498 Y14.0528
G01 X28.9461 Y13.9887
G01 X29.0182 Y13.9887
G01 X29.0583 Y14.0207
G01 X29.0824 Y14.0448
G00 Z2.0000
G00 X30.9347 Y14.5660
G01 F60.00
G01 Z-0.1800
G01 F120.00
G01 X30.6461 Y14.5660
G01 X30.1890 Y14.3816
G01 X29.8602 Y14.0528
G01 X29.6918 Y13.5717
G01 X29.6918 Y12.9863
G01 X29.8602 Y12.5132
G01 X30.1890 Y12.1764
G01 X30.6461 Y12.0000
G01 X31.2154 Y12.0000
G01 X31.6725 Y12.1764
G01 X32.0012 Y12.5132
G01 X32.1696 Y12.9863
G01 X32.1696 Y13.5717
G01 X32.0012 Y14.0528
G01 X31.6725 Y14.3816
G01 X31.2154 Y14.5660
G01 X30.9347 Y14.5660
G00 Z2.0000
G00 X30.9347 Y12.3849
G01 F60.00
G01 Z-0.1800
G01 F120.00
G01 X31.3196 Y12.3849
G01 X31.6965 Y12.8580
G01 X31.6965 Y13.7080
G01 X31.3196 Y14.1811
G01 X30.7343 Y14.1811
G01 X30.4456 Y14.0608
G01 X30.2531 Y13.8283
G01 X30.1569 Y13.4915
G01 X30.1569 Y12.8580
G01 X30.5418 Y12.3849
G01 X30.9347 Y12.3849
G00 Z2.0000
G00 X32.9154 Y12.0000
G01 F60.00
G01 Z-0.1800
G01 F120.00
G01 X33.3724 Y12.0000
G01 X33.3724 Y13.8363
G01 X33.4927 Y13.9967
G01 X33.7814 Y14.1811
G01 X34.1904 Y14.1811
G01 X34.4470 Y13.8844
G01 X34.4470 Y12.0000
G01 X34.9040 Y12.0000
G01 X34.9040 Y13.7321
G01 X34.9922 Y13.9566
G01 X35.1526 Y14.1009
G01 X35.3531 Y14.1811
G01 X35.7139 Y14.1811
G01 X35.9866 Y13.8764
G01 X35.9866 Y12.0000
G01 X36.4436 Y12.0000
G01 X36.4436 Y13.8363
G01 X36.3234 Y14.1972
G01 X36.0988 Y14.4377
G01 X35.7781 Y14.5660
G01 X35.4493 Y14.5660
G01 X35.2007 Y14.5019
G01 X34.9762 Y14.3575
G01 X34.7998 Y14.1330
G01 X34.7437 Y13.9806
G01 X34.6715 Y14.2533
G01 X34.3427 Y14.5660
G01 X33.8456 Y14.5660
G01 X33.4847 Y14.3174
G01 X33.3484 Y14.1170
G01 X33.3083 Y14.4457
G01 X33.2923 Y14.5660
G01 X32.9154 Y14.5660
G01 X32.9154 Y12.0000
G00 Z2.0000
G00 X37.2696 Y11.9198
G01 F60.00
G01 Z-0.1800
G01 F120.00
G01 X38.8092 Y15.5924
G01 X38.5285 Y15.5924
G01 X38.4082 Y15.5122
G01 X38.3762 Y15.4320
G01 X36.8285 Y11.7514
G01 X37.1012 Y11.7514
G01 X37.2375 Y11.8316
G01 X37.2696 Y11.9198
G00 Z2.0000
G00 X41.1026 Y14.0688
G01 F60.00
G01 Z-0.1800
G01 F120.00
G01 X41.2068 Y14.2292
G01 X41.0545 Y14.3896
G01 X40.6455 Y14.5660
G01 X40.1724 Y14.5660
G01 X39.8276 Y14.4538
G01 X39.5870 Y14.2613
G01 X39.4667 Y14.0047
G01 X39.4667 Y13.7160
G01 X39.5790 Y13.4995
G01 X39.7714 Y13.3472
G01 X40.0200 Y13.2509
G01 X40.2686 Y13.1707
G01 X40.5172 Y13.1066
G01 X40.7016 Y13.0104
G01 X40.8219 Y12.8821
G01 X40.8219 Y12.6976
G01 X40.7578 Y12.5613
G01 X40.6214 Y12.4491
G01 X40.4210 Y12.3849
G01 X40.1323 Y12.3849
G01 X39.9238 Y12.4491
G01 X39.7714 Y12.5292
G01 X39.6752 Y12.5934
G01 X39.5790 Y12.5934
G01 X39.5229 Y12.5613
G01 X39.5068 Y12.5292
G01 X39.3946 Y12.3608
G01 X39.5549 Y12.2005
G01 X39.9960 Y12.0000
G01 X40.5012 Y12.0000
G01 X40.8700 Y12.1203
G01 X41.1186 Y12.3288
G01 X41.2469 Y12.6094
G01 X41.2469 Y12.9222
G01 X41.1346 Y13.1307
G01 X40.9422 Y13.2750
G01 X40.7016 Y13.3712
G01 X40.4450 Y13.4514
G01 X40.2045 Y13.5236
G01 X40.0200 Y13.6118
G01 X39.8997 Y13.7401
G01 X39.8997 Y13.9005
G01 X39.9719 Y14.0288
G01 X40.1002 Y14.1250
G01 X40.2846 Y14.1811
G01 X40.5332 Y14.1811
G01 X40.7337 Y14.1250
G01 X40.8700 Y14.0608
G01 X40.9662 Y14.0127
G01 X41.0705 Y14.0127
G01 X41.1026 Y14.0688
G00 Z2.0000
G00 X43.4521 Y14.0448
G01 F60.00
G01 Z-0.1800
G01 F120.00
G01 X43.5724 Y14.1972
G01 X43.4120 Y14.3736
G01 X42.9870 Y14.5660
G01 X42.4176 Y14.5660
G01 X41.9686 Y14.3736
G01 X41.6559 Y14.0288
G01 X41.4955 Y13.5637
G01 X41.4955 Y12.9783
G01 X41.6719 Y12.4972
G01 X41.9766 Y12.1684
G01 X42.3936 Y12.0000
G01 X42.7785 Y12.0000
G01 X43.0511 Y12.0481
G01 X43.2997 Y12.1524
G01 X43.5162 Y12.3127
G01 X43.6044 Y12.4250
G01 X43.4761 Y12.5934
G01 X43.4441 Y12.6335
G01 X43.3398 Y12.6335
G01 X43.2436 Y12.5533
G01 X43.1073 Y12.4651
G01 X42.8908 Y12.3849
G01 X42.5459 Y12.3849
G01 X42.2653 Y12.5052
G01 X42.0728 Y12.7297
G01 X41.9606 Y13.0665
G01 X41.9606 Y13.4915
G01 X42.0648 Y13.8203
G01 X42.2573 Y14.0608
G01 X42.5540 Y14.1811
G01 X42.8908 Y14.1811
G01 X43.0832 Y14.1250
G01 X43.2195 Y14.0528
G01 X43.3158 Y13.9887
G01 X43.3879 Y13.9887
G01 X43.4280 Y14.0207
G01 X43.4521 Y14.0448
G00 Z2.0000
G00 X44.6870 Y14.5660
G01 F60.00
G01 Z-0.1800
G01 F120.00
G01 X44.2299 Y14.5660
G01 X44.2299 Y12.0000
G01 X44.6870 Y12.0000
G01 X44.6870 Y14.5660
G00 Z2.0000
G00 X44.7832 Y15.4000
G01 F60.00
G01 Z-0.1800
G01 F120.00
G01 X44.7832 Y15.4401
G01 X44.7351 Y15.5122
G01 X44.6469 Y15.5603
G01 X44.5186 Y15.5924
G01 X44.3903 Y15.5924
G01 X44.2700 Y15.5603
G01 X44.1898 Y15.5122
G01 X44.1337 Y15.4401
G01 X44.1337 Y15.3599
G01 X44.1898 Y15.2877
G01 X44.2700 Y15.2396
G01 X44.3903 Y15.2075
G01 X44.5186 Y15.2075
G01 X44.6469 Y15.2396
G01 X44.7351 Y15.2877
G01 X44.7832 Y15.3599
G01 X44.7832 Y15.4000
G00 Z2.0000
G00 X47.0445 Y14.0448
G01 F60.00
G01 Z-0.1800
G01 F120.00
G01 X47.1648 Y14.1972
G01 X47.0044 Y14.3736
G01 X46.5794 Y14.5660
G01 X46.0101 Y14.5660
G01 X45.5610 Y14.3736
G01 X45.2483 Y14.0288
G01 X45.0879 Y13.5637
G01 X45.0879 Y12.9783
G01 X45.2643 Y12.4972
G01 X45.5690 Y12.1684
G01 X45.9860 Y12.0000
G01 X46.3709 Y12.0000
G01 X46.6436 Y12.0481
G01 X46.8921 Y12.1524
G01 X47.1086 Y12.3127
G01 X47.1968 Y12.4250
G01 X47.0685 Y12.5934
G01 X47.0365 Y12.6335
G01 X46.9322 Y12.6335
G01 X46.8360 Y12.5533
G01 X46.6997 Y12.4651
G01 X46.4832 Y12.3849
G01 X46.1384 Y12.3849
G01 X45.8577 Y12.5052
G01 X45.6653 Y12.7297
G01 X45.5530 Y13.0665
G01 X45.5530 Y13.4915
G01 X45.6572 Y13.8203
G01 X45.8497 Y14.0608
G01 X46.1464 Y14.1811
G01 X46.4832 Y14.1811
G01 X46.6756 Y14.1250
G01 X46.8119 Y14.0528
G01 X46.9082 Y13.9887
G01 X46.9803 Y13.9887
G01 X47.0204 Y14.0207
G01 X47.0445 Y14.0448
G00 Z2.0000
G00 X47.7983 Y12.0000
G01 F60.00
G01 Z-0.1800
G01 F120.00
G01 X48.2553 Y12.0000
G01 X48.2553 Y13.6519
G01 X48.3034 Y13.7802
G01 X48.4237 Y13.9726
G01 X48.5761 Y14.1089
G01 X48.7685 Y14.1811
G01 X49.2176 Y14.1811
G01 X49.2336 Y14.2372
G01 X49.2657 Y14.5420
G01 X49.2096 Y14.5580
G01 X49.0572 Y14.5660
G01 X48.7124 Y14.5660
G01 X48.3516 Y14.3094
G01 X48.2313 Y14.0849
G01 X48.1992 Y14.4538
G01 X48.1912 Y14.5099
G01 X48.1350 Y14.5660
G01 X47.7983 Y14.5660
G01 X47.7983 Y12.0000
G00 Z2.0000
G00 X50.9496 Y12.3849
G01 F60.00
G01 Z-0.1800
G01 F120.00
G01 X51.3345 Y12.3849
G01 X51.7114 Y12.8580
G01 X51.7114 Y13.7080
G01 X51.3345 Y14.1811
G01 X50.7492 Y14.1811
G01 X50.4605 Y14.0608
G01 X50.2680 Y13.8283
G01 X50.1718 Y13.4915
G01 X50.1718 Y12.8580
G01 X50.5567 Y12.3849
G01 X50.9496 Y12.3849
G00 Z2.0000
G00 X50.9496 Y14.5660
G01 F60.00
G01 Z-0.1800
G01 F120.00
G01 X50.6610 Y14.5660
G01 X50.2039 Y14.3816
G01 X49.8751 Y14.0528
G01 X49.7067 Y13.5717
G01 X49.7067 Y12.9863
G01 X49.8751 Y12.5132
G01 X50.2039 Y12.1764
G01 X50.6610 Y12.0000
G01 X51.2303 Y12.0000
G01 X51.6874 Y12.1764
G01 X52.0161 Y12.5132
G01 X52.1845 Y12.9863
G01 X52.1845 Y13.5717
G01 X52.0161 Y14.0528
G01 X51.6874 Y14.3816
G01 X51.2303 Y14.5660
G01 X50.9496 Y14.5660
G00 Z2.0000
G00 X54.0930 Y14.1811
G01 F60.00
G01 Z-0.1800
G01 F120.00
G01 X53.8685 Y14.1811
G01 X53.5317 Y13.9887
G01 X53.3874 Y13.8122
G01 X53.3874 Y12.6656
G01 X53.5157 Y12.5132
G01 X53.8124 Y12.3849
G01 X54.3657 Y12.3849
G01 X54.7506 Y12.8580
G01 X54.7506 Y13.5316
G01 X54.6623 Y13.8684
G01 X54.4940 Y14.0849
G01 X54.2454 Y14.1811
G01 X54.0930 Y14.1811
G00 Z2.0000
G00 X56.2581 Y11.9198
G01 F60.00
G01 Z-0.1800
G01 F120.00
G01 X57.7977 Y15.5924
G01 X57.5170 Y15.5924
G01 X57.3968 Y15.5122
G01 X57.3647 Y15.4320
G01 X55.8171 Y11.7514
G01 X56.0897 Y11.7514
G01 X56.2260 Y11.8316
G01 X56.2581 Y11.9198
G00 Z2.0000
G00 X52.9303 Y10.9736
G01 F60.00
G01 Z-0.1800
G01 F120.00
G01 X53.3874 Y10.9736
G01 X53.3874 Y12.3368
G01 X53.5237 Y12.1764
G01 X53.8605 Y12.0000
G01 X54.3657 Y12.0000
G01 X54.7826 Y12.2005
G01 X55.0713 Y12.5453
G01 X55.2237 Y13.0184
G01 X55.2237 Y13.6038
G01 X55.0873 Y14.0769
G01 X54.8307 Y14.3976
G01 X54.4619 Y14.5660
G01 X53.9647 Y14.5660
G01 X53.5317 Y14.3094
G01 X53.3633 Y14.1009
G01 X53.3232 Y14.4538
G01 X53.3072 Y14.5660
G01 X52.9303 Y14.5660
G01 X52.9303 Y10.9736
G00 Z2.0000
G00 X59.0486 Y15.5924
G01 F60.00
G01 Z-0.1800
G01 F120.00
G01 X58.5916 Y15.5924
G01 X58.5916 Y12.0000
G01 X59.0486 Y12.0000
G01 X59.0486 Y15.5924
G00 Z2.0000
G00 X60.6684 Y14.5660
G01 F60.00
G01 Z-0.1800
G01 F120.00
G01 X60.3878 Y14.5660
G01 X59.9307 Y14.3736
G01 X59.6180 Y14.0448
G01 X59.4576 Y13.5957
G01 X59.4576 Y13.0104
G01 X59.6420 Y12.5132
G01 X59.9708 Y12.1764
G01 X60.4279 Y12.0000
G01 X60.8368 Y12.0000
G01 X61.1255 Y12.0481
G01 X61.3901 Y12.1524
G01 X61.6307 Y12.3127
G01 X61.7109 Y12.4170
G01 X61.5505 Y12.5774
G01 X61.4543 Y12.5774
G01 X61.3340 Y12.5132
G01 X61.1496 Y12.4491
G01 X60.9010 Y12.3849
G01 X60.5481 Y12.3849
G01 X60.2515 Y12.4731
G01 X60.0349 Y12.6495
G01 X59.9147 Y12.9141
G01 X59.9066 Y13.0906
G01 X61.7109 Y13.0906
G01 X61.7510 Y13.1707
G01 X61.7510 Y13.5957
G01 X61.5906 Y14.0688
G01 X61.3019 Y14.3976
G01 X60.9010 Y14.5660
G01 X60.6684 Y14.5660
G00 Z2.0000
G00 X60.6764 Y14.1811
G01 F60.00
G01 Z-0.1800
G01 F120.00
G01 X60.3477 Y14.1811
G01 X59.9708 Y13.8042
G01 X59.9227 Y13.4755
G01 X61.3420 Y13.4755
G01 X61.3420 Y13.6278
G01 X61.2538 Y13.8924
G01 X61.0774 Y14.0769
G01 X60.8368 Y14.1811
G01 X60.6764 Y14.1811
G00 Z2.0000
G00 X63.3387 Y15.5924
G01 F60.00
G01 Z-0.1800
G01 F120.00
G01 X63.1061 Y15.5924
G01 X62.6972 Y15.4561
G01 X62.3845 Y15.2075
G01 X62.1760 Y14.8306
G01 X62.1439 Y14.5821
G01 X62.3764 Y14.5420
G01 X62.4727 Y14.5339
G01 X62.5769 Y14.5901
G01 X62.6090 Y14.6703
G01 X62.6330 Y14.7905
G01 X62.7533 Y14.9830
G01 X62.9377 Y15.1273
G01 X63.1783 Y15.2075
G01 X63.4510 Y15.2075
G01 X63.6915 Y15.1353
G01 X63.8679 Y14.9830
G01 X63.9642 Y14.7585
G01 X63.9642 Y14.4698
G01 X63.8759 Y14.2453
G01 X63.6675 Y14.0849
G01 X63.3307 Y13.9887
G01 X63.0981 Y13.9887
G01 X63.0981 Y13.6038
G01 X63.3868 Y13.6038
G01 X63.7557 Y13.5156
G01 X63.9642 Y13.3552
G01 X64.0363 Y13.1307
G01 X64.0363 Y12.8901
G01 X63.9401 Y12.6736
G01 X63.7476 Y12.4972
G01 X63.4590 Y12.3849
G01 X63.0580 Y12.3849
G01 X62.7934 Y12.4972
G01 X62.6170 Y12.6656
G01 X62.5128 Y12.8420
G01 X62.4807 Y12.8981
G01 X62.4486 Y12.9703
G01 X62.3043 Y13.0023
G01 X62.2241 Y12.9703
G01 X62.0316 Y12.8901
G01 X62.0958 Y12.6976
G01 X62.2802 Y12.3769
G01 X62.5609 Y12.1363
G01 X62.9778 Y12.0000
G01 X63.5231 Y12.0000
G01 X63.9722 Y12.1443
G01 X64.3009 Y12.4090
G01 X64.4934 Y12.7858
G01 X64.4934 Y13.3391
G01 X64.1325 Y13.7561
G01 X63.7717 Y13.8443
G01 X63.9241 Y13.8844
G01 X64.1566 Y14.0288
G01 X64.3250 Y14.2292
G01 X64.4132 Y14.5019
G01 X64.4132 Y14.8787
G01 X64.2528 Y15.2236
G01 X63.9722 Y15.4641
G01 X63.5712 Y15.5924
G01 X63.3387 Y15.5924
G00 Z2.0000
G00 X66.4019 Y15.5924
G01 F60.00
G01 Z-0.1800
G01 F120.00
G01 X66.1693 Y15.5924
G01 X65.7604 Y15.4561
G01 X65.4476 Y15.1995
G01 X65.2391 Y14.8146
G01 X65.1990 Y14.5660
G01 X65.4396 Y14.5259
G01 X65.5358 Y14.5179
G01 X65.6401 Y14.5740
G01 X65.6722 Y14.6622
G01 X65.6962 Y14.7825
G01 X65.8165 Y14.9830
G01 X66.0009 Y15.1273
G01 X66.2415 Y15.2075
G01 X66.5222 Y15.2075
G01 X66.7627 Y15.1273
G01 X66.9391 Y14.9750
G01 X67.0354 Y14.7424
G01 X67.0354 Y14.4297
G01 X66.9471 Y14.1571
G01 X66.7788 Y13.8844
G01 X66.5382 Y13.6198
G01 X66.3938 Y13.4835
G01 X65.2151 Y12.3368
G01 X65.1670 Y12.2967
G01 X65.1269 Y12.2005
G01 X65.1269 Y12.0000
G01 X67.5806 Y12.0000
G01 X67.5806 Y12.3047
G01 X67.4924 Y12.3849
G01 X66.0891 Y12.3849
G01 X65.8806 Y12.3528
G01 X65.7764 Y12.3208
G01 X66.8990 Y13.4434
G01 X67.1717 Y13.7321
G01 X67.3882 Y14.0448
G01 X67.5085 Y14.3896
G01 X67.5085 Y14.8306
G01 X67.3401 Y15.1995
G01 X67.0434 Y15.4561
G01 X66.6344 Y15.5924
G01 X66.4019 Y15.5924
G00 Z2.0000
G00 X68.3264 Y12.0000
G01 F60.00
G01 Z-0.1800
G01 F120.00
G01 X68.7835 Y12.0000
G01 X68.7835 Y13.8363
G01 X68.9037 Y13.9967
G01 X69.1924 Y14.1811
G01 X69.6014 Y14.1811
G01 X69.8580 Y13.8844
G01 X69.8580 Y12.0000
G01 X70.3150 Y12.0000
G01 X70.3150 Y13.7321
G01 X70.4032 Y13.9566
G01 X70.5636 Y14.1009
G01 X70.7641 Y14.1811
G01 X71.1249 Y14.1811
G01 X71.3976 Y13.8764
G01 X71.3976 Y12.0000
G01 X71.8547 Y12.0000
G01 X71.8547 Y13.8363
G01 X71.7344 Y14.1972
G01 X71.5098 Y14.4377
G01 X71.1891 Y14.5660
G01 X70.8603 Y14.5660
G01 X70.6117 Y14.5019
G01 X70.3872 Y14.3575
G01 X70.2108 Y14.1330
G01 X70.1547 Y13.9806
G01 X70.0825 Y14.2533
G01 X69.7537 Y14.5660
G01 X69.2566 Y14.5660
G01 X68.8957 Y14.3174
G01 X68.7594 Y14.1170
G01 X68.7193 Y14.4457
G01 X68.7033 Y14.5660
G01 X68.3264 Y14.5660
G01 X68.3264 Y12.0000
G00 Z2.0000
G00 X73.2339 Y12.0000
G01 F60.00
G01 Z-0.1800
G01 F120.00
G01 X73.4103 Y12.0000
G01 X73.7391 Y12.1203
G01 X73.8593 Y12.2245
G01 X73.7230 Y12.4410
G01 X73.6990 Y12.4811
G01 X73.6428 Y12.4811
G01 X73.5867 Y12.4410
G01 X73.5145 Y12.4009
G01 X73.4023 Y12.3608
G01 X73.2098 Y12.3608
G01 X73.0495 Y12.5132
G01 X73.0495 Y14.1811
G01 X73.8032 Y14.1811
G01 X73.8032 Y14.5660
G01 X73.0495 Y14.5660
G01 X73.0495 Y15.3358
G01 X72.7768 Y15.3358
G01 X72.7207 Y15.2957
G01 X72.7127 Y15.2556
G01 X72.6084 Y14.5500
G01 X72.1834 Y14.5019
G01 X72.1834 Y14.2372
G01 X72.2396 Y14.1811
G01 X72.5924 Y14.1811
G01 X72.5924 Y12.3288
G01 X72.9212 Y12.0000
G01 X73.2339 Y12.0000
G00 Z2.0000
G00 X66.4449 Y24.3867
G01 F60.00
G01 Z-0.1800
G01 F120.00
G01 X66.6512 Y24.2890
G01 X66.6740 Y24.2789
G01 X66.6972 Y24.2699
G01 X66.9005 Y24.1972
G01 X66.9241 Y24.1894
G01 X66.9481 Y24.1827
G01 X67.1576 Y24.1303
G01 X67.1819 Y24.1248
G01 X67.2064 Y24.1206
G01 X67.4199 Y24.0889
G01 X67.4446 Y24.0858
G01 X67.4695 Y24.0840
G01 X67.6851 Y24.0734
G01 X67.7100 Y24.0728
G01 X67.7349 Y24.0734
G01 X67.9505 Y24.0840
G01 X67.9754 Y24.0858
G01 X68.0001 Y24.0889
G01 X68.2136 Y24.1206
G01 X68.2381 Y24.1248
G01 X68.2624 Y24.1303
G01 X68.4719 Y24.1827
G01 X68.4959 Y24.1894
G01 X68.5195 Y24.1972
G01 X68.7228 Y24.2699
G01 X68.7460 Y24.2789
G01 X68.7688 Y24.2890
G01 X68.9639 Y24.3813
G01 X68.9862 Y24.3925
G01 X69.0078 Y24.4047
G01 X69.1930 Y24.5157
G01 X69.2140 Y24.5290
G01 X69.2344 Y24.5434
G01 X69.4078 Y24.6720
G01 X69.4274 Y24.6873
G01 X69.4463 Y24.7036
G01 X69.6062 Y24.8486
G01 X69.6243 Y24.8657
G01 X69.6414 Y24.8838
G01 X69.7864 Y25.0437
G01 X69.8027 Y25.0626
G01 X69.8180 Y25.0822
G01 X69.9466 Y25.2556
G01 X69.9610 Y25.2760
G01 X69.9743 Y25.2970
G01 X70.0853 Y25.4822
G01 X70.0975 Y25.5038
G01 X70.1087 Y25.5261
G01 X70.2010 Y25.7212
G01 X70.2111 Y25.7440
G01 X70.2201 Y25.7672
G01 X70.2928 Y25.9705
G01 X70.3006 Y25.9941
G01 X70.3073 Y26.0181
G01 X70.3597 Y26.2276
G01 X70.3652 Y26.2519
G01 X70.3694 Y26.2764
G01 X70.4011 Y26.4899
G01 X70.4042 Y26.5146
G01 X70.4060 Y26.5395
G01 X70.4166 Y26.7551
G01 X70.4172 Y26.7800
G01 X70.4166 Y26.8049
G01 X70.4060 Y27.0205
G01 X70.4042 Y27.0454
G01 X70.4011 Y27.0701
G01 X70.3694 Y27.2836
G01 X70.3652 Y27.3081
G01 X70.3597 Y27.3324
G01 X70.3073 Y27.5419
G01 X70.3006 Y27.5659
G01 X70.2928 Y27.5895
G01 X70.2201 Y27.7928
G01 X70.2111 Y27.8160
G01 X70.2010 Y27.8388
G01 X70.1087 Y28.0339
G01 X70.0975 Y28.0562
G01 X70.0853 Y28.0778
G01 X69.9743 Y28.2630
G01 X69.9610 Y28.2840
G01 X69.9466 Y28.3044
G01 X69.8180 Y28.4778
G01 X69.8027 Y28.4974
G01 X69.7864 Y28.5163
G01 X69.6414 Y28.6762
G01 X69.6243 Y28.6943
G01 X69.6062 Y28.7114
G01 X69.4463 Y28.8564
G01 X69.4274 Y28.8727
G01 X69.4078 Y28.8880
G01 X69.2344 Y29.0166
G01 X69.2140 Y29.0310
G01 X69.1930 Y29.0443
G01 X69.0078 Y29.1553
G01 X68.9862 Y29.1675
G01 X68.9639 Y29.1787
G01 X68.7688 Y29.2710
G01 X68.7460 Y29.2811
G01 X68.7228 Y29.2901
G01 X68.5195 Y29.3628
G01 X68.4959 Y29.3706
G01 X68.4719 Y29.3773
G01 X68.2624 Y29.4297
G01 X68.2381 Y29.4352
G01 X68.2136 Y29.4394
G01 X68.0001 Y29.4711
G01 X67.9754 Y29.4742
G01 X67.9505 Y29.4760
G01 X67.7349 Y29.4866
G01 X67.7100 Y29.4872
G01 X67.6851 Y29.4866
G01 X67.4695 Y29.4760
G01 X67.4446 Y29.4742
G01 X67.4199 Y29.4711
G01 X67.2064 Y29.4394
G01 X67.1819 Y29.4352
G01 X67.1576 Y29.4297
G01 X66.9481 Y29.3773
G01 X66.9241 Y29.3706
G01 X66.9005 Y29.3628
G01 X66.6972 Y29.2901
G01 X66.6740 Y29.2811
G01 X66.6512 Y29.2710
G01 X66.4561 Y29.1787
G01 X66.4338 Y29.1675
G01 X66.4122 Y29.1553
G01 X66.2270 Y29.0443
G01 X66.2060 Y29.0310
G01 X66.1856 Y29.0166
G01 X66.0122 Y28.8880
G01 X65.9926 Y28.8727
G01 X65.9737 Y28.8564
G01 X65.8138 Y28.7114
G01 X65.7957 Y28.6943
G01 X65.7786 Y28.6762
G01 X65.6336 Y28.5163
G01 X65.6173 Y28.4974
G01 X65.6020 Y28.4778
G01 X65.4734 Y28.3044
G01 X65.4590 Y28.2840
G01 X65.4457 Y28.2630
G01 X65.3347 Y28.0778
G01 X65.3225 Y28.0562
G01 X65.3113 Y28.0339
G01 X65.2190 Y27.8388
G01 X65.2089 Y27.8160
G01 X65.1999 Y27.7928
G01 X65.1272 Y27.5895
G01 X65.1194 Y27.5659
G01 X65.1127 Y27.5419
G01 X65.0603 Y27.3324
G01 X65.0548 Y27.3081
G01 X65.0506 Y27.2836
G01 X65.0189 Y27.0701
G01 X65.0158 Y27.0454
G01 X65.0140 Y27.0205
G01 X65.0034 Y26.8049
G01 X65.0028 Y26.7800
G01 X65.0034 Y26.7551
G01 X65.0140 Y26.5395
G01 X65.0158 Y26.5146
G01 X65.0189 Y26.4899
G01 X65.0506 Y26.2764
G01 X65.0548 Y26.2519
G01 X65.0603 Y26.2276
G01 X65.1127 Y26.0181
G01 X65.1194 Y25.9941
G01 X65.1272 Y25.9705
G01 X65.1999 Y25.7672
G01 X65.2089 Y25.7440
G01 X65.2190 Y25.7212
G01 X65.3113 Y25.5261
G01 X65.3225 Y25.5038
G01 X65.3347 Y25.4822
G01 X65.4457 Y25.2970
G01 X65.4590 Y25.2760
G01 X65.4734 Y25.2556
G01 X65.6020 Y25.0822
G01 X65.6173 Y25.0626
G01 X65.6336 Y25.0437
G01 X65.7786 Y24.8838
G01 X65.7957 Y24.8657
G01 X65.8138 Y24.8486
G01 X65.9737 Y24.7036
G01 X65.9926 Y24.6873
G01 X66.0122 Y24.6720
G01 X66.1856 Y24.5434
G01 X66.2060 Y24.5290
G01 X66.2270 Y24.5157
G01 X66.4122 Y24.4047
G01 X66.4229 Y24.3985
G01 X66.4449 Y24.3867
G00 Z2.0000
G00 X66.5304 Y24.5566
G01 F60.00
G01 Z-0.1800
G01 F120.00
G01 X66.7326 Y24.4609
G01 X66.7468 Y24.4546
G01 X66.7613 Y24.4490
G01 X66.9646 Y24.3763
G01 X66.9794 Y24.3714
G01 X66.9943 Y24.3672
G01 X67.2038 Y24.3148
G01 X67.2190 Y24.3114
G01 X67.2343 Y24.3087
G01 X67.4478 Y24.2770
G01 X67.4633 Y24.2751
G01 X67.4788 Y24.2740
G01 X67.6944 Y24.2634
G01 X67.7100 Y24.2630
G01 X67.7256 Y24.2634
G01 X67.9412 Y24.2740
G01 X67.9567 Y24.2751
G01 X67.9722 Y24.2770
G01 X68.1857 Y24.3087
G01 X68.2010 Y24.3114
G01 X68.2162 Y24.3148
G01 X68.4257 Y24.3672
G01 X68.4406 Y24.3714
G01 X68.4554 Y24.3763
G01 X68.6587 Y24.4490
G01 X68.6732 Y24.4546
G01 X68.6874 Y24.4609
G01 X68.8826 Y24.5532
G01 X68.8965 Y24.5602
G01 X68.9100 Y24.5679
G01 X69.0952 Y24.6789
G01 X69.1084 Y24.6872
G01 X69.1211 Y24.6962
G01 X69.2945 Y24.8248
G01 X69.3068 Y24.8343
G01 X69.3185 Y24.8445
G01 X69.4785 Y24.9895
G01 X69.4898 Y25.0002
G01 X69.5005 Y25.0115
G01 X69.6455 Y25.1715
G01 X69.6557 Y25.1832
G01 X69.6652 Y25.1955
G01 X69.7938 Y25.3689
G01 X69.8028 Y25.3816
G01 X69.8111 Y25.3948
G01 X69.9221 Y25.5800
G01 X69.9298 Y25.5935
G01 X69.9368 Y25.6074
G01 X70.0291 Y25.8026
G01 X70.0354 Y25.8168
G01 X70.0410 Y25.8313
G01 X70.1137 Y26.0346
G01 X70.1186 Y26.0494
G01 X70.1228 Y26.0643
G01 X70.1752 Y26.2738
G01 X70.1786 Y26.2890
G01 X70.1813 Y26.3043
G01 X70.2130 Y26.5178
G01 X70.2149 Y26.5333
G01 X70.2160 Y26.5488
G01 X70.2266 Y26.7644
G01 X70.2270 Y26.7800
G01 X70.2266 Y26.7956
G01 X70.2160 Y27.0112
G01 X70.2149 Y27.0267
G01 X70.2130 Y27.0422
G01 X70.1813 Y27.2557
G01 X70.1786 Y27.2710
G01 X70.1752 Y27.2862
G01 X70.1228 Y27.4957
G01 X70.1186 Y27.5106
G01 X70.1137 Y27.5254
G01 X70.0410 Y27.7287
G01 X70.0354 Y27.7432
G01 X70.0291 Y27.7574
G01 X69.9368 Y27.9526
G01 X69.9298 Y27.9665
G01 X69.9221 Y27.9800
G01 X69.8111 Y28.1652
G01 X69.8028 Y28.1784
G01 X69.7938 Y28.1911
G01 X69.6652 Y28.3645
G01 X69.6557 Y28.3768
G01 X69.6455 Y28.3885
G01 X69.5005 Y28.5485
G01 X69.4898 Y28.5598
G01 X69.4785 Y28.5705
G01 X69.3185 Y28.7155
G01 X69.3068 Y28.7257
G01 X69.2945 Y28.7352
G01 X69.1211 Y28.8638
G01 X69.1084 Y28.8728
G01 X69.0952 Y28.8811
G01 X68.9100 Y28.9921
G01 X68.8965 Y28.9998
G01 X68.8826 Y29.0068
G01 X68.6874 Y29.0991
G01 X68.6732 Y29.1054
G01 X68.6587 Y29.1110
G01 X68.4554 Y29.1837
G01 X68.4406 Y29.1886
G01 X68.4257 Y29.1928
G01 X68.2162 Y29.2452
G01 X68.2010 Y29.2486
G01 X68.1857 Y29.2513
G01 X67.9722 Y29.2830
G01 X67.9567 Y29.2849
G01 X67.9412 Y29.2860
G01 X67.7256 Y29.2966
G01 X67.7100 Y29.2970
G01 X67.6944 Y29.2966
G01 X67.4788 Y29.2860
G01 X67.4633 Y29.2849
G01 X67.4478 Y29.2830
G01 X67.2343 Y29.2513
G01 X67.2190 Y29.2486
G01 X67.2038 Y29.2452
G01 X66.9943 Y29.1928
G01 X66.9794 Y29.1886
G01 X66.9646 Y29.1837
G01 X66.7613 Y29.1110
G01 X66.7468 Y29.1054
G01 X66.7326 Y29.0991
G01 X66.5374 Y29.0068
G01 X66.5235 Y28.9998
G01 X66.5100 Y28.9921
G01 X66.3248 Y28.8811
G01 X66.3116 Y28.8728
G01 X66.2989 Y28.8638
G01 X66.1255 Y28.7352
G01 X66.1132 Y28.7257
G01 X66.1015 Y28.7155
G01 X65.9415 Y28.5705
G01 X65.9302 Y28.5598
G01 X65.9195 Y28.5485
G01 X65.7745 Y28.3885
G01 X65.7643 Y28.3768
G01 X65.7548 Y28.3645
G01 X65.6262 Y28.1911
G01 X65.6172 Y28.1784
G01 X65.6089 Y28.1652
G01 X65.4979 Y27.9800
G01 X65.4902 Y27.9665
G01 X65.4832 Y27.9526
G01 X65.3909 Y27.7574
G01 X65.3846 Y27.7432
G01 X65.3790 Y27.7287
G01 X65.3063 Y27.5254
G01 X65.3014 Y27.5106
G01 X65.2972 Y27.4957
G01 X65.2448 Y27.2862
G01 X65.2414 Y27.2710
G01 X65.2387 Y27.2557
G01 X65.2070 Y27.0422
G01 X65.2051 Y27.0267
G01 X65.2040 Y27.0112
G01 X65.1934 Y26.7956
G01 X65.1930 Y26.7800
G01 X65.1934 Y26.7644
G01 X65.2040 Y26.5488
G01 X65.2051 Y26.5333
G01 X65.2070 Y26.5178
G01 X65.2387 Y26.3043
G01 X65.2414 Y26.2890
G01 X65.2448 Y26.2738
G01 X65.2972 Y26.0643
G01 X65.3014 Y26.0494
G01 X65.3063 Y26.0346
G01 X65.3790 Y25.8313
G01 X65.3846 Y25.8168
G01 X65.3909 Y25.8026
G01 X65.4832 Y25.6074
G01 X65.4902 Y25.5935
G01 X65.4979 Y25.5800
G01 X65.6089 Y25.3948
G01 X65.6172 Y25.3816
G01 X65.6262 Y25.3689
G01 X65.7548 Y25.1955
G01 X65.7643 Y25.1832
G01 X65.7745 Y25.1715
G01 X65.9195 Y25.0115
G01 X65.9302 Y25.0002
G01 X65.9415 Y24.9895
G01 X66.1015 Y24.8445
G01 X66.1132 Y24.8343
G01 X66.1255 Y24.8248
G01 X66.2989 Y24.6962
G01 X66.3116 Y24.6872
G01 X66.3248 Y24.6789
G01 X66.5100 Y24.5679
G01 X66.5304 Y24.5566
G00 Z2.0000
G00 X66.6159 Y24.7265
G01 F60.00
G01 Z-0.1800
G01 F120.00
G01 X66.8196 Y24.6303
G01 X67.0346 Y24.5534
G01 X67.2561 Y24.4979
G01 X67.4819 Y24.4644
G01 X67.7100 Y24.4532
G01 X67.9381 Y24.4644
G01 X68.1639 Y24.4979
G01 X68.3854 Y24.5534
G01 X68.6004 Y24.6303
G01 X68.8068 Y24.7279
G01 X69.0027 Y24.8453
G01 X69.1861 Y24.9814
G01 X69.3553 Y25.1347
G01 X69.5086 Y25.3039
G01 X69.6447 Y25.4873
G01 X69.7621 Y25.6832
G01 X69.8597 Y25.8896
G01 X69.9366 Y26.1046
G01 X69.9921 Y26.3261
G01 X70.0256 Y26.5519
G01 X70.0368 Y26.7800
G01 X70.0256 Y27.0081
G01 X69.9921 Y27.2339
G01 X69.9366 Y27.4554
G01 X69.8597 Y27.6704
G01 X69.7621 Y27.8768
G01 X69.6447 Y28.0727
G01 X69.5086 Y28.2561
G01 X69.3553 Y28.4253
G01 X69.1861 Y28.5786
G01 X69.0027 Y28.7147
G01 X68.8068 Y28.8321
G01 X68.6004 Y28.9297
G01 X68.3854 Y29.0066
G01 X68.1639 Y29.0621
G01 X67.9381 Y29.0956
G01 X67.7100 Y29.1068
G01 X67.4819 Y29.0956
G01 X67.2561 Y29.0621
G01 X67.0346 Y29.0066
G01 X66.8196 Y28.9297
G01 X66.6132 Y28.8321
G01 X66.4173 Y28.7147
G01 X66.2339 Y28.5786
G01 X66.0647 Y28.4253
G01 X65.9114 Y28.2561
G01 X65.7753 Y28.0727
G01 X65.6579 Y27.8768
G01 X65.5603 Y27.6704
G01 X65.4834 Y27.4554
G01 X65.4279 Y27.2339
G01 X65.3944 Y27.0081
G01 X65.3832 Y26.7800
G01 X65.3944 Y26.5519
G01 X65.4279 Y26.3261
G01 X65.4834 Y26.1046
G01 X65.5603 Y25.8896
G01 X65.6579 Y25.6832
G01 X65.7753 Y25.4873
G01 X65.9114 Y25.3039
G01 X66.0647 Y25.1347
G01 X66.2339 Y24.9814
G01 X66.4173 Y24.8453
G01 X66.6077 Y24.7310
G01 X66.6159 Y24.7265
G00 Z2.0000
G00 X61.8792 Y31.7104
G01 F60.00
G01 Z-0.1800
G01 F120.00
G01 X61.8792 Y31.6703
G01 X61.9433 Y31.6141
G01 X62.0315 Y31.6141
G01 X62.1438 Y31.7184
G01 X62.2560 Y31.8547
G01 X62.5608 Y31.9589
G01 X63.0740 Y31.9589
G01 X63.4749 Y31.6302
G01 X63.4749 Y31.3736
G01 X63.4749 Y30.8122
G01 X62.6730 Y30.8122
G01 X62.5287 Y30.8122
G01 X62.5287 Y30.6038
G01 X63.0419 Y30.6038
G01 X63.5872 Y30.1627
G01 X63.5872 Y29.5613
G01 X63.0820 Y29.1363
G01 X62.4806 Y29.1363
G01 X62.0796 Y29.2887
G01 X61.8631 Y29.4491
G01 X61.7910 Y29.4491
G01 X61.7268 Y29.3929
G01 X61.7268 Y29.2245
G01 X62.4244 Y28.9198
G01 X63.1702 Y28.9198
G01 X63.7957 Y29.4731
G01 X63.7957 Y30.1226
G01 X63.4589 Y30.5637
G01 X63.1541 Y30.6839
G01 X63.3546 Y30.7321
G01 X63.6834 Y31.0849
G01 X63.6834 Y31.7184
G01 X63.1702 Y32.1754
G01 X62.5207 Y32.1754
G01 X62.0796 Y31.9750
G01 X61.8792 Y31.7665
G01 X61.8792 Y31.7104
G00 Z2.0000
G00 X59.6740 Y29.5934
G01 F60.00
G01 Z-0.1800
G01 F120.00
G01 X59.5216 Y29.5934
G01 X59.3212 Y29.4090
G01 X59.3212 Y29.1203
G01 X59.5216 Y28.9198
G01 X59.8745 Y28.9198
G01 X60.0749 Y29.1203
G01 X60.0749 Y29.4090
G01 X59.8745 Y29.5934
G01 X59.6740 Y29.5934
G00 Z2.0000
G00 X57.5811 Y30.8042
G01 F60.00
G01 Z-0.1800
G01 F120.00
G01 X57.5811 Y31.4137
G01 X57.0438 Y32.1754
G01 X56.1938 Y32.1754
G01 X55.6566 Y31.4137
G01 X55.6566 Y29.6816
G01 X56.1938 Y28.9198
G01 X57.0438 Y28.9198
G01 X57.5811 Y29.6816
G01 X57.5811 Y30.8042
G00 Z2.0000
G00 X56.6188 Y31.9589
G01 F60.00
G01 Z-0.1800
G01 F120.00
G01 X56.9556 Y31.9589
G01 X57.3646 Y31.2773
G01 X57.3646 Y29.8340
G01 X56.9717 Y29.1363
G01 X56.2820 Y29.1363
G01 X55.8731 Y29.8179
G01 X55.8731 Y31.2613
G01 X56.2660 Y31.9589
G01 X56.6188 Y31.9589
G00 Z2.0000
G00 X53.7240 Y29.0000
G01 F60.00
G01 Z-0.1800
G01 F120.00
G01 X54.5740 Y30.9325
G01 X54.9269 Y30.9325
G01 X54.9269 Y31.1410
G01 X53.8684 Y31.1410
G01 X53.8684 Y30.9325
G01 X54.3575 Y30.9325
G01 X53.6038 Y29.2085
G01 X53.5075 Y29.2085
G01 X52.7377 Y30.9325
G01 X53.2108 Y30.9325
G01 X53.2108 Y31.1410
G01 X52.1524 Y31.1410
G01 X52.1524 Y30.9325
G01 X52.5052 Y30.9325
G01 X53.3632 Y29.0000
G01 X53.7240 Y29.0000
G00 Z2.0000
G00 X53.2204 Y46.1113
G01 F60.00
G01 Z-0.1800
G01 F120.00
G01 X53.2983 Y46.0743
G01 X53.3125 Y46.0680
G01 X53.3271 Y46.0624
G01 X53.4010 Y46.0360
G01 X53.4158 Y46.0311
G01 X53.4307 Y46.0269
G01 X53.5069 Y46.0079
G01 X53.5221 Y46.0045
G01 X53.5374 Y46.0018
G01 X53.6151 Y45.9903
G01 X53.6305 Y45.9884
G01 X53.6460 Y45.9872
G01 X53.7244 Y45.9834
G01 X53.7400 Y45.9830
G01 X53.7556 Y45.9834
G01 X53.8340 Y45.9872
G01 X53.8495 Y45.9884
G01 X53.8649 Y45.9903
G01 X53.9426 Y46.0018
G01 X53.9579 Y46.0045
G01 X53.9731 Y46.0079
G01 X54.0493 Y46.0269
G01 X54.0642 Y46.0311
G01 X54.0790 Y46.0360
G01 X54.1529 Y46.0624
G01 X54.1675 Y46.0680
G01 X54.1817 Y46.0743
G01 X54.2527 Y46.1079
G01 X54.2666 Y46.1149
G01 X54.2801 Y46.1226
G01 X54.3474 Y46.1629
G01 X54.3606 Y46.1712
G01 X54.3733 Y46.1802
G01 X54.4364 Y46.2270
G01 X54.4486 Y46.2365
G01 X54.4604 Y46.2467
G01 X54.5186 Y46.2994
G01 X54.5298 Y46.3102
G01 X54.5406 Y46.3214
G01 X54.5933 Y46.3796
G01 X54.6035 Y46.3914
G01 X54.6130 Y46.4036
G01 X54.6598 Y46.4667
G01 X54.6688 Y46.4794
G01 X54.6771 Y46.4926
G01 X54.7174 Y46.5599
G01 X54.7251 Y46.5734
G01 X54.7321 Y46.5873
G01 X54.7657 Y46.6583
G01 X54.7720 Y46.6725
G01 X54.7776 Y46.6871
G01 X54.8040 Y46.7610
G01 X54.8089 Y46.7758
G01 X54.8131 Y46.7907
G01 X54.8321 Y46.8669
G01 X54.8355 Y46.8821
G01 X54.8382 Y46.8974
G01 X54.8497 Y46.9751
G01 X54.8516 Y46.9905
G01 X54.8528 Y47.0060
G01 X54.8566 Y47.0844
G01 X54.8570 Y47.1000
G01 X54.8566 Y47.1156
G01 X54.8528 Y47.1940
G01 X54.8516 Y47.2095
G01 X54.8497 Y47.2249
G01 X54.8382 Y47.3026
G01 X54.8355 Y47.3179
G01 X54.8321 Y47.3331
G01 X54.8131 Y47.4093
G01 X54.8089 Y47.4242
G01 X54.8040 Y47.4390
G01 X54.7776 Y47.5129
G01 X54.7720 Y47.5275
G01 X54.7657 Y47.5417
G01 X54.7321 Y47.6127
G01 X54.7251 Y47.6266
G01 X54.7174 Y47.6401
G01 X54.6771 Y47.7074
G01 X54.6688 Y47.7206
G01 X54.6598 Y47.7333
G01 X54.6130 Y47.7964
G01 X54.6035 Y47.8086
G01 X54.5933 Y47.8204
G01 X54.5406 Y47.8786
G01 X54.5298 Y47.8898
G01 X54.5186 Y47.9006
G01 X54.4604 Y47.9533
G01 X54.4486 Y47.9635
G01 X54.4364 Y47.9730
G01 X54.3733 Y48.0198
G01 X54.3606 Y48.0288
G01 X54.3474 Y48.0371
G01 X54.2801 Y48.0774
G01 X54.2666 Y48.0851
G01 X54.2527 Y48.0921
G01 X54.1817 Y48.1257
G01 X54.1675 Y48.1320
G01 X54.1529 Y48.1376
G01 X54.0790 Y48.1640
G01 X54.0642 Y48.1689
G01 X54.0493 Y48.1731
G01 X53.9731 Y48.1921
G01 X53.9579 Y48.1955
G01 X53.9426 Y48.1982
G01 X53.8649 Y48.2097
G01 X53.8495 Y48.2116
G01 X53.8340 Y48.2128
G01 X53.7556 Y48.2166
G01 X53.7400 Y48.2170
G01 X53.7244 Y48.2166
G01 X53.6460 Y48.2128
G01 X53.6305 Y48.2116
G01 X53.6151 Y48.2097
G01 X53.5374 Y48.1982
G01 X53.5221 Y48.1955
G01 X53.5069 Y48.1921
G01 X53.4307 Y48.1731
G01 X53.4158 Y48.1689
G01 X53.4010 Y48.1640
G01 X53.3271 Y48.1376
G01 X53.3125 Y48.1320
G01 X53.2983 Y48.1257
G01 X53.2273 Y48.0921
G01 X53.2134 Y48.0851
G01 X53.1999 Y48.0774
G01 X53.1326 Y48.0371
G01 X53.1194 Y48.0288
G01 X53.1067 Y48.0198
G01 X53.0436 Y47.9730
G01 X53.0314 Y47.9635
G01 X53.0196 Y47.9533
G01 X52.9614 Y47.9006
G01 X52.9502 Y47.8898
G01 X52.9394 Y47.8786
G01 X52.8867 Y47.8204
G01 X52.8765 Y47.8086
G01 X52.8670 Y47.7964
G01 X52.8202 Y47.7333
G01 X52.8112 Y47.7206
G01 X52.8029 Y47.7074
G01 X52.7626 Y47.6401
G01 X52.7549 Y47.6266
G01 X52.7479 Y47.6127
G01 X52.7143 Y47.5417
G01 X52.7080 Y47.5275
G01 X52.7024 Y47.5129
G01 X52.6760 Y47.4390
G01 X52.6711 Y47.4242
G01 X52.6669 Y47.4093
G01 X52.6479 Y47.3331
G01 X52.6445 Y47.3179
G01 X52.6418 Y47.3026
G01 X52.6303 Y47.2249
G01 X52.6284 Y47.2095
G01 X52.6272 Y47.1940
G01 X52.6234 Y47.1156
G01 X52.6230 Y47.1000
G01 X52.6234 Y47.0844
G01 X52.6272 Y47.0060
G01 X52.6284 Y46.9905
G01 X52.6303 Y46.9751
G01 X52.6418 Y46.8974
G01 X52.6445 Y46.8821
G01 X52.6479 Y46.8669
G01 X52.6669 Y46.7907
G01 X52.6711 Y46.7758
G01 X52.6760 Y46.7610
G01 X52.7024 Y46.6871
G01 X52.7080 Y46.6725
G01 X52.7143 Y46.6583
G01 X52.7479 Y46.5873
G01 X52.7549 Y46.5734
G01 X52.7626 Y46.5599
G01 X52.8029 Y46.4926
G01 X52.8112 Y46.4794
G01 X52.8202 Y46.4667
G01 X52.8670 Y46.4036
G01 X52.8765 Y46.3914
G01 X52.8867 Y46.3796
G01 X52.9394 Y46.3214
G01 X52.9502 Y46.3102
G01 X52.9614 Y46.2994
G01 X53.0196 Y46.2467
G01 X53.0314 Y46.2365
G01 X53.0436 Y46.2270
G01 X53.1067 Y46.1802
G01 X53.1194 Y46.1712
G01 X53.1326 Y46.1629
G01 X53.1999 Y46.1226
G01 X53.2204 Y46.1113
G00 Z2.0000
G00 X53.3059 Y46.2812
G01 F60.00
G01 Z-0.1800
G01 F120.00
G01 X53.3853 Y46.2437
G01 X53.4710 Y46.2131
G01 X53.5592 Y46.1910
G01 X53.6492 Y46.1777
G01 X53.7400 Y46.1732
G01 X53.8308 Y46.1777
G01 X53.9208 Y46.1910
G01 X54.0090 Y46.2131
G01 X54.0947 Y46.2437
G01 X54.1769 Y46.2826
G01 X54.2549 Y46.3294
G01 X54.3280 Y46.3836
G01 X54.3953 Y46.4447
G01 X54.4564 Y46.5120
G01 X54.5106 Y46.5851
G01 X54.5574 Y46.6631
G01 X54.5963 Y46.7453
G01 X54.6269 Y46.8310
G01 X54.6490 Y46.9192
G01 X54.6623 Y47.0092
G01 X54.6668 Y47.1000
G01 X54.6623 Y47.1908
G01 X54.6490 Y47.2808
G01 X54.6269 Y47.3690
G01 X54.5963 Y47.4547
G01 X54.5574 Y47.5369
G01 X54.5106 Y47.6149
G01 X54.4564 Y47.6880
G01 X54.3953 Y47.7553
G01 X54.3280 Y47.8164
G01 X54.2549 Y47.8706
G01 X54.1769 Y47.9174
G01 X54.0947 Y47.9563
G01 X54.0090 Y47.9869
G01 X53.9208 Y48.0090
G01 X53.8308 Y48.0223
G01 X53.7400 Y48.0268
G01 X53.6492 Y48.0223
G01 X53.5592 Y48.0090
G01 X53.4710 Y47.9869
G01 X53.3853 Y47.9563
G01 X53.3031 Y47.9174
G01 X53.2251 Y47.8706
G01 X53.1520 Y47.8164
G01 X53.0847 Y47.7553
G01 X53.0236 Y47.6880
G01 X52.9694 Y47.6149
G01 X52.9226 Y47.5369
G01 X52.8837 Y47.4547
G01 X52.8531 Y47.3690
G01 X52.8310 Y47.2808
G01 X52.8177 Y47.1908
G01 X52.8132 Y47.1000
G01 X52.8177 Y47.0092
G01 X52.8310 Y46.9192
G01 X52.8531 Y46.8310
G01 X52.8837 Y46.7453
G01 X52.9226 Y46.6631
G01 X52.9694 Y46.5851
G01 X53.0236 Y46.5120
G01 X53.0847 Y46.4447
G01 X53.1520 Y46.3836
G01 X53.2251 Y46.3294
G01 X53.2977 Y46.2857
G01 X53.3059 Y46.2812
G00 Z2.0000
G00 X55.7604 Y46.1113
G01 F60.00
G01 Z-0.1800
G01 F120.00
G01 X55.8383 Y46.0743
G01 X55.8525 Y46.0680
G01 X55.8671 Y46.0624
G01 X55.9410 Y46.0360
G01 X55.9558 Y46.0311
G01 X55.9707 Y46.0269
G01 X56.0469 Y46.0079
G01 X56.0621 Y46.0045
G01 X56.0774 Y46.0018
G01 X56.1551 Y45.9903
G01 X56.1705 Y45.9884
G01 X56.1860 Y45.9872
G01 X56.2644 Y45.9834
G01 X56.2800 Y45.9830
G01 X56.2956 Y45.9834
G01 X56.3740 Y45.9872
G01 X56.3895 Y45.9884
G01 X56.4049 Y45.9903
G01 X56.4826 Y46.0018
G01 X56.4979 Y46.0045
G01 X56.5131 Y46.0079
G01 X56.5893 Y46.0269
G01 X56.6042 Y46.0311
G01 X56.6190 Y46.0360
G01 X56.6929 Y46.0624
G01 X56.7075 Y46.0680
G01 X56.7217 Y46.0743
G01 X56.7927 Y46.1079
G01 X56.8066 Y46.1149
G01 X56.8201 Y46.1226
G01 X56.8874 Y46.1629
G01 X56.9006 Y46.1712
G01 X56.9133 Y46.1802
G01 X56.9764 Y46.2270
G01 X56.9886 Y46.2365
G01 X57.0004 Y46.2467
G01 X57.0586 Y46.2994
G01 X57.0698 Y46.3102
G01 X57.0806 Y46.3214
G01 X57.1333 Y46.3796
G01 X57.1435 Y46.3914
G01 X57.1530 Y46.4036
G01 X57.1998 Y46.4667
G01 X57.2088 Y46.4794
G01 X57.2171 Y46.4926
G01 X57.2574 Y46.5599
G01 X57.2651 Y46.5734
G01 X57.2721 Y46.5873
G01 X57.3057 Y46.6583
G01 X57.3120 Y46.6725
G01 X57.3176 Y46.6871
G01 X57.3440 Y46.7610
G01 X57.3489 Y46.7758
G01 X57.3531 Y46.7907
G01 X57.3721 Y46.8669
G01 X57.3755 Y46.8821
G01 X57.3782 Y46.8974
G01 X57.3897 Y46.9751
G01 X57.3916 Y46.9905
G01 X57.3928 Y47.0060
G01 X57.3966 Y47.0844
G01 X57.3970 Y47.1000
G01 X57.3966 Y47.1156
G01 X57.3928 Y47.1940
G01 X57.3916 Y47.2095
G01 X57.3897 Y47.2249
G01 X57.3782 Y47.3026
G01 X57.3755 Y47.3179
G01 X57.3721 Y47.3331
G01 X57.3531 Y47.4093
G01 X57.3489 Y47.4242
G01 X57.3440 Y47.4390
G01 X57.3176 Y47.5129
G01 X57.3120 Y47.5275
G01 X57.3057 Y47.5417
G01 X57.2721 Y47.6127
G01 X57.2651 Y47.6266
G01 X57.2574 Y47.6401
G01 X57.2171 Y47.7074
G01 X57.2088 Y47.7206
G01 X57.1998 Y47.7333
G01 X57.1530 Y47.7964
G01 X57.1435 Y47.8086
G01 X57.1333 Y47.8204
G01 X57.0806 Y47.8786
G01 X57.0698 Y47.8898
G01 X57.0586 Y47.9006
G01 X57.0004 Y47.9533
G01 X56.9886 Y47.9635
G01 X56.9764 Y47.9730
G01 X56.9133 Y48.0198
G01 X56.9006 Y48.0288
G01 X56.8874 Y48.0371
G01 X56.8201 Y48.0774
G01 X56.8066 Y48.0851
G01 X56.7927 Y48.0921
G01 X56.7217 Y48.1257
G01 X56.7075 Y48.1320
G01 X56.6929 Y48.1376
G01 X56.6190 Y48.1640
G01 X56.6042 Y48.1689
G01 X56.5893 Y48.1731
G01 X56.5131 Y48.1921
G01 X56.4979 Y48.1955
G01 X56.4826 Y48.1982
G01 X56.4049 Y48.2097
G01 X56.3895 Y48.2116
G01 X56.3740 Y48.2128
G01 X56.2956 Y48.2166
G01 X56.2800 Y48.2170
G01 X56.2644 Y48.2166
G01 X56.1860 Y48.2128
G01 X56.1705 Y48.2116
G01 X56.1551 Y48.2097
G01 X56.0774 Y48.1982
G01 X56.0621 Y48.1955
G01 X56.0469 Y48.1921
G01 X55.9707 Y48.1731
G01 X55.9558 Y48.1689
G01 X55.9410 Y48.1640
G01 X55.8671 Y48.1376
G01 X55.8525 Y48.1320
G01 X55.8383 Y48.1257
G01 X55.7673 Y48.0921
G01 X55.7534 Y48.0851
G01 X55.7399 Y48.0774
G01 X55.6726 Y48.0371
G01 X55.6594 Y48.0288
G01 X55.6467 Y48.0198
G01 X55.5836 Y47.9730
G01 X55.5714 Y47.9635
G01 X55.5596 Y47.9533
G01 X55.5014 Y47.9006
G01 X55.4902 Y47.8898
G01 X55.4794 Y47.8786
G01 X55.4267 Y47.8204
G01 X55.4165 Y47.8086
G01 X55.4070 Y47.7964
G01 X55.3602 Y47.7333
G01 X55.3512 Y47.7206
G01 X55.3429 Y47.7074
G01 X55.3026 Y47.6401
G01 X55.2949 Y47.6266
G01 X55.2879 Y47.6127
G01 X55.2543 Y47.5417
G01 X55.2480 Y47.5275
G01 X55.2424 Y47.5129
G01 X55.2160 Y47.4390
G01 X55.2111 Y47.4242
G01 X55.2069 Y47.4093
G01 X55.1879 Y47.3331
G01 X55.1845 Y47.3179
G01 X55.1818 Y47.3026
G01 X55.1703 Y47.2249
G01 X55.1684 Y47.2095
G01 X55.1672 Y47.1940
G01 X55.1634 Y47.1156
G01 X55.1630 Y47.1000
G01 X55.1634 Y47.0844
G01 X55.1672 Y47.0060
G01 X55.1684 Y46.9905
G01 X55.1703 Y46.9751
G01 X55.1818 Y46.8974
G01 X55.1845 Y46.8821
G01 X55.1879 Y46.8669
G01 X55.2069 Y46.7907
G01 X55.2111 Y46.7758
G01 X55.2160 Y46.7610
G01 X55.2424 Y46.6871
G01 X55.2480 Y46.6725
G01 X55.2543 Y46.6583
G01 X55.2879 Y46.5873
G01 X55.2949 Y46.5734
G01 X55.3026 Y46.5599
G01 X55.3429 Y46.4926
G01 X55.3512 Y46.4794
G01 X55.3602 Y46.4667
G01 X55.4070 Y46.4036
G01 X55.4165 Y46.3914
G01 X55.4267 Y46.3796
G01 X55.4794 Y46.3214
G01 X55.4902 Y46.3102
G01 X55.5014 Y46.2994
G01 X55.5596 Y46.2467
G01 X55.5714 Y46.2365
G01 X55.5836 Y46.2270
G01 X55.6467 Y46.1802
G01 X55.6594 Y46.1712
G01 X55.6726 Y46.1629
G01 X55.7399 Y46.1226
G01 X55.7604 Y46.1113
G00 Z2.0000
G00 X55.8459 Y46.2812
G01 F60.00
G01 Z-0.1800
G01 F120.00
G01 X55.9253 Y46.2437
G01 X56.0110 Y46.2131
G01 X56.0992 Y46.1910
G01 X56.1892 Y46.1777
G01 X56.2800 Y46.1732
G01 X56.3708 Y46.1777
G01 X56.4608 Y46.1910
G01 X56.5490 Y46.2131
G01 X56.6347 Y46.2437
G01 X56.7169 Y46.2826
G01 X56.7949 Y46.3294
G01 X56.8680 Y46.3836
G01 X56.9353 Y46.4447
G01 X56.9964 Y46.5120
G01 X57.0506 Y46.5851
G01 X57.0974 Y46.6631
G01 X57.1363 Y46.7453
G01 X57.1669 Y46.8310
G01 X57.1890 Y46.9192
G01 X57.2023 Y47.0092
G01 X57.2068 Y47.1000
G01 X57.2023 Y47.1908
G01 X57.1890 Y47.2808
G01 X57.1669 Y47.3690
G01 X57.1363 Y47.4547
G01 X57.0974 Y47.5369
G01 X57.0506 Y47.6149
G01 X56.9964 Y47.6880
G01 X56.9353 Y47.7553
G01 X56.8680 Y47.8164
G01 X56.7949 Y47.8706
G01 X56.7169 Y47.9174
G01 X56.6347 Y47.9563
G01 X56.5490 Y47.9869
G01 X56.4608 Y48.0090
G01 X56.3708 Y48.0223
G01 X56.2800 Y48.0268
G01 X56.1892 Y48.0223
G01 X56.0992 Y48.0090
G01 X56.0110 Y47.9869
G01 X55.9253 Y47.9563
G01 X55.8431 Y47.9174
G01 X55.7651 Y47.8706
G01 X55.6920 Y47.8164
G01 X55.6247 Y47.7553
G01 X55.5636 Y47.6880
G01 X55.5094 Y47.6149
G01 X55.4626 Y47.5369
G01 X55.4237 Y47.4547
G01 X55.3931 Y47.3690
G01 X55.3710 Y47.2808
G01 X55.3577 Y47.1908
G01 X55.3532 Y47.1000
G01 X55.3577 Y47.0092
G01 X55.3710 Y46.9192
G01 X55.3931 Y46.8310
G01 X55.4237 Y46.7453
G01 X55.4626 Y46.6631
G01 X55.5094 Y46.5851
G01 X55.5636 Y46.5120
G01 X55.6247 Y46.4447
G01 X55.6920 Y46.3836
G01 X55.7651 Y46.3294
G01 X55.8377 Y46.2857
G01 X55.8459 Y46.2812
G00 Z2.0000
G00 X58.3004 Y46.1113
G01 F60.00
G01 Z-0.1800
G01 F120.00
G01 X58.3783 Y46.0743
G01 X58.3925 Y46.0680
G01 X58.4071 Y46.0624
G01 X58.4810 Y46.0360
G01 X58.4958 Y46.0311
G01 X58.5107 Y46.0269
G01 X58.5869 Y46.0079
G01 X58.6021 Y46.0045
G01 X58.6174 Y46.0018
G01 X58.6951 Y45.9903
G01 X58.7105 Y45.9884
G01 X58.7260 Y45.9872
G01 X58.8044 Y45.9834
G01 X58.8200 Y45.9830
G01 X58.8356 Y45.9834
G01 X58.9140 Y45.9872
G01 X58.9295 Y45.9884
G01 X58.9449 Y45.9903
G01 X59.0226 Y46.0018
G01 X59.0379 Y46.0045
G01 X59.0531 Y46.0079
G01 X59.1293 Y46.0269
G01 X59.1442 Y46.0311
G01 X59.1590 Y46.0360
G01 X59.2329 Y46.0624
G01 X59.2475 Y46.0680
G01 X59.2617 Y46.0743
G01 X59.3327 Y46.1079
G01 X59.3466 Y46.1149
G01 X59.3601 Y46.1226
G01 X59.4274 Y46.1629
G01 X59.4406 Y46.1712
G01 X59.4533 Y46.1802
G01 X59.5164 Y46.2270
G01 X59.5286 Y46.2365
G01 X59.5404 Y46.2467
G01 X59.5986 Y46.2994
G01 X59.6098 Y46.3102
G01 X59.6206 Y46.3214
G01 X59.6733 Y46.3796
G01 X59.6835 Y46.3914
G01 X59.6930 Y46.4036
G01 X59.7398 Y46.4667
G01 X59.7488 Y46.4794
G01 X59.7571 Y46.4926
G01 X59.7974 Y46.5599
G01 X59.8051 Y46.5734
G01 X59.8121 Y46.5873
G01 X59.8457 Y46.6583
G01 X59.8520 Y46.6725
G01 X59.8576 Y46.6871
G01 X59.8840 Y46.7610
G01 X59.8889 Y46.7758
G01 X59.8931 Y46.7907
G01 X59.9121 Y46.8669
G01 X59.9155 Y46.8821
G01 X59.9182 Y46.8974
G01 X59.9297 Y46.9751
G01 X59.9316 Y46.9905
G01 X59.9328 Y47.0060
G01 X59.9366 Y47.0844
G01 X59.9370 Y47.1000
G01 X59.9366 Y47.1156
G01 X59.9328 Y47.1940
G01 X59.9316 Y47.2095
G01 X59.9297 Y47.2249
G01 X59.9182 Y47.3026
G01 X59.9155 Y47.3179
G01 X59.9121 Y47.3331
G01 X59.8931 Y47.4093
G01 X59.8889 Y47.4242
G01 X59.8840 Y47.4390
G01 X59.8576 Y47.5129
G01 X59.8520 Y47.5275
G01 X59.8457 Y47.5417
G01 X59.8121 Y47.6127
G01 X59.8051 Y47.6266
G01 X59.7974 Y47.6401
G01 X59.7571 Y47.7074
G01 X59.7488 Y47.7206
G01 X59.7398 Y47.7333
G01 X59.6930 Y47.7964
G01 X59.6835 Y47.8086
G01 X59.6733 Y47.8204
G01 X59.6206 Y47.8786
G01 X59.6098 Y47.8898
G01 X59.5986 Y47.9006
G01 X59.5404 Y47.9533
G01 X59.5286 Y47.9635
G01 X59.5164 Y47.9730
G01 X59.4533 Y48.0198
G01 X59.4406 Y48.0288
G01 X59.4274 Y48.0371
G01 X59.3601 Y48.0774
G01 X59.3466 Y48.0851
G01 X59.3327 Y48.0921
G01 X59.2617 Y48.1257
G01 X59.2475 Y48.1320
G01 X59.2329 Y48.1376
G01 X59.1590 Y48.1640
G01 X59.1442 Y48.1689
G01 X59.1293 Y48.1731
G01 X59.0531 Y48.1921
G01 X59.0379 Y48.1955
G01 X59.0226 Y48.1982
G01 X58.9449 Y48.2097
G01 X58.9295 Y48.2116
G01 X58.9140 Y48.2128
G01 X58.8356 Y48.2166
G01 X58.8200 Y48.2170
G01 X58.8044 Y48.2166
G01 X58.7260 Y48.2128
G01 X58.7105 Y48.2116
G01 X58.6951 Y48.2097
G01 X58.6174 Y48.1982
G01 X58.6021 Y48.1955
G01 X58.5869 Y48.1921
G01 X58.5107 Y48.1731
G01 X58.4958 Y48.1689
G01 X58.4810 Y48.1640
G01 X58.4071 Y48.1376
G01 X58.3925 Y48.1320
G01 X58.3783 Y48.1257
G01 X58.3073 Y48.0921
G01 X58.2934 Y48.0851
G01 X58.2799 Y48.0774
G01 X58.2126 Y48.0371
G01 X58.1994 Y48.0288
G01 X58.1867 Y48.0198
G01 X58.1236 Y47.9730
G01 X58.1114 Y47.9635
G01 X58.0996 Y47.9533
G01 X58.0414 Y47.9006
G01 X58.0302 Y47.8898
G01 X58.0194 Y47.8786
G01 X57.9667 Y47.8204
G01 X57.9565 Y47.8086
G01 X57.9470 Y47.7964
G01 X57.9002 Y47.7333
G01 X57.8912 Y47.7206
G01 X57.8829 Y47.7074
G01 X57.8426 Y47.6401
G01 X57.8349 Y47.6266
G01 X57.8279 Y47.6127
G01 X57.7943 Y47.5417
G01 X57.7880 Y47.5275
G01 X57.7824 Y47.5129
G01 X57.7560 Y47.4390
G01 X57.7511 Y47.4242
G01 X57.7469 Y47.4093
G01 X57.7279 Y47.3331
G01 X57.7245 Y47.3179
G01 X57.7218 Y47.3026
G01 X57.7103 Y47.2249
G01 X57.7084 Y47.2095
G01 X57.7072 Y47.1940
G01 X57.7034 Y47.1156
G01 X57.7030 Y47.1000
G01 X57.7034 Y47.0844
G01 X57.7072 Y47.0060
G01 X57.7084 Y46.9905
G01 X57.7103 Y46.9751
G01 X57.7218 Y46.8974
G01 X57.7245 Y46.8821
G01 X57.7279 Y46.8669
G01 X57.7469 Y46.7907
G01 X57.7511 Y46.7758
G01 X57.7560 Y46.7610
G01 X57.7824 Y46.6871
G01 X57.7880 Y46.6725
G01 X57.7943 Y46.6583
G01 X57.8279 Y46.5873
G01 X57.8349 Y46.5734
G01 X57.8426 Y46.5599
G01 X57.8829 Y46.4926
G01 X57.8912 Y46.4794
G01 X57.9002 Y46.4667
G01 X57.9470 Y46.4036
G01 X57.9565 Y46.3914
G01 X57.9667 Y46.3796
G01 X58.0194 Y46.3214
G01 X58.0302 Y46.3102
G01 X58.0414 Y46.2994
G01 X58.0996 Y46.2467
G01 X58.1114 Y46.2365
G01 X58.1236 Y46.2270
G01 X58.1867 Y46.1802
G01 X58.1994 Y46.1712
G01 X58.2126 Y46.1629
G01 X58.2799 Y46.1226
G01 X58.3004 Y46.1113
G00 Z2.0000
G00 X58.3859 Y46.2812
G01 F60.00
G01 Z-0.1800
G01 F120.00
G01 X58.4653 Y46.2437
G01 X58.5510 Y46.2131
G01 X58.6392 Y46.1910
G01 X58.7292 Y46.1777
G01 X58.8200 Y46.1732
G01 X58.9108 Y46.1777
G01 X59.0008 Y46.1910
G01 X59.0890 Y46.2131
G01 X59.1747 Y46.2437
G01 X59.2569 Y46.2826
G01 X59.3349 Y46.3294
G01 X59.4080 Y46.3836
G01 X59.4753 Y46.4447
G01 X59.5364 Y46.5120
G01 X59.5906 Y46.5851
G01 X59.6374 Y46.6631
G01 X59.6763 Y46.7453
G01 X59.7069 Y46.8310
G01 X59.7290 Y46.9192
G01 X59.7423 Y47.0092
G01 X59.7468 Y47.1000
G01 X59.7423 Y47.1908
G01 X59.7290 Y47.2808
G01 X59.7069 Y47.3690
G01 X59.6763 Y47.4547
G01 X59.6374 Y47.5369
G01 X59.5906 Y47.6149
G01 X59.5364 Y47.6880
G01 X59.4753 Y47.7553
G01 X59.4080 Y47.8164
G01 X59.3349 Y47.8706
G01 X59.2569 Y47.9174
G01 X59.1747 Y47.9563
G01 X59.0890 Y47.9869
G01 X59.0008 Y48.0090
G01 X58.9108 Y48.0223
G01 X58.8200 Y48.0268
G01 X58.7292 Y48.0223
G01 X58.6392 Y48.0090
G01 X58.5510 Y47.9869
G01 X58.4653 Y47.9563
G01 X58.3831 Y47.9174
G01 X58.3051 Y47.8706
G01 X58.2320 Y47.8164
G01 X58.1647 Y47.7553
G01 X58.1036 Y47.6880
G01 X58.0494 Y47.6149
G01 X58.0026 Y47.5369
G01 X57.9637 Y47.4547
G01 X57.9331 Y47.3690
G01 X57.9110 Y47.2808
G01 X57.8977 Y47.1908
G01 X57.8932 Y47.1000
G01 X57.8977 Y47.0092
G01 X57.9110 Y46.9192
G01 X57.9331 Y46.8310
G01 X57.9637 Y46.7453
G01 X58.0026 Y46.6631
G01 X58.0494 Y46.5851
G01 X58.1036 Y46.5120
G01 X58.1647 Y46.4447
G01 X58.2320 Y46.3836
G01 X58.3051 Y46.3294
G01 X58.3777 Y46.2857
G01 X58.3859 Y46.2812
G00 Z2.0000
G00 X60.8404 Y46.1113
G01 F60.00
G01 Z-0.1800
G01 F120.00
G01 X60.9183 Y46.0743
G01 X60.9325 Y46.0680
G01 X60.9471 Y46.0624
G01 X61.0210 Y46.0360
G01 X61.0358 Y46.0311
G01 X61.0507 Y46.0269
G01 X61.1269 Y46.0079
G01 X61.1421 Y46.0045
G01 X61.1574 Y46.0018
G01 X61.2351 Y45.9903
G01 X61.2505 Y45.9884
G01 X61.2660 Y45.9872
G01 X61.3444 Y45.9834
G01 X61.3600 Y45.9830
G01 X61.3756 Y45.9834
G01 X61.4540 Y45.9872
G01 X61.4695 Y45.9884
G01 X61.4849 Y45.9903
G01 X61.5626 Y46.0018
G01 X61.5779 Y46.0045
G01 X61.5931 Y46.0079
G01 X61.6693 Y46.0269
G01 X61.6842 Y46.0311
G01 X61.6990 Y46.0360
G01 X61.7729 Y46.0624
G01 X61.7875 Y46.0680
G01 X61.8017 Y46.0743
G01 X61.8727 Y46.1079
G01 X61.8866 Y46.1149
G01 X61.9001 Y46.1226
G01 X61.9674 Y46.1629
G01 X61.9806 Y46.1712
G01 X61.9933 Y46.1802
G01 X62.0564 Y46.2270
G01 X62.0686 Y46.2365
G01 X62.0804 Y46.2467
G01 X62.1386 Y46.2994
G01 X62.1498 Y46.3102
G01 X62.1606 Y46.3214
G01 X62.2133 Y46.3796
G01 X62.2235 Y46.3914
G01 X62.2330 Y46.4036
G01 X62.2798 Y46.4667
G01 X62.2888 Y46.4794
G01 X62.2971 Y46.4926
G01 X62.3374 Y46.5599
G01 X62.3451 Y46.5734
G01 X62.3521 Y46.5873
G01 X62.3857 Y46.6583
G01 X62.3920 Y46.6725
G01 X62.3976 Y46.6871
G01 X62.4240 Y46.7610
G01 X62.4289 Y46.7758
G01 X62.4331 Y46.7907
G01 X62.4521 Y46.8669
G01 X62.4555 Y46.8821
G01 X62.4582 Y46.8974
G01 X62.4697 Y46.9751
G01 X62.4716 Y46.9905
G01 X62.4728 Y47.0060
G01 X62.4766 Y47.0844
G01 X62.4770 Y47.1000
G01 X62.4766 Y47.1156
G01 X62.4728 Y47.1940
G01 X62.4716 Y47.2095
G01 X62.4697 Y47.2249
G01 X62.4582 Y47.3026
G01 X62.4555 Y47.3179
G01 X62.4521 Y47.3331
G01 X62.4331 Y47.4093
G01 X62.4289 Y47.4242
G01 X62.4240 Y47.4390
G01 X62.3976 Y47.5129
G01 X62.3920 Y47.5275
G01 X62.3857 Y47.5417
G01 X62.3521 Y47.6127
G01 X62.3451 Y47.6266
G01 X62.3374 Y47.6401
G01 X62.2971 Y47.7074
G01 X62.2888 Y47.7206
G01 X62.2798 Y47.7333
G01 X62.2330 Y47.7964
G01 X62.2235 Y47.8086
G01 X62.2133 Y47.8204
G01 X62.1606 Y47.8786
G01 X62.1498 Y47.8898
G01 X62.1386 Y47.9006
G01 X62.0804 Y47.9533
G01 X62.0686 Y47.9635
G01 X62.0564 Y47.9730
G01 X61.9933 Y48.0198
G01 X61.9806 Y48.0288
G01 X61.9674 Y48.0371
G01 X61.9001 Y48.0774
G01 X61.8866 Y48.0851
G01 X61.8727 Y48.0921
G01 X61.8017 Y48.1257
G01 X61.7875 Y48.1320
G01 X61.7729 Y48.1376
G01 X61.6990 Y48.1640
G01 X61.6842 Y48.1689
G01 X61.6693 Y48.1731
G01 X61.5931 Y48.1921
G01 X61.5779 Y48.1955
G01 X61.5626 Y48.1982
G01 X61.4849 Y48.2097
G01 X61.4695 Y48.2116
G01 X61.4540 Y48.2128
G01 X61.3756 Y48.2166
G01 X61.3600 Y48.2170
G01 X61.3444 Y48.2166
G01 X61.2660 Y48.2128
G01 X61.2505 Y48.2116
G01 X61.2351 Y48.2097
G01 X61.1574 Y48.1982
G01 X61.1421 Y48.1955
G01 X61.1269 Y48.1921
G01 X61.0507 Y48.1731
G01 X61.0358 Y48.1689
G01 X61.0210 Y48.1640
G01 X60.9471 Y48.1376
G01 X60.9325 Y48.1320
G01 X60.9183 Y48.1257
G01 X60.8473 Y48.0921
G01 X60.8334 Y48.0851
G01 X60.8199 Y48.0774
G01 X60.7526 Y48.0371
G01 X60.7394 Y48.0288
G01 X60.7267 Y48.0198
G01 X60.6636 Y47.9730
G01 X60.6514 Y47.9635
G01 X60.6396 Y47.9533
G01 X60.5814 Y47.9006
G01 X60.5702 Y47.8898
G01 X60.5594 Y47.8786
G01 X60.5067 Y47.8204
G01 X60.4965 Y47.8086
G01 X60.4870 Y47.7964
G01 X60.4402 Y47.7333
G01 X60.4312 Y47.7206
G01 X60.4229 Y47.7074
G01 X60.3826 Y47.6401
G01 X60.3749 Y47.6266
G01 X60.3679 Y47.6127
G01 X60.3343 Y47.5417
G01 X60.3280 Y47.5275
G01 X60.3224 Y47.5129
G01 X60.2960 Y47.4390
G01 X60.2911 Y47.4242
G01 X60.2869 Y47.4093
G01 X60.2679 Y47.3331
G01 X60.2645 Y47.3179
G01 X60.2618 Y47.3026
G01 X60.2503 Y47.2249
G01 X60.2484 Y47.2095
G01 X60.2472 Y47.1940
G01 X60.2434 Y47.1156
G01 X60.2430 Y47.1000
G01 X60.2434 Y47.0844
G01 X60.2472 Y47.0060
G01 X60.2484 Y46.9905
G01 X60.2503 Y46.9751
G01 X60.2618 Y46.8974
G01 X60.2645 Y46.8821
G01 X60.2679 Y46.8669
G01 X60.2869 Y46.7907
G01 X60.2911 Y46.7758
G01 X60.2960 Y46.7610
G01 X60.3224 Y46.6871
G01 X60.3280 Y46.6725
G01 X60.3343 Y46.6583
G01 X60.3679 Y46.5873
G01 X60.3749 Y46.5734
G01 X60.3826 Y46.5599
G01 X60.4229 Y46.4926
G01 X60.4312 Y46.4794
G01 X60.4402 Y46.4667
G01 X60.4870 Y46.4036
G01 X60.4965 Y46.3914
G01 X60.5067 Y46.3796
G01 X60.5594 Y46.3214
G01 X60.5702 Y46.3102
G01 X60.5814 Y46.2994
G01 X60.6396 Y46.2467
G01 X60.6514 Y46.2365
G01 X60.6636 Y46.2270
G01 X60.7267 Y46.1802
G01 X60.7394 Y46.1712
G01 X60.7526 Y46.1629
G01 X60.8199 Y46.1226
G01 X60.8404 Y46.1113
G00 Z2.0000
G00 X60.9259 Y46.2812
G01 F60.00
G01 Z-0.1800
G01 F120.00
G01 X61.0053 Y46.2437
G01 X61.0910 Y46.2131
G01 X61.1792 Y46.1910
G01 X61.2692 Y46.1777
G01 X61.3600 Y46.1732
G01 X61.4508 Y46.1777
G01 X61.5408 Y46.1910
G01 X61.6290 Y46.2131
G01 X61.7147 Y46.2437
G01 X61.7969 Y46.2826
G01 X61.8749 Y46.3294
G01 X61.9480 Y46.3836
G01 X62.0153 Y46.4447
G01 X62.0764 Y46.5120
G01 X62.1306 Y46.5851
G01 X62.1774 Y46.6631
G01 X62.2163 Y46.7453
G01 X62.2469 Y46.8310
G01 X62.2690 Y46.9192
G01 X62.2823 Y47.0092
G01 X62.2868 Y47.1000
G01 X62.2823 Y47.1908
G01 X62.2690 Y47.2808
G01 X62.2469 Y47.3690
G01 X62.2163 Y47.4547
G01 X62.1774 Y47.5369
G01 X62.1306 Y47.6149
G01 X62.0764 Y47.6880
G01 X62.0153 Y47.7553
G01 X61.9480 Y47.8164
G01 X61.8749 Y47.8706
G01 X61.7969 Y47.9174
G01 X61.7147 Y47.9563
G01 X61.6290 Y47.9869
G01 X61.5408 Y48.0090
G01 X61.4508 Y48.0223
G01 X61.3600 Y48.0268
G01 X61.2692 Y48.0223
G01 X61.1792 Y48.0090
G01 X61.0910 Y47.9869
G01 X61.0053 Y47.9563
G01 X60.9231 Y47.9174
G01 X60.8451 Y47.8706
G01 X60.7720 Y47.8164
G01 X60.7047 Y47.7553
G01 X60.6436 Y47.6880
G01 X60.5894 Y47.6149
G01 X60.5426 Y47.5369
G01 X60.5037 Y47.4547
G01 X60.4731 Y47.3690
G01 X60.4510 Y47.2808
G01 X60.4377 Y47.1908
G01 X60.4332 Y47.1000
G01 X60.4377 Y47.0092
G01 X60.4510 Y46.9192
G01 X60.4731 Y46.8310
G01 X60.5037 Y46.7453
G01 X60.5426 Y46.6631
G01 X60.5894 Y46.5851
G01 X60.6436 Y46.5120
G01 X60.7047 Y46.4447
G01 X60.7720 Y46.3836
G01 X60.8451 Y46.3294
G01 X60.9177 Y46.2857
G01 X60.9259 Y46.2812
G00 Z2.0000
G00 X63.3804 Y46.1113
G01 F60.00
G01 Z-0.1800
G01 F120.00
G01 X63.4583 Y46.0743
G01 X63.4725 Y46.0680
G01 X63.4871 Y46.0624
G01 X63.5610 Y46.0360
G01 X63.5758 Y46.0311
G01 X63.5907 Y46.0269
G01 X63.6669 Y46.0079
G01 X63.6821 Y46.0045
G01 X63.6974 Y46.0018
G01 X63.7751 Y45.9903
G01 X63.7905 Y45.9884
G01 X63.8060 Y45.9872
G01 X63.8844 Y45.9834
G01 X63.9000 Y45.9830
G01 X63.9156 Y45.9834
G01 X63.9940 Y45.9872
G01 X64.0095 Y45.9884
G01 X64.0249 Y45.9903
G01 X64.1026 Y46.0018
G01 X64.1179 Y46.0045
G01 X64.1331 Y46.0079
G01 X64.2093 Y46.0269
G01 X64.2242 Y46.0311
G01 X64.2390 Y46.0360
G01 X64.3129 Y46.0624
G01 X64.3275 Y46.0680
G01 X64.3417 Y46.0743
G01 X64.4127 Y46.1079
G01 X64.4266 Y46.1149
G01 X64.4401 Y46.1226
G01 X64.5074 Y46.1629
G01 X64.5206 Y46.1712
G01 X64.5333 Y46.1802
G01 X64.5964 Y46.2270
G01 X64.6086 Y46.2365
G01 X64.6204 Y46.2467
G01 X64.6786 Y46.2994
G01 X64.6898 Y46.3102
G01 X64.7006 Y46.3214
G01 X64.7533 Y46.3796
G01 X64.7635 Y46.3914
G01 X64.7730 Y46.4036
G01 X64.8198 Y46.4667
G01 X64.8288 Y46.4794
G01 X64.8371 Y46.4926
G01 X64.8774 Y46.5599
G01 X64.8851 Y46.5734
G01 X64.8921 Y46.5873
G01 X64.9257 Y46.6583
G01 X64.9320 Y46.6725
G01 X64.9376 Y46.6871
G01 X64.9640 Y46.7610
G01 X64.9689 Y46.7758
G01 X64.9731 Y46.7907
G01 X64.9921 Y46.8669
G01 X64.9955 Y46.8821
G01 X64.9982 Y46.8974
G01 X65.0097 Y46.9751
G01 X65.0116 Y46.9905
G01 X65.0128 Y47.0060
G01 X65.0166 Y47.0844
G01 X65.0170 Y47.1000
G01 X65.0166 Y47.1156
G01 X65.0128 Y47.1940
G01 X65.0116 Y47.2095
G01 X65.0097 Y47.2249
G01 X64.9982 Y47.3026
G01 X64.9955 Y47.3179
G01 X64.9921 Y47.3331
G01 X64.9731 Y47.4093
G01 X64.9689 Y47.4242
G01 X64.9640 Y47.4390
G01 X64.9376 Y47.5129
G01 X64.9320 Y47.5275
G01 X64.9257 Y47.5417
G01 X64.8921 Y47.6127
G01 X64.8851 Y47.6266
G01 X64.8774 Y47.6401
G01 X64.8371 Y47.7074
G01 X64.8288 Y47.7206
G01 X64.8198 Y47.7333
G01 X64.7730 Y47.7964
G01 X64.7635 Y47.8086
G01 X64.7533 Y47.8204
G01 X64.7006 Y47.8786
G01 X64.6898 Y47.8898
G01 X64.6786 Y47.9006
G01 X64.6204 Y47.9533
G01 X64.6086 Y47.9635
G01 X64.5964 Y47.9730
G01 X64.5333 Y48.0198
G01 X64.5206 Y48.0288
G01 X64.5074 Y48.0371
G01 X64.4401 Y48.0774
G01 X64.4266 Y48.0851
G01 X64.4127 Y48.0921
G01 X64.3417 Y48.1257
G01 X64.3275 Y48.1320
G01 X64.3129 Y48.1376
G01 X64.2390 Y48.1640
G01 X64.2242 Y48.1689
G01 X64.2093 Y48.1731
G01 X64.1331 Y48.1921
G01 X64.1179 Y48.1955
G01 X64.1026 Y48.1982
G01 X64.0249 Y48.2097
G01 X64.0095 Y48.2116
G01 X63.9940 Y48.2128
G01 X63.9156 Y48.2166
G01 X63.9000 Y48.2170
G01 X63.8844 Y48.2166
G01 X63.8060 Y48.2128
G01 X63.7905 Y48.2116
G01 X63.7751 Y48.2097
G01 X63.6974 Y48.1982
G01 X63.6821 Y48.1955
G01 X63.6669 Y48.1921
G01 X63.5907 Y48.1731
G01 X63.5758 Y48.1689
G01 X63.5610 Y48.1640
G01 X63.4871 Y48.1376
G01 X63.4725 Y48.1320
G01 X63.4583 Y48.1257
G01 X63.3873 Y48.0921
G01 X63.3734 Y48.0851
G01 X63.3599 Y48.0774
G01 X63.2926 Y48.0371
G01 X63.2794 Y48.0288
G01 X63.2667 Y48.0198
G01 X63.2036 Y47.9730
G01 X63.1914 Y47.9635
G01 X63.1796 Y47.9533
G01 X63.1214 Y47.9006
G01 X63.1102 Y47.8898
G01 X63.0994 Y47.8786
G01 X63.0467 Y47.8204
G01 X63.0365 Y47.8086
G01 X63.0270 Y47.7964
G01 X62.9802 Y47.7333
G01 X62.9712 Y47.7206
G01 X62.9629 Y47.7074
G01 X62.9226 Y47.6401
G01 X62.9149 Y47.6266
G01 X62.9079 Y47.6127
G01 X62.8743 Y47.5417
G01 X62.8680 Y47.5275
G01 X62.8624 Y47.5129
G01 X62.8360 Y47.4390
G01 X62.8311 Y47.4242
G01 X62.8269 Y47.4093
G01 X62.8079 Y47.3331
G01 X62.8045 Y47.3179
G01 X62.8018 Y47.3026
G01 X62.7903 Y47.2249
G01 X62.7884 Y47.2095
G01 X62.7872 Y47.1940
G01 X62.7834 Y47.1156
G01 X62.7830 Y47.1000
G01 X62.7834 Y47.0844
G01 X62.7872 Y47.0060
G01 X62.7884 Y46.9905
G01 X62.7903 Y46.9751
G01 X62.8018 Y46.8974
G01 X62.8045 Y46.8821
G01 X62.8079 Y46.8669
G01 X62.8269 Y46.7907
G01 X62.8311 Y46.7758
G01 X62.8360 Y46.7610
G01 X62.8624 Y46.6871
G01 X62.8680 Y46.6725
G01 X62.8743 Y46.6583
G01 X62.9079 Y46.5873
G01 X62.9149 Y46.5734
G01 X62.9226 Y46.5599
G01 X62.9629 Y46.4926
G01 X62.9712 Y46.4794
G01 X62.9802 Y46.4667
G01 X63.0270 Y46.4036
G01 X63.0365 Y46.3914
G01 X63.0467 Y46.3796
G01 X63.0994 Y46.3214
G01 X63.1102 Y46.3102
G01 X63.1214 Y46.2994
G01 X63.1796 Y46.2467
G01 X63.1914 Y46.2365
G01 X63.2036 Y46.2270
G01 X63.2667 Y46.1802
G01 X63.2794 Y46.1712
G01 X63.2926 Y46.1629
G01 X63.3599 Y46.1226
G01 X63.3804 Y46.1113
G00 Z2.0000
G00 X63.4659 Y46.2812
G01 F60.00
G01 Z-0.1800
G01 F120.00
G01 X63.5453 Y46.2437
G01 X63.6310 Y46.2131
G01 X63.7192 Y46.1910
G01 X63.8092 Y46.1777
G01 X63.9000 Y46.1732
G01 X63.9908 Y46.1777
G01 X64.0808 Y46.1910
G01 X64.1690 Y46.2131
G01 X64.2547 Y46.2437
G01 X64.3369 Y46.2826
G01 X64.4149 Y46.3294
G01 X64.4880 Y46.3836
G01 X64.5553 Y46.4447
G01 X64.6164 Y46.5120
G01 X64.6706 Y46.5851
G01 X64.7174 Y46.6631
G01 X64.7563 Y46.7453
G01 X64.7869 Y46.8310
G01 X64.8090 Y46.9192
G01 X64.8223 Y47.0092
G01 X64.8268 Y47.1000
G01 X64.8223 Y47.1908
G01 X64.8090 Y47.2808
G01 X64.7869 Y47.3690
G01 X64.7563 Y47.4547
G01 X64.7174 Y47.5369
G01 X64.6706 Y47.6149
G01 X64.6164 Y47.6880
G01 X64.5553 Y47.7553
G01 X64.4880 Y47.8164
G01 X64.4149 Y47.8706
G01 X64.3369 Y47.9174
G01 X64.2547 Y47.9563
G01 X64.1690 Y47.9869
G01 X64.0808 Y48.0090
G01 X63.9908 Y48.0223
G01 X63.9000 Y48.0268
G01 X63.8092 Y48.0223
G01 X63.7192 Y48.0090
G01 X63.6310 Y47.9869
G01 X63.5453 Y47.9563
G01 X63.4631 Y47.9174
G01 X63.3851 Y47.8706
G01 X63.3120 Y47.8164
G01 X63.2447 Y47.7553
G01 X63.1836 Y47.6880
G01 X63.1294 Y47.6149
G01 X63.0826 Y47.5369
G01 X63.0437 Y47.4547
G01 X63.0131 Y47.3690
G01 X62.9910 Y47.2808
G01 X62.9777 Y47.1908
G01 X62.9732 Y47.1000
G01 X62.9777 Y47.0092
G01 X62.9910 Y46.9192
G01 X63.0131 Y46.8310
G01 X63.0437 Y46.7453
G01 X63.0826 Y46.6631
G01 X63.1294 Y46.5851
G01 X63.1836 Y46.5120
G01 X63.2447 Y46.4447
G01 X63.3120 Y46.3836
G01 X63.3851 Y46.3294
G01 X63.4577 Y46.2857
G01 X63.4659 Y46.2812
G00 Z2.0000
G00 X68.4604 Y46.1113
G01 F60.00
G01 Z-0.1800
G01 F120.00
G01 X68.5383 Y46.0743
G01 X68.5525 Y46.0680
G01 X68.5671 Y46.0624
G01 X68.6410 Y46.0360
G01 X68.6558 Y46.0311
G01 X68.6707 Y46.0269
G01 X68.7469 Y46.0079
G01 X68.7621 Y46.0045
G01 X68.7774 Y46.0018
G01 X68.8551 Y45.9903
G01 X68.8705 Y45.9884
G01 X68.8860 Y45.9872
G01 X68.9644 Y45.9834
G01 X68.9800 Y45.9830
G01 X68.9956 Y45.9834
G01 X69.0740 Y45.9872
G01 X69.0895 Y45.9884
G01 X69.1049 Y45.9903
G01 X69.1826 Y46.0018
G01 X69.1979 Y46.0045
G01 X69.2131 Y46.0079
G01 X69.2893 Y46.0269
G01 X69.3042 Y46.0311
G01 X69.3190 Y46.0360
G01 X69.3929 Y46.0624
G01 X69.4075 Y46.0680
G01 X69.4217 Y46.0743
G01 X69.4927 Y46.1079
G01 X69.5066 Y46.1149
G01 X69.5201 Y46.1226
G01 X69.5874 Y46.1629
G01 X69.6006 Y46.1712
G01 X69.6133 Y46.1802
G01 X69.6764 Y46.2270
G01 X69.6886 Y46.2365
G01 X69.7004 Y46.2467
G01 X69.7586 Y46.2994
G01 X69.7698 Y46.3102
G01 X69.7806 Y46.3214
G01 X69.8333 Y46.3796
G01 X69.8435 Y46.3914
G01 X69.8530 Y46.4036
G01 X69.8998 Y46.4667
G01 X69.9088 Y46.4794
G01 X69.9171 Y46.4926
G01 X69.9574 Y46.5599
G01 X69.9651 Y46.5734
G01 X69.9721 Y46.5873
G01 X70.0057 Y46.6583
G01 X70.0120 Y46.6725
G01 X70.0176 Y46.6871
G01 X70.0440 Y46.7610
G01 X70.0489 Y46.7758
G01 X70.0531 Y46.7907
G01 X70.0721 Y46.8669
G01 X70.0755 Y46.8821
G01 X70.0782 Y46.8974
G01 X70.0897 Y46.9751
G01 X70.0916 Y46.9905
G01 X70.0928 Y47.0060
G01 X70.0966 Y47.0844
G01 X70.0970 Y47.1000
G01 X70.0966 Y47.1156
G01 X70.0928 Y47.1940
G01 X70.0916 Y47.2095
G01 X70.0897 Y47.2249
G01 X70.0782 Y47.3026
G01 X70.0755 Y47.3179
G01 X70.0721 Y47.3331
G01 X70.0531 Y47.4093
G01 X70.0489 Y47.4242
G01 X70.0440 Y47.4390
G01 X70.0176 Y47.5129
G01 X70.0120 Y47.5275
G01 X70.0057 Y47.5417
G01 X69.9721 Y47.6127
G01 X69.9651 Y47.6266
G01 X69.9574 Y47.6401
G01 X69.9171 Y47.7074
G01 X69.9088 Y47.7206
G01 X69.8998 Y47.7333
G01 X69.8530 Y47.7964
G01 X69.8435 Y47.8086
G01 X69.8333 Y47.8204
G01 X69.7806 Y47.8786
G01 X69.7698 Y47.8898
G01 X69.7586 Y47.9006
G01 X69.7004 Y47.9533
G01 X69.6886 Y47.9635
G01 X69.6764 Y47.9730
G01 X69.6133 Y48.0198
G01 X69.6006 Y48.0288
G01 X69.5874 Y48.0371
G01 X69.5201 Y48.0774
G01 X69.5066 Y48.0851
G01 X69.4927 Y48.0921
G01 X69.4217 Y48.1257
G01 X69.4075 Y48.1320
G01 X69.3929 Y48.1376
G01 X69.3190 Y48.1640
G01 X69.3042 Y48.1689
G01 X69.2893 Y48.1731
G01 X69.2131 Y48.1921
G01 X69.1979 Y48.1955
G01 X69.1826 Y48.1982
G01 X69.1049 Y48.2097
G01 X69.0895 Y48.2116
G01 X69.0740 Y48.2128
G01 X68.9956 Y48.2166
G01 X68.9800 Y48.2170
G01 X68.9644 Y48.2166
G01 X68.8860 Y48.2128
G01 X68.8705 Y48.2116
G01 X68.8551 Y48.2097
G01 X68.7774 Y48.1982
G01 X68.7621 Y48.1955
G01 X68.7469 Y48.1921
G01 X68.6707 Y48.1731
G01 X68.6558 Y48.1689
G01 X68.6410 Y48.1640
G01 X68.5671 Y48.1376
G01 X68.5525 Y48.1320
G01 X68.5383 Y48.1257
G01 X68.4673 Y48.0921
G01 X68.4534 Y48.0851
G01 X68.4399 Y48.0774
G01 X68.3726 Y48.0371
G01 X68.3594 Y48.0288
G01 X68.3467 Y48.0198
G01 X68.2836 Y47.9730
G01 X68.2714 Y47.9635
G01 X68.2596 Y47.9533
G01 X68.2014 Y47.9006
G01 X68.1902 Y47.8898
G01 X68.1794 Y47.8786
G01 X68.1267 Y47.8204
G01 X68.1165 Y47.8086
G01 X68.1070 Y47.7964
G01 X68.0602 Y47.7333
G01 X68.0512 Y47.7206
G01 X68.0429 Y47.7074
G01 X68.0026 Y47.6401
G01 X67.9949 Y47.6266
G01 X67.9879 Y47.6127
G01 X67.9543 Y47.5417
G01 X67.9480 Y47.5275
G01 X67.9424 Y47.5129
G01 X67.9160 Y47.4390
G01 X67.9111 Y47.4242
G01 X67.9069 Y47.4093
G01 X67.8879 Y47.3331
G01 X67.8845 Y47.3179
G01 X67.8818 Y47.3026
G01 X67.8703 Y47.2249
G01 X67.8684 Y47.2095
G01 X67.8672 Y47.1940
G01 X67.8634 Y47.1156
G01 X67.8630 Y47.1000
G01 X67.8634 Y47.0844
G01 X67.8672 Y47.0060
G01 X67.8684 Y46.9905
G01 X67.8703 Y46.9751
G01 X67.8818 Y46.8974
G01 X67.8845 Y46.8821
G01 X67.8879 Y46.8669
G01 X67.9069 Y46.7907
G01 X67.9111 Y46.7758
G01 X67.9160 Y46.7610
G01 X67.9424 Y46.6871
G01 X67.9480 Y46.6725
G01 X67.9543 Y46.6583
G01 X67.9879 Y46.5873
G01 X67.9949 Y46.5734
G01 X68.0026 Y46.5599
G01 X68.0429 Y46.4926
G01 X68.0512 Y46.4794
G01 X68.0602 Y46.4667
G01 X68.1070 Y46.4036
G01 X68.1165 Y46.3914
G01 X68.1267 Y46.3796
G01 X68.1794 Y46.3214
G01 X68.1902 Y46.3102
G01 X68.2014 Y46.2994
G01 X68.2596 Y46.2467
G01 X68.2714 Y46.2365
G01 X68.2836 Y46.2270
G01 X68.3467 Y46.1802
G01 X68.3594 Y46.1712
G01 X68.3726 Y46.1629
G01 X68.4399 Y46.1226
G01 X68.4604 Y46.1113
G00 Z2.0000
G00 X68.5459 Y46.2812
G01 F60.00
G01 Z-0.1800
G01 F120.00
G01 X68.6253 Y46.2437
G01 X68.7110 Y46.2131
G01 X68.7992 Y46.1910
G01 X68.8892 Y46.1777
G01 X68.9800 Y46.1732
G01 X69.0708 Y46.1777
G01 X69.1608 Y46.1910
G01 X69.2490 Y46.2131
G01 X69.3347 Y46.2437
G01 X69.4169 Y46.2826
G01 X69.4949 Y46.3294
G01 X69.5680 Y46.3836
G01 X69.6353 Y46.4447
G01 X69.6964 Y46.5120
G01 X69.7506 Y46.5851
G01 X69.7974 Y46.6631
G01 X69.8363 Y46.7453
G01 X69.8669 Y46.8310
G01 X69.8890 Y46.9192
G01 X69.9023 Y47.0092
G01 X69.9068 Y47.1000
G01 X69.9023 Y47.1908
G01 X69.8890 Y47.2808
G01 X69.8669 Y47.3690
G01 X69.8363 Y47.4547
G01 X69.7974 Y47.5369
G01 X69.7506 Y47.6149
G01 X69.6964 Y47.6880
G01 X69.6353 Y47.7553
G01 X69.5680 Y47.8164
G01 X69.4949 Y47.8706
G01 X69.4169 Y47.9174
G01 X69.3347 Y47.9563
G01 X69.2490 Y47.9869
G01 X69.1608 Y48.0090
G01 X69.0708 Y48.0223
G01 X68.9800 Y48.0268
G01 X68.8892 Y48.0223
G01 X68.7992 Y48.0090
G01 X68.7110 Y47.9869
G01 X68.6253 Y47.9563
G01 X68.5431 Y47.9174
G01 X68.4651 Y47.8706
G01 X68.3920 Y47.8164
G01 X68.3247 Y47.7553
G01 X68.2636 Y47.6880
G01 X68.2094 Y47.6149
G01 X68.1626 Y47.5369
G01 X68.1237 Y47.4547
G01 X68.0931 Y47.3690
G01 X68.0710 Y47.2808
G01 X68.0577 Y47.1908
G01 X68.0532 Y47.1000
G01 X68.0577 Y47.0092
G01 X68.0710 Y46.9192
G01 X68.0931 Y46.8310
G01 X68.1237 Y46.7453
G01 X68.1626 Y46.6631
G01 X68.2094 Y46.5851
G01 X68.2636 Y46.5120
G01 X68.3247 Y46.4447
G01 X68.3920 Y46.3836
G01 X68.4651 Y46.3294
G01 X68.5377 Y46.2857
G01 X68.5459 Y46.2812
G00 Z2.0000
G00 X70.1850 Y47.7994
G01 F60.00
G01 Z-0.1800
G01 F120.00
G01 X70.1394 Y47.7034
G01 X70.1328 Y47.7162
G01 X70.1206 Y47.7379
G01 X70.0737 Y47.8158
G01 X70.0669 Y47.8262
G01 X70.0526 Y47.8466
G01 X70.0058 Y47.9097
G01 X69.9905 Y47.9293
G01 X69.9825 Y47.9388
G01 X69.9215 Y48.0063
G01 X69.9043 Y48.0243
G01 X69.8863 Y48.0415
G01 X69.8281 Y48.0942
G01 X69.8093 Y48.1105
G01 X69.7897 Y48.1258
G01 X69.7266 Y48.1726
G01 X69.7062 Y48.1869
G01 X69.6852 Y48.2002
G01 X69.6179 Y48.2406
G01 X69.5962 Y48.2528
G01 X69.5740 Y48.2640
G01 X69.4917 Y48.3028
G01 X69.4802 Y48.3077
G01 X69.4570 Y48.3167
G01 X69.3831 Y48.3431
G01 X69.3713 Y48.3472
G01 X69.3475 Y48.3544
G01 X69.2593 Y48.3766
G01 X69.2350 Y48.3821
G01 X69.2105 Y48.3863
G01 X69.1328 Y48.3979
G01 X69.1081 Y48.4009
G01 X69.0833 Y48.4027
G01 X69.0049 Y48.4066
G01 X68.9800 Y48.4072
G01 X68.9551 Y48.4066
G01 X68.8767 Y48.4027
G01 X68.8519 Y48.4009
G01 X68.8272 Y48.3979
G01 X68.7495 Y48.3863
G01 X68.7250 Y48.3821
G01 X68.7007 Y48.3766
G01 X68.6245 Y48.3576
G01 X68.6005 Y48.3509
G01 X68.5769 Y48.3431
G01 X68.5030 Y48.3167
G01 X68.4798 Y48.3077
G01 X68.4570 Y48.2976
G01 X68.3860 Y48.2640
G01 X68.3638 Y48.2528
G01 X68.3421 Y48.2406
G01 X68.2748 Y48.2002
G01 X68.2538 Y48.1869
G01 X68.2334 Y48.1726
G01 X68.1703 Y48.1258
G01 X68.1507 Y48.1105
G01 X68.1319 Y48.0942
G01 X68.0737 Y48.0415
G01 X68.0557 Y48.0243
G01 X68.0385 Y48.0063
G01 X67.9858 Y47.9481
G01 X67.9695 Y47.9293
G01 X67.9542 Y47.9097
G01 X67.9074 Y47.8466
G01 X67.8931 Y47.8262
G01 X67.8863 Y47.8158
G01 X67.8394 Y47.7379
G01 X67.8272 Y47.7162
G01 X67.8160 Y47.6940
G01 X67.7772 Y47.6117
G01 X67.7677 Y47.5887
G01 X67.7633 Y47.5770
G01 X67.7328 Y47.4913
G01 X67.7256 Y47.4675
G01 X67.7100 Y47.4058
G01 X67.6976 Y47.4554
G01 X67.6976 Y47.8491
G01 X69.5009 Y49.6524
G01 X76.0791 Y49.6524
G01 X76.6124 Y49.1191
G01 X76.6124 Y19.0961
G01 X75.6592 Y20.0492
G01 X75.6412 Y20.0664
G01 X75.5773 Y20.1241
G01 X75.5581 Y20.1399
G01 X75.5482 Y20.1474
G01 X75.4890 Y20.1913
G01 X75.4687 Y20.2056
G01 X75.4476 Y20.2190
G01 X75.3737 Y20.2631
G01 X75.3518 Y20.2748
G01 X75.2740 Y20.3118
G01 X75.2627 Y20.3169
G01 X75.2397 Y20.3265
G01 X75.1587 Y20.3556
G01 X75.1351 Y20.3634
G01 X75.1111 Y20.3701
G01 X75.0275 Y20.3908
G01 X75.0031 Y20.3957
G01 X74.9180 Y20.4085
G01 X74.8933 Y20.4115
G01 X74.8684 Y20.4134
G01 X74.7949 Y20.4170
G01 X74.7700 Y20.4176
G01 X54.2609 Y20.4176
G01 X45.7392 Y28.9392
G01 X45.7212 Y28.9564
G01 X45.6666 Y29.0059
G01 X45.6478 Y29.0221
G01 X45.6282 Y29.0374
G01 X45.5690 Y29.0813
G01 X45.5487 Y29.0956
G01 X45.5276 Y29.1090
G01 X45.4537 Y29.1531
G01 X45.4428 Y29.1591
G01 X45.4206 Y29.1703
G01 X45.3540 Y29.2018
G01 X45.3313 Y29.2118
G01 X45.3080 Y29.2208
G01 X45.2387 Y29.2456
G01 X45.2269 Y29.2497
G01 X45.2031 Y29.2569
G01 X45.1196 Y29.2780
G01 X45.0953 Y29.2834
G01 X45.0831 Y29.2857
G01 X44.9856 Y29.3001
G01 X44.9733 Y29.3015
G01 X44.9484 Y29.3034
G01 X44.8624 Y29.3074
G01 X35.5206 Y29.3076
G01 X35.5005 Y29.3200
G01 X35.5169 Y29.3300
G01 X35.5376 Y29.3439
G01 X35.6265 Y29.4096
G01 X35.6462 Y29.4249
G01 X35.6650 Y29.4412
G01 X35.7377 Y29.5071
G01 X35.7558 Y29.5242
G01 X35.7729 Y29.5423
G01 X35.8388 Y29.6150
G01 X35.8551 Y29.6338
G01 X35.8704 Y29.6535
G01 X35.9289 Y29.7323
G01 X35.9432 Y29.7526
G01 X35.9565 Y29.7737
G01 X36.0070 Y29.8579
G01 X36.0192 Y29.8795
G01 X36.0304 Y29.9017
G01 X36.0724 Y29.9905
G01 X36.0825 Y30.0132
G01 X36.0914 Y30.0364
G01 X36.1245 Y30.1288
G01 X36.1323 Y30.1525
G01 X36.1389 Y30.1765
G01 X36.1628 Y30.2717
G01 X36.1682 Y30.2960
G01 X36.1725 Y30.3205
G01 X36.1869 Y30.4176
G01 X36.1899 Y30.4423
G01 X36.1918 Y30.4671
G01 X36.1966 Y30.5651
G01 X36.1972 Y30.5900
G01 X36.1966 Y30.6149
G01 X36.1918 Y30.7129
G01 X36.1899 Y30.7377
G01 X36.1869 Y30.7624
G01 X36.1725 Y30.8595
G01 X36.1682 Y30.8840
G01 X36.1628 Y30.9083
G01 X36.1389 Y31.0035
G01 X36.1323 Y31.0275
G01 X36.1245 Y31.0512
G01 X36.0914 Y31.1436
G01 X36.0825 Y31.1668
G01 X36.0724 Y31.1895
G01 X36.0304 Y31.2783
G01 X36.0192 Y31.3005
G01 X36.0070 Y31.3221
G01 X35.9565 Y31.4063
G01 X35.9432 Y31.4274
G01 X35.9289 Y31.4477
G01 X35.8704 Y31.5265
G01 X35.8551 Y31.5462
G01 X35.8388 Y31.5650
G01 X35.7729 Y31.6377
G01 X35.7558 Y31.6558
G01 X35.7377 Y31.6729
G01 X35.6650 Y31.7388
G01 X35.6462 Y31.7551
G01 X35.6265 Y31.7704
G01 X35.5376 Y31.8361
G01 X35.5169 Y31.8500
G01 X35.5005 Y31.8600
G01 X35.5274 Y31.8768
G01 X35.5477 Y31.8911
G01 X35.6265 Y31.9496
G01 X35.6462 Y31.9649
G01 X35.6557 Y31.9729
G01 X35.7377 Y32.0471
G01 X35.7558 Y32.0642
G01 X35.7729 Y32.0823
G01 X35.8471 Y32.1643
G01 X35.8629 Y32.1836
G01 X35.8704 Y32.1935
G01 X35.9289 Y32.2723
G01 X35.9432 Y32.2926
G01 X35.9565 Y32.3137
G01 X36.0070 Y32.3979
G01 X36.0192 Y32.4195
G01 X36.0304 Y32.4417
G01 X36.0776 Y32.5418
G01 X36.0871 Y32.5648
G01 X36.0914 Y32.5764
G01 X36.1245 Y32.6688
G01 X36.1323 Y32.6925
G01 X36.1389 Y32.7165
G01 X36.1628 Y32.8117
G01 X36.1682 Y32.8360
G01 X36.1725 Y32.8605
G01 X36.1869 Y32.9576
G01 X36.1899 Y32.9823
G01 X36.1918 Y33.0071
G01 X36.1966 Y33.1051
G01 X36.1972 Y33.1300
G01 X36.1966 Y33.1549
G01 X36.1918 Y33.2529
G01 X36.1899 Y33.2777
G01 X36.1869 Y33.3024
G01 X36.1705 Y33.4118
G01 X36.1657 Y33.4362
G01 X36.1628 Y33.4483
G01 X36.1389 Y33.5435
G01 X36.1323 Y33.5675
G01 X36.1245 Y33.5912
G01 X36.0914 Y33.6836
G01 X36.0825 Y33.7068
G01 X36.0724 Y33.7295
G01 X36.0304 Y33.8183
G01 X36.0192 Y33.8405
G01 X36.0070 Y33.8621
G01 X35.9500 Y33.9569
G01 X35.9361 Y33.9776
G01 X35.9289 Y33.9877
G01 X35.8704 Y34.0665
G01 X35.8551 Y34.0862
G01 X35.8388 Y34.1050
G01 X35.7729 Y34.1777
G01 X35.7558 Y34.1958
G01 X35.7377 Y34.2129
G01 X35.6650 Y34.2788
G01 X35.6557 Y34.2871
G01 X35.6364 Y34.3029
G01 X35.5376 Y34.3761
G01 X35.5169 Y34.3900
G01 X35.5005 Y34.4000
G01 X35.5206 Y34.4124
G01 X71.5200 Y34.4124
G01 X71.5449 Y34.4130
G01 X71.6184 Y34.4166
G01 X71.6433 Y34.4185
G01 X71.6680 Y34.4215
G01 X71.7531 Y34.4343
G01 X71.7775 Y34.4392
G01 X71.7896 Y34.4420
G01 X71.8611 Y34.4599
G01 X71.8851 Y34.4666
G01 X71.9087 Y34.4744
G01 X71.9780 Y34.4992
G01 X71.9897 Y34.5035
G01 X72.0127 Y34.5131
G01 X72.0906 Y34.5497
G01 X72.1128 Y34.5609
G01 X72.1345 Y34.5732
G01 X72.2082 Y34.6176
G01 X72.2187 Y34.6244
G01 X72.2390 Y34.6387
G01 X72.2982 Y34.6826
G01 X72.3178 Y34.6979
G01 X72.3366 Y34.7141
G01 X72.4003 Y34.7721
G01 X74.9579 Y37.3297
G01 X75.0241 Y37.4027
G01 X75.0321 Y37.4122
G01 X75.0474 Y37.4318
G01 X75.0913 Y37.4910
G01 X75.1056 Y37.5113
G01 X75.1190 Y37.5324
G01 X75.1631 Y37.6063
G01 X75.1691 Y37.6172
G01 X75.1803 Y37.6394
G01 X75.2118 Y37.7060
G01 X75.2218 Y37.7287
G01 X75.2308 Y37.7520
G01 X75.2597 Y37.8331
G01 X75.2634 Y37.8449
G01 X75.2701 Y37.8689
G01 X75.2880 Y37.9404
G01 X75.2934 Y37.9647
G01 X75.2977 Y37.9892
G01 X75.3085 Y38.0620
G01 X75.3101 Y38.0744
G01 X75.3126 Y38.0991
G01 X75.3170 Y38.1851
G01 X75.3176 Y38.2100
G01 X75.3176 Y45.6631
G01 X75.3418 Y45.6783
G01 X75.3621 Y45.6926
G01 X75.3720 Y45.7002
G01 X75.3913 Y45.7159
G01 X75.4097 Y45.7327
G01 X75.4186 Y45.7414
G01 X75.4358 Y45.7594
G01 X75.4521 Y45.7782
G01 X75.4674 Y45.7979
G01 X75.4817 Y45.8182
G01 X75.4885 Y45.8286
G01 X75.4950 Y45.8392
G01 X75.5073 Y45.8609
G01 X75.5185 Y45.8831
G01 X75.5286 Y45.9059
G01 X75.5332 Y45.9175
G01 X75.5416 Y45.9409
G01 X75.5454 Y45.9528
G01 X75.5520 Y45.9768
G01 X75.5575 Y46.0011
G01 X75.5617 Y46.0256
G01 X75.5648 Y46.0503
G01 X75.5666 Y46.0751
G01 X75.5672 Y46.1000
G01 X75.5672 Y48.1000
G01 X75.5670 Y48.1124
G01 X75.5658 Y48.1373
G01 X75.5634 Y48.1621
G01 X75.5617 Y48.1744
G01 X75.5575 Y48.1989
G01 X75.5549 Y48.2111
G01 X75.5488 Y48.2353
G01 X75.5416 Y48.2591
G01 X75.5332 Y48.2825
G01 X75.5237 Y48.3055
G01 X75.5185 Y48.3169
G01 X75.5073 Y48.3391
G01 X75.4950 Y48.3608
G01 X75.4817 Y48.3818
G01 X75.4747 Y48.3920
G01 X75.4598 Y48.4120
G01 X75.4441 Y48.4313
G01 X75.4358 Y48.4406
G01 X75.4273 Y48.4497
G01 X75.4097 Y48.4673
G01 X75.4006 Y48.4758
G01 X75.3818 Y48.4921
G01 X75.3621 Y48.5074
G01 X75.3418 Y48.5217
G01 X75.3208 Y48.5350
G01 X75.3100 Y48.5413
G01 X75.2880 Y48.5530
G01 X75.2769 Y48.5585
G01 X75.2541 Y48.5686
G01 X75.2309 Y48.5776
G01 X75.2072 Y48.5854
G01 X75.1953 Y48.5888
G01 X75.1832 Y48.5920
G01 X75.1589 Y48.5975
G01 X75.1344 Y48.6017
G01 X75.1097 Y48.6048
G01 X75.0849 Y48.6066
G01 X75.0600 Y48.6072
G01 X73.0600 Y48.6072
G01 X73.0351 Y48.6066
G01 X73.0103 Y48.6048
G01 X72.9979 Y48.6034
G01 X72.9733 Y48.5997
G01 X72.9611 Y48.5975
G01 X72.9368 Y48.5920
G01 X72.9128 Y48.5854
G01 X72.8891 Y48.5776
G01 X72.8775 Y48.5732
G01 X72.8545 Y48.5637
G01 X72.8431 Y48.5585
G01 X72.8209 Y48.5473
G01 X72.8100 Y48.5413
G01 X72.7886 Y48.5285
G01 X72.7782 Y48.5217
G01 X72.7579 Y48.5074
G01 X72.7480 Y48.4998
G01 X72.7287 Y48.4841
G01 X72.7194 Y48.4758
G01 X72.7014 Y48.4586
G01 X72.6927 Y48.4497
G01 X72.6759 Y48.4313
G01 X72.6602 Y48.4120
G01 X72.6526 Y48.4021
G01 X72.6383 Y48.3818
G01 X72.6315 Y48.3714
G01 X72.6250 Y48.3608
G01 X72.6127 Y48.3391
G01 X72.6015 Y48.3169
G01 X72.5963 Y48.3055
G01 X72.5914 Y48.2941
G01 X72.5824 Y48.2709
G01 X72.5784 Y48.2591
G01 X72.5712 Y48.2353
G01 X72.5651 Y48.2111
G01 X72.5607 Y48.1892
G01 X72.4950 Y48.2488
G01 X72.4762 Y48.2651
G01 X72.4565 Y48.2804
G01 X72.3777 Y48.3389
G01 X72.3574 Y48.3532
G01 X72.3469 Y48.3600
G01 X72.2521 Y48.4170
G01 X72.2414 Y48.4232
G01 X72.2194 Y48.4350
G01 X72.1082 Y48.4876
G01 X72.0968 Y48.4925
G01 X72.0736 Y48.5014
G01 X71.9812 Y48.5345
G01 X71.9575 Y48.5423
G01 X71.9456 Y48.5458
G01 X71.8262 Y48.5757
G01 X71.8140 Y48.5782
G01 X71.7895 Y48.5825
G01 X71.6801 Y48.5986
G01 X71.6553 Y48.6010
G01 X71.6429 Y48.6018
G01 X71.5449 Y48.6066
G01 X71.5200 Y48.6072
G01 X71.4951 Y48.6066
G01 X71.3847 Y48.6010
G01 X71.3723 Y48.5999
G01 X71.3476 Y48.5969
G01 X71.2505 Y48.5825
G01 X71.2260 Y48.5782
G01 X71.2017 Y48.5728
G01 X71.1065 Y48.5489
G01 X71.0825 Y48.5423
G01 X71.0588 Y48.5345
G01 X70.9664 Y48.5014
G01 X70.9432 Y48.4925
G01 X70.9205 Y48.4824
G01 X70.8317 Y48.4404
G01 X70.8095 Y48.4292
G01 X70.7879 Y48.4170
G01 X70.7037 Y48.3665
G01 X70.6826 Y48.3532
G01 X70.6623 Y48.3389
G01 X70.5835 Y48.2804
G01 X70.5638 Y48.2651
G01 X70.5450 Y48.2488
G01 X70.4723 Y48.1829
G01 X70.4542 Y48.1658
G01 X70.4371 Y48.1477
G01 X70.3712 Y48.0750
G01 X70.3549 Y48.0562
G01 X70.3396 Y48.0365
G01 X70.2811 Y47.9577
G01 X70.2668 Y47.9374
G01 X70.2535 Y47.9163
G01 X70.2030 Y47.8321
G01 X70.1908 Y47.8105
G01 X70.1850 Y47.7994
G00 Z2.0000
G00 X72.7396 Y46.6032
G01 F60.00
G01 Z-0.1800
G01 F120.00
G01 X72.7430 Y46.6123
G01 X72.7431 Y46.0922
G01 X72.7445 Y46.0689
G01 X72.7477 Y46.0458
G01 X72.7507 Y46.0305
G01 X72.7567 Y46.0080
G01 X72.7642 Y45.9859
G01 X72.7734 Y45.9645
G01 X72.7842 Y45.9438
G01 X72.7922 Y45.9304
G01 X72.8054 Y45.9112
G01 X72.8150 Y45.8989
G01 X72.8304 Y45.8814
G01 X72.8471 Y45.8651
G01 X72.8650 Y45.8501
G01 X72.8775 Y45.8408
G01 X72.8970 Y45.8281
G01 X72.9175 Y45.8168
G01 X72.9387 Y45.8071
G01 X72.9532 Y45.8015
G01 X72.9755 Y45.7945
G01 X72.9926 Y45.7903
G01 X72.9926 Y38.6521
G01 X71.0779 Y36.7374
G01 X35.4596 Y36.7374
G01 X35.4281 Y36.7606
G01 X35.4152 Y36.7693
G01 X35.3244 Y36.8238
G01 X35.3108 Y36.8315
G01 X35.2969 Y36.8385
G01 X35.2082 Y36.8804
G01 X35.1868 Y36.8896
G01 X35.0797 Y36.9279
G01 X35.0648 Y36.9325
G01 X35.0351 Y36.9400
G01 X35.0648 Y36.9475
G01 X35.0797 Y36.9521
G01 X35.1795 Y36.9877
G01 X35.2011 Y36.9963
G01 X35.2969 Y37.0415
G01 X35.3108 Y37.0485
G01 X35.3244 Y37.0562
G01 X35.4085 Y37.1066
G01 X35.4281 Y37.1194
G01 X35.5132 Y37.1824
G01 X35.5255 Y37.1919
G01 X35.5373 Y37.2021
G01 X35.6100 Y37.2680
G01 X35.6213 Y37.2787
G01 X35.6320 Y37.2900
G01 X35.6979 Y37.3627
G01 X35.7081 Y37.3745
G01 X35.7176 Y37.3868
G01 X35.7806 Y37.4719
G01 X35.7934 Y37.4915
G01 X35.8438 Y37.5756
G01 X35.8515 Y37.5892
G01 X35.8585 Y37.6031
G01 X35.9004 Y37.6918
G01 X35.9067 Y37.7060
G01 X35.9123 Y37.7205
G01 X35.9454 Y37.8129
G01 X35.9503 Y37.8277
G01 X35.9544 Y37.8427
G01 X35.9783 Y37.9379
G01 X35.9817 Y37.9531
G01 X35.9844 Y37.9684
G01 X35.9988 Y38.0655
G01 X36.0007 Y38.0809
G01 X36.0018 Y38.0964
G01 X36.0066 Y38.1944
G01 X36.0070 Y38.2100
G01 X36.0066 Y38.2256
G01 X36.0018 Y38.3236
G01 X36.0007 Y38.3391
G01 X35.9988 Y38.3545
G01 X35.9844 Y38.4516
G01 X35.9817 Y38.4669
G01 X35.9783 Y38.4821
G01 X35.9544 Y38.5773
G01 X35.9503 Y38.5923
G01 X35.9454 Y38.6071
G01 X35.9123 Y38.6995
G01 X35.9067 Y38.7140
G01 X35.9004 Y38.7282
G01 X35.8585 Y38.8169
G01 X35.8515 Y38.8308
G01 X35.8438 Y38.8444
G01 X35.7934 Y38.9285
G01 X35.7850 Y38.9417
G01 X35.7761 Y38.9544
G01 X35.7176 Y39.0332
G01 X35.7081 Y39.0455
G01 X35.6979 Y39.0573
G01 X35.6320 Y39.1300
G01 X35.6213 Y39.1413
G01 X35.6100 Y39.1520
G01 X35.5373 Y39.2179
G01 X35.5255 Y39.2281
G01 X35.5132 Y39.2376
G01 X35.4344 Y39.2961
G01 X35.4217 Y39.3050
G01 X35.4085 Y39.3134
G01 X35.3244 Y39.3638
G01 X35.3108 Y39.3715
G01 X35.2969 Y39.3785
G01 X35.2082 Y39.4204
G01 X35.1940 Y39.4267
G01 X35.1777 Y39.4330
G01 X35.6978 Y39.4331
G01 X35.7133 Y39.4339
G01 X35.7365 Y39.4364
G01 X35.7595 Y39.4407
G01 X35.7745 Y39.4445
G01 X35.7968 Y39.4515
G01 X35.8113 Y39.4571
G01 X35.8325 Y39.4668
G01 X35.8462 Y39.4742
G01 X35.8661 Y39.4864
G01 X35.8788 Y39.4954
G01 X35.8911 Y39.5050
G01 X35.9086 Y39.5204
G01 X35.9249 Y39.5371
G01 X35.9350 Y39.5489
G01 X35.9446 Y39.5612
G01 X35.9578 Y39.5804
G01 X35.9658 Y39.5938
G01 X35.9766 Y39.6145
G01 X35.9858 Y39.6359
G01 X35.9910 Y39.6506
G01 X35.9975 Y39.6730
G01 X36.0023 Y39.6958
G01 X36.0055 Y39.7189
G01 X36.0066 Y39.7344
G01 X36.0070 Y39.7500
G01 X36.0070 Y41.7500
G01 X36.0061 Y41.7733
G01 X36.0036 Y41.7965
G01 X36.0009 Y41.8118
G01 X35.9975 Y41.8270
G01 X35.9910 Y41.8494
G01 X35.9829 Y41.8713
G01 X35.9732 Y41.8925
G01 X35.9619 Y41.9130
G01 X35.9492 Y41.9325
G01 X35.9350 Y41.9511
G01 X35.9196 Y41.9686
G01 X35.9029 Y41.9849
G01 X35.8850 Y41.9999
G01 X35.8725 Y42.0092
G01 X35.8530 Y42.0219
G01 X35.8325 Y42.0332
G01 X35.8113 Y42.0429
G01 X35.7894 Y42.0510
G01 X35.7670 Y42.0575
G01 X35.7442 Y42.0623
G01 X35.7211 Y42.0655
G01 X35.7056 Y42.0666
G01 X35.6900 Y42.0670
G01 X33.6822 Y42.0669
G01 X33.6589 Y42.0655
G01 X33.6435 Y42.0636
G01 X33.6282 Y42.0609
G01 X33.6130 Y42.0575
G01 X33.5980 Y42.0533
G01 X33.5759 Y42.0458
G01 X33.5615 Y42.0398
G01 X33.5475 Y42.0332
G01 X33.5338 Y42.0258
G01 X33.5204 Y42.0178
G01 X33.5075 Y42.0092
G01 X33.4950 Y41.9999
G01 X33.4771 Y41.9849
G01 X33.4604 Y41.9686
G01 X33.4500 Y41.9571
G01 X33.4401 Y41.9450
G01 X33.4308 Y41.9325
G01 X33.4222 Y41.9196
G01 X33.4104 Y41.8994
G01 X33.4002 Y41.8785
G01 X33.3942 Y41.8641
G01 X33.3890 Y41.8494
G01 X33.3845 Y41.8345
G01 X33.3807 Y41.8195
G01 X33.3777 Y41.8042
G01 X33.3754 Y41.7888
G01 X33.3739 Y41.7733
G01 X33.3730 Y41.7500
G01 X33.3730 Y39.7500
G01 X33.3734 Y39.7344
G01 X33.3745 Y39.7189
G01 X33.3764 Y39.7035
G01 X33.3791 Y39.6882
G01 X33.3845 Y39.6655
G01 X33.3915 Y39.6432
G01 X33.3971 Y39.6287
G01 X33.4068 Y39.6075
G01 X33.4142 Y39.5938
G01 X33.4264 Y39.5739
G01 X33.4401 Y39.5550
G01 X33.4551 Y39.5371
G01 X33.4714 Y39.5204
G01 X33.4829 Y39.5100
G01 X33.5012 Y39.4954
G01 X33.5204 Y39.4822
G01 X33.5406 Y39.4704
G01 X33.5615 Y39.4602
G01 X33.5759 Y39.4542
G01 X33.5980 Y39.4467
G01 X33.6205 Y39.4407
G01 X33.6358 Y39.4377
G01 X33.6589 Y39.4345
G01 X33.6822 Y39.4331
G01 X34.2023 Y39.4330
G01 X34.1860 Y39.4267
G01 X34.1718 Y39.4204
G01 X34.0831 Y39.3785
G01 X34.0692 Y39.3715
G01 X34.0556 Y39.3638
G01 X33.9715 Y39.3134
G01 X33.9583 Y39.3050
G01 X33.9456 Y39.2961
G01 X33.8668 Y39.2376
G01 X33.8545 Y39.2281
G01 X33.8427 Y39.2179
G01 X33.7700 Y39.1520
G01 X33.7587 Y39.1413
G01 X33.7480 Y39.1300
G01 X33.6821 Y39.0573
G01 X33.6719 Y39.0455
G01 X33.6624 Y39.0332
G01 X33.6039 Y38.9544
G01 X33.5950 Y38.9417
G01 X33.5866 Y38.9285
G01 X33.5362 Y38.8444
G01 X33.5285 Y38.8308
G01 X33.5215 Y38.8169
G01 X33.4796 Y38.7282
G01 X33.4733 Y38.7140
G01 X33.4677 Y38.6995
G01 X33.4346 Y38.6071
G01 X33.4297 Y38.5923
G01 X33.4256 Y38.5773
G01 X33.4017 Y38.4821
G01 X33.3983 Y38.4669
G01 X33.3956 Y38.4516
G01 X33.3812 Y38.3545
G01 X33.3793 Y38.3391
G01 X33.3782 Y38.3236
G01 X33.3734 Y38.2256
G01 X33.3730 Y38.2100
G01 X33.3734 Y38.1944
G01 X33.3782 Y38.0964
G01 X33.3802 Y38.0732
G01 X33.3956 Y37.9684
G01 X33.3983 Y37.9531
G01 X33.4017 Y37.9379
G01 X33.4256 Y37.8427
G01 X33.4297 Y37.8277
G01 X33.4346 Y37.8129
G01 X33.4677 Y37.7205
G01 X33.4733 Y37.7060
G01 X33.4796 Y37.6918
G01 X33.5215 Y37.6031
G01 X33.5285 Y37.5892
G01 X33.5362 Y37.5756
G01 X33.5866 Y37.4915
G01 X33.5950 Y37.4783
G01 X33.6039 Y37.4656
G01 X33.6624 Y37.3868
G01 X33.6770 Y37.3686
G01 X33.7480 Y37.2900
G01 X33.7587 Y37.2787
G01 X33.7700 Y37.2680
G01 X33.8427 Y37.2021
G01 X33.8545 Y37.1919
G01 X33.8668 Y37.1824
G01 X33.9456 Y37.1239
G01 X33.9648 Y37.1107
G01 X34.0556 Y37.0562
G01 X34.0692 Y37.0485
G01 X34.0831 Y37.0415
G01 X34.1789 Y36.9963
G01 X34.2005 Y36.9877
G01 X34.3003 Y36.9521
G01 X34.3152 Y36.9475
G01 X34.3449 Y36.9400
G01 X34.3152 Y36.9325
G01 X34.3003 Y36.9279
G01 X34.2005 Y36.8923
G01 X34.1789 Y36.8837
G01 X34.0831 Y36.8385
G01 X34.0692 Y36.8315
G01 X34.0556 Y36.8238
G01 X33.9715 Y36.7734
G01 X33.9519 Y36.7606
G01 X33.8668 Y36.6976
G01 X33.8545 Y36.6881
G01 X33.8427 Y36.6779
G01 X33.7700 Y36.6120
G01 X33.7587 Y36.6013
G01 X33.7480 Y36.5900
G01 X33.6821 Y36.5173
G01 X33.6719 Y36.5055
G01 X33.6624 Y36.4932
G01 X33.5994 Y36.4081
G01 X33.5866 Y36.3885
G01 X33.5362 Y36.3044
G01 X33.5285 Y36.2908
G01 X33.5215 Y36.2769
G01 X33.4796 Y36.1882
G01 X33.4733 Y36.1740
G01 X33.4677 Y36.1595
G01 X33.4346 Y36.0671
G01 X33.4297 Y36.0523
G01 X33.4256 Y36.0373
G01 X33.4017 Y35.9421
G01 X33.3983 Y35.9269
G01 X33.3956 Y35.9116
G01 X33.3812 Y35.8145
G01 X33.3793 Y35.7991
G01 X33.3782 Y35.7836
G01 X33.3734 Y35.6856
G01 X33.3730 Y35.6700
G01 X33.3734 Y35.6544
G01 X33.3782 Y35.5564
G01 X33.3793 Y35.5409
G01 X33.3812 Y35.5255
G01 X33.3956 Y35.4284
G01 X33.3983 Y35.4131
G01 X33.4017 Y35.3979
G01 X33.4256 Y35.3027
G01 X33.4297 Y35.2877
G01 X33.4346 Y35.2729
G01 X33.4677 Y35.1805
G01 X33.4733 Y35.1660
G01 X33.4796 Y35.1518
G01 X33.5215 Y35.0631
G01 X33.5285 Y35.0492
G01 X33.5362 Y35.0356
G01 X33.5866 Y34.9515
G01 X33.5950 Y34.9383
G01 X33.6039 Y34.9256
G01 X33.6624 Y34.8468
G01 X33.6770 Y34.8286
G01 X33.7480 Y34.7500
G01 X33.7587 Y34.7387
G01 X33.7700 Y34.7280
G01 X33.8427 Y34.6621
G01 X33.8545 Y34.6519
G01 X33.8668 Y34.6424
G01 X33.9456 Y34.5839
G01 X33.9648 Y34.5707
G01 X34.0556 Y34.5162
G01 X34.0692 Y34.5085
G01 X34.0831 Y34.5015
G01 X34.1789 Y34.4563
G01 X34.2005 Y34.4477
G01 X34.3003 Y34.4121
G01 X34.3152 Y34.4075
G01 X34.3449 Y34.4000
G01 X34.3152 Y34.3925
G01 X34.3003 Y34.3879
G01 X34.1932 Y34.3496
G01 X34.1718 Y34.3404
G01 X34.0831 Y34.2985
G01 X34.0692 Y34.2915
G01 X34.0556 Y34.2838
G01 X33.9648 Y34.2293
G01 X33.9519 Y34.2206
G01 X33.9204 Y34.1974
G01 X32.5921 Y34.1974
G01 X30.6774 Y36.1121
G01 X30.6774 Y42.8479
G01 X31.3221 Y43.4926
G01 X36.7879 Y43.4926
G01 X41.5608 Y38.7198
G01 X41.6211 Y38.6651
G01 X41.6329 Y38.6549
G01 X41.6451 Y38.6453
G01 X41.7043 Y38.6015
G01 X41.7170 Y38.5925
G01 X41.7301 Y38.5842
G01 X41.8000 Y38.5424
G01 X41.8207 Y38.5317
G01 X41.8873 Y38.5002
G01 X41.9015 Y38.4939
G01 X41.9160 Y38.4883
G01 X41.9854 Y38.4635
G01 X42.0002 Y38.4586
G01 X42.0152 Y38.4544
G01 X42.0866 Y38.4365
G01 X42.1018 Y38.4331
G01 X42.1171 Y38.4305
G01 X42.1976 Y38.4186
G01 X42.2209 Y38.4166
G01 X42.2944 Y38.4130
G01 X42.3100 Y38.4126
G01 X68.9800 Y38.4126
G01 X68.9956 Y38.4130
G01 X69.0691 Y38.4166
G01 X69.0846 Y38.4178
G01 X69.1001 Y38.4197
G01 X69.1729 Y38.4305
G01 X69.1882 Y38.4331
G01 X69.2034 Y38.4365
G01 X69.2748 Y38.4544
G01 X69.2898 Y38.4586
G01 X69.3046 Y38.4635
G01 X69.3740 Y38.4883
G01 X69.3885 Y38.4939
G01 X69.4027 Y38.5002
G01 X69.4693 Y38.5317
G01 X69.4832 Y38.5387
G01 X69.4967 Y38.5463
G01 X69.5599 Y38.5842
G01 X69.5730 Y38.5925
G01 X69.5857 Y38.6015
G01 X69.6449 Y38.6453
G01 X69.6571 Y38.6549
G01 X69.6689 Y38.6651
G01 X69.7292 Y38.7198
G01 X72.2802 Y41.2708
G01 X72.3349 Y41.3311
G01 X72.3451 Y41.3429
G01 X72.3547 Y41.3551
G01 X72.3985 Y41.4143
G01 X72.4075 Y41.4270
G01 X72.4158 Y41.4401
G01 X72.4537 Y41.5033
G01 X72.4613 Y41.5168
G01 X72.4683 Y41.5307
G01 X72.5031 Y41.6044
G01 X72.5117 Y41.6260
G01 X72.5365 Y41.6954
G01 X72.5414 Y41.7102
G01 X72.5456 Y41.7252
G01 X72.5635 Y41.7966
G01 X72.5669 Y41.8118
G01 X72.5695 Y41.8271
G01 X72.5803 Y41.8999
G01 X72.5822 Y41.9154
G01 X72.5834 Y41.9309
G01 X72.5873 Y42.0122
G01 X72.5874 Y46.3304
G01 X72.6106 Y46.3619
G01 X72.6193 Y46.3748
G01 X72.6777 Y46.4724
G01 X72.6885 Y46.4931
G01 X72.7304 Y46.5818
G01 X72.7396 Y46.6032
G00 Z2.0000
G00 X72.7774 Y42.0076
G01 F60.00
G01 Z-0.1800
G01 F120.00
G01 X72.7776 Y45.6787
G01 X72.8024 Y45.6631
G01 X72.8024 Y38.7309
G01 X70.9991 Y36.9276
G01 X35.5206 Y36.9276
G01 X35.5005 Y36.9400
G01 X35.5274 Y36.9568
G01 X35.5477 Y36.9711
G01 X35.6265 Y37.0296
G01 X35.6462 Y37.0449
G01 X35.6557 Y37.0529
G01 X35.7377 Y37.1271
G01 X35.7558 Y37.1442
G01 X35.7729 Y37.1623
G01 X35.8471 Y37.2443
G01 X35.8629 Y37.2636
G01 X35.8704 Y37.2735
G01 X35.9289 Y37.3523
G01 X35.9432 Y37.3726
G01 X35.9565 Y37.3937
G01 X36.0070 Y37.4779
G01 X36.0192 Y37.4995
G01 X36.0250 Y37.5106
G01 X36.0776 Y37.6218
G01 X36.0871 Y37.6448
G01 X36.0914 Y37.6564
G01 X36.1285 Y37.7606
G01 X36.1323 Y37.7725
G01 X36.1389 Y37.7965
G01 X36.1628 Y37.8917
G01 X36.1682 Y37.9160
G01 X36.1725 Y37.9405
G01 X36.1886 Y38.0499
G01 X36.1910 Y38.0747
G01 X36.1918 Y38.0871
G01 X36.1966 Y38.1851
G01 X36.1972 Y38.2100
G01 X36.1966 Y38.2349
G01 X36.1918 Y38.3329
G01 X36.1899 Y38.3577
G01 X36.1869 Y38.3824
G01 X36.1725 Y38.4795
G01 X36.1682 Y38.5040
G01 X36.1628 Y38.5283
G01 X36.1389 Y38.6235
G01 X36.1358 Y38.6356
G01 X36.1285 Y38.6594
G01 X36.0914 Y38.7636
G01 X36.0871 Y38.7752
G01 X36.0776 Y38.7982
G01 X36.0250 Y38.9094
G01 X36.0132 Y38.9314
G01 X36.0070 Y38.9421
G01 X35.9500 Y39.0369
G01 X35.9361 Y39.0576
G01 X35.9289 Y39.0677
G01 X35.8704 Y39.1465
G01 X35.8551 Y39.1662
G01 X35.8388 Y39.1850
G01 X35.7792 Y39.2507
G01 X35.8011 Y39.2551
G01 X35.8253 Y39.2612
G01 X35.8372 Y39.2646
G01 X35.8609 Y39.2724
G01 X35.8725 Y39.2768
G01 X35.8955 Y39.2863
G01 X35.9069 Y39.2915
G01 X35.9291 Y39.3027
G01 X35.9508 Y39.3150
G01 X35.9614 Y39.3215
G01 X35.9718 Y39.3283
G01 X35.9921 Y39.3426
G01 X36.0118 Y39.3579
G01 X36.0213 Y39.3659
G01 X36.0397 Y39.3827
G01 X36.0573 Y39.4003
G01 X36.0741 Y39.4187
G01 X36.0821 Y39.4282
G01 X36.0974 Y39.4479
G01 X36.1117 Y39.4682
G01 X36.1185 Y39.4786
G01 X36.1313 Y39.5000
G01 X36.1430 Y39.5220
G01 X36.1485 Y39.5331
G01 X36.1537 Y39.5445
G01 X36.1632 Y39.5675
G01 X36.1676 Y39.5791
G01 X36.1754 Y39.6028
G01 X36.1820 Y39.6268
G01 X36.1849 Y39.6389
G01 X36.1875 Y39.6511
G01 X36.1917 Y39.6756
G01 X36.1934 Y39.6879
G01 X36.1958 Y39.7127
G01 X36.1970 Y39.7376
G01 X36.1972 Y39.7500
G01 X36.1972 Y41.7500
G01 X36.1966 Y41.7749
G01 X36.1948 Y41.7997
G01 X36.1917 Y41.8244
G01 X36.1897 Y41.8367
G01 X36.1849 Y41.8611
G01 X36.1788 Y41.8853
G01 X36.1754 Y41.8972
G01 X36.1676 Y41.9209
G01 X36.1586 Y41.9441
G01 X36.1537 Y41.9555
G01 X36.1485 Y41.9669
G01 X36.1373 Y41.9891
G01 X36.1313 Y42.0000
G01 X36.1185 Y42.0214
G01 X36.1117 Y42.0318
G01 X36.0974 Y42.0521
G01 X36.0821 Y42.0718
G01 X36.0741 Y42.0813
G01 X36.0658 Y42.0906
G01 X36.0486 Y42.1086
G01 X36.0306 Y42.1258
G01 X36.0213 Y42.1341
G01 X36.0020 Y42.1498
G01 X35.9921 Y42.1574
G01 X35.9718 Y42.1717
G01 X35.9614 Y42.1785
G01 X35.9400 Y42.1913
G01 X35.9180 Y42.2030
G01 X35.9069 Y42.2085
G01 X35.8841 Y42.2186
G01 X35.8609 Y42.2276
G01 X35.8491 Y42.2316
G01 X35.8372 Y42.2354
G01 X35.8132 Y42.2420
G01 X35.7889 Y42.2475
G01 X35.7644 Y42.2517
G01 X35.7521 Y42.2534
G01 X35.7397 Y42.2548
G01 X35.7149 Y42.2566
G01 X35.6900 Y42.2572
G01 X33.6900 Y42.2572
G01 X33.6776 Y42.2570
G01 X33.6527 Y42.2558
G01 X33.6279 Y42.2534
G01 X33.6156 Y42.2517
G01 X33.5911 Y42.2475
G01 X33.5668 Y42.2420
G01 X33.5428 Y42.2354
G01 X33.5309 Y42.2316
G01 X33.5075 Y42.2232
G01 X33.4959 Y42.2186
G01 X33.4731 Y42.2085
G01 X33.4509 Y42.1973
G01 X33.4292 Y42.1850
G01 X33.4186 Y42.1785
G01 X33.3980 Y42.1647
G01 X33.3780 Y42.1498
G01 X33.3682 Y42.1421
G01 X33.3494 Y42.1258
G01 X33.3314 Y42.1086
G01 X33.3227 Y42.0997
G01 X33.3059 Y42.0813
G01 X33.2902 Y42.0620
G01 X33.2753 Y42.0420
G01 X33.2683 Y42.0318
G01 X33.2550 Y42.0108
G01 X33.2427 Y41.9891
G01 X33.2370 Y41.9780
G01 X33.2263 Y41.9555
G01 X33.2214 Y41.9441
G01 X33.2124 Y41.9209
G01 X33.2046 Y41.8972
G01 X33.2012 Y41.8853
G01 X33.1980 Y41.8732
G01 X33.1925 Y41.8489
G01 X33.1883 Y41.8244
G01 X33.1852 Y41.7997
G01 X33.1834 Y41.7749
G01 X33.1828 Y41.7500
G01 X33.1828 Y39.7500
G01 X33.1830 Y39.7376
G01 X33.1842 Y39.7127
G01 X33.1866 Y39.6879
G01 X33.1903 Y39.6633
G01 X33.1951 Y39.6389
G01 X33.1980 Y39.6268
G01 X33.2012 Y39.6147
G01 X33.2084 Y39.5909
G01 X33.2168 Y39.5675
G01 X33.2214 Y39.5559
G01 X33.2263 Y39.5445
G01 X33.2370 Y39.5220
G01 X33.2487 Y39.5000
G01 X33.2615 Y39.4786
G01 X33.2683 Y39.4682
G01 X33.2826 Y39.4479
G01 X33.2902 Y39.4380
G01 X33.3059 Y39.4187
G01 X33.3227 Y39.4003
G01 X33.3314 Y39.3914
G01 X33.3403 Y39.3827
G01 X33.3587 Y39.3659
G01 X33.3780 Y39.3502
G01 X33.3879 Y39.3426
G01 X33.3980 Y39.3353
G01 X33.4186 Y39.3215
G01 X33.4400 Y39.3087
G01 X33.4509 Y39.3027
G01 X33.4731 Y39.2915
G01 X33.4845 Y39.2863
G01 X33.5075 Y39.2768
G01 X33.5191 Y39.2724
G01 X33.5428 Y39.2646
G01 X33.5547 Y39.2612
G01 X33.5789 Y39.2551
G01 X33.6008 Y39.2507
G01 X33.5412 Y39.1850
G01 X33.5249 Y39.1662
G01 X33.5096 Y39.1465
G01 X33.4511 Y39.0677
G01 X33.4439 Y39.0576
G01 X33.4300 Y39.0369
G01 X33.3730 Y38.9421
G01 X33.3608 Y38.9205
G01 X33.3550 Y38.9094
G01 X33.3024 Y38.7982
G01 X33.2929 Y38.7752
G01 X33.2886 Y38.7636
G01 X33.2555 Y38.6712
G01 X33.2515 Y38.6594
G01 X33.2442 Y38.6356
G01 X33.2143 Y38.5162
G01 X33.2118 Y38.5040
G01 X33.2075 Y38.4795
G01 X33.1914 Y38.3701
G01 X33.1890 Y38.3453
G01 X33.1882 Y38.3329
G01 X33.1834 Y38.2349
G01 X33.1828 Y38.2100
G01 X33.1834 Y38.1851
G01 X33.1882 Y38.0871
G01 X33.1901 Y38.0623
G01 X33.1931 Y38.0376
G01 X33.2075 Y37.9405
G01 X33.2118 Y37.9160
G01 X33.2172 Y37.8917
G01 X33.2411 Y37.7965
G01 X33.2442 Y37.7844
G01 X33.2515 Y37.7606
G01 X33.2929 Y37.6448
G01 X33.2975 Y37.6332
G01 X33.3076 Y37.6105
G01 X33.3496 Y37.5217
G01 X33.3608 Y37.4995
G01 X33.3730 Y37.4779
G01 X33.4235 Y37.3937
G01 X33.4368 Y37.3726
G01 X33.4511 Y37.3523
G01 X33.5096 Y37.2735
G01 X33.5249 Y37.2538
G01 X33.5412 Y37.2350
G01 X33.6071 Y37.1623
G01 X33.6242 Y37.1442
G01 X33.6423 Y37.1271
G01 X33.7150 Y37.0612
G01 X33.7243 Y37.0529
G01 X33.7436 Y37.0371
G01 X33.8424 Y36.9639
G01 X33.8631 Y36.9500
G01 X33.8795 Y36.9400
G01 X33.8631 Y36.9300
G01 X33.8424 Y36.9161
G01 X33.7535 Y36.8504
G01 X33.7338 Y36.8351
G01 X33.7150 Y36.8188
G01 X33.6423 Y36.7529
G01 X33.6242 Y36.7358
G01 X33.6071 Y36.7177
G01 X33.5412 Y36.6450
G01 X33.5249 Y36.6262
G01 X33.5096 Y36.6065
G01 X33.4511 Y36.5277
G01 X33.4368 Y36.5074
G01 X33.4235 Y36.4863
G01 X33.3730 Y36.4021
G01 X33.3608 Y36.3805
G01 X33.3496 Y36.3583
G01 X33.3076 Y36.2695
G01 X33.2975 Y36.2468
G01 X33.2886 Y36.2236
G01 X33.2555 Y36.1312
G01 X33.2477 Y36.1075
G01 X33.2411 Y36.0835
G01 X33.2172 Y35.9883
G01 X33.2118 Y35.9640
G01 X33.2075 Y35.9395
G01 X33.1931 Y35.8424
G01 X33.1901 Y35.8177
G01 X33.1882 Y35.7929
G01 X33.1834 Y35.6949
G01 X33.1830 Y35.6824
G01 X33.1830 Y35.6576
G01 X33.1890 Y35.5347
G01 X33.1901 Y35.5223
G01 X33.1931 Y35.4976
G01 X33.2075 Y35.4005
G01 X33.2118 Y35.3760
G01 X33.2172 Y35.3517
G01 X33.2411 Y35.2565
G01 X33.2477 Y35.2325
G01 X33.2555 Y35.2088
G01 X33.2886 Y35.1164
G01 X33.2975 Y35.0932
G01 X33.3076 Y35.0705
G01 X33.3496 Y34.9817
G01 X33.3608 Y34.9595
G01 X33.3668 Y34.9486
G01 X33.4300 Y34.8431
G01 X33.4368 Y34.8326
G01 X33.4511 Y34.8123
G01 X33.5096 Y34.7335
G01 X33.5249 Y34.7138
G01 X33.5412 Y34.6950
G01 X33.6156 Y34.6132
G01 X33.6242 Y34.6042
G01 X33.6423 Y34.5871
G01 X33.7150 Y34.5212
G01 X33.7338 Y34.5049
G01 X33.7535 Y34.4896
G01 X33.8424 Y34.4239
G01 X33.8631 Y34.4100
G01 X33.8795 Y34.4000
G01 X33.8594 Y34.3876
G01 X32.6709 Y34.3876
G01 X30.8676 Y36.1909
G01 X30.8676 Y42.7691
G01 X31.4009 Y43.3024
G01 X36.7091 Y43.3024
G01 X41.4208 Y38.5908
G01 X41.4388 Y38.5736
G01 X41.4934 Y38.5241
G01 X41.5122 Y38.5079
G01 X41.5318 Y38.4926
G01 X41.5910 Y38.4487
G01 X41.6113 Y38.4344
G01 X41.6324 Y38.4210
G01 X41.6955 Y38.3832
G01 X41.7172 Y38.3709
G01 X41.7394 Y38.3597
G01 X41.8060 Y38.3282
G01 X41.8287 Y38.3182
G01 X41.8520 Y38.3092
G01 X41.9213 Y38.2844
G01 X41.9449 Y38.2766
G01 X41.9689 Y38.2699
G01 X42.0404 Y38.2520
G01 X42.0647 Y38.2466
G01 X42.0892 Y38.2423
G01 X42.1620 Y38.2315
G01 X42.1867 Y38.2285
G01 X42.2116 Y38.2266
G01 X42.2976 Y38.2226
G01 X68.9800 Y38.2224
G01 X69.0049 Y38.2230
G01 X69.0784 Y38.2266
G01 X69.1033 Y38.2285
G01 X69.1156 Y38.2299
G01 X69.2008 Y38.2423
G01 X69.2253 Y38.2466
G01 X69.2496 Y38.2520
G01 X69.3211 Y38.2699
G01 X69.3331 Y38.2731
G01 X69.3569 Y38.2803
G01 X69.4380 Y38.3092
G01 X69.4613 Y38.3182
G01 X69.4840 Y38.3282
G01 X69.5506 Y38.3597
G01 X69.5728 Y38.3709
G01 X69.5945 Y38.3832
G01 X69.6576 Y38.4210
G01 X69.6787 Y38.4344
G01 X69.6990 Y38.4487
G01 X69.7681 Y38.5001
G01 X69.7873 Y38.5159
G01 X69.8512 Y38.5736
G01 X69.8692 Y38.5908
G01 X72.4179 Y41.1397
G01 X72.4759 Y41.2034
G01 X72.4921 Y41.2222
G01 X72.5074 Y41.2418
G01 X72.5513 Y41.3010
G01 X72.5656 Y41.3213
G01 X72.5790 Y41.3424
G01 X72.6168 Y41.4055
G01 X72.6291 Y41.4272
G01 X72.6403 Y41.4494
G01 X72.6718 Y41.5160
G01 X72.6818 Y41.5387
G01 X72.6908 Y41.5620
G01 X72.7156 Y41.6313
G01 X72.7234 Y41.6549
G01 X72.7301 Y41.6789
G01 X72.7480 Y41.7504
G01 X72.7534 Y41.7747
G01 X72.7577 Y41.7992
G01 X72.7685 Y41.8720
G01 X72.7715 Y41.8967
G01 X72.7734 Y41.9216
G01 X72.7774 Y42.0076
G00 Z2.0000
G00 X63.8870 Y58.5051
G01 F60.00
G01 Z-0.1800
G01 F120.00
G01 X63.8876 Y58.5300
G01 X63.8876 Y58.9694
G01 X63.9000 Y58.9895
G01 X63.9124 Y58.9694
G01 X63.9124 Y55.2409
G01 X63.3791 Y54.7076
G01 X30.8800 Y54.7076
G01 X30.8551 Y54.7070
G01 X30.7816 Y54.7034
G01 X30.7567 Y54.7015
G01 X30.7320 Y54.6985
G01 X30.6592 Y54.6877
G01 X30.6469 Y54.6857
G01 X30.6225 Y54.6808
G01 X30.5269 Y54.6569
G01 X30.5149 Y54.6534
G01 X30.4913 Y54.6456
G01 X30.4220 Y54.6208
G01 X30.3987 Y54.6118
G01 X30.3760 Y54.6018
G01 X30.2982 Y54.5648
G01 X30.2763 Y54.5531
G01 X30.2655 Y54.5468
G01 X30.2024 Y54.5090
G01 X30.1813 Y54.4956
G01 X30.1610 Y54.4813
G01 X30.0919 Y54.4299
G01 X30.0727 Y54.4141
G01 X30.0634 Y54.4059
G01 X30.0088 Y54.3564
G01 X29.9908 Y54.3392
G01 X28.7121 Y53.0603
G01 X28.6541 Y52.9966
G01 X28.6379 Y52.9778
G01 X28.6226 Y52.9582
G01 X28.5787 Y52.8990
G01 X28.5644 Y52.8787
G01 X28.5576 Y52.8682
G01 X28.5132 Y52.7945
G01 X28.5009 Y52.7728
G01 X28.4897 Y52.7506
G01 X28.4582 Y52.6840
G01 X28.4482 Y52.6613
G01 X28.4392 Y52.6380
G01 X28.4144 Y52.5687
G01 X28.4066 Y52.5451
G01 X28.3999 Y52.5211
G01 X28.3820 Y52.4496
G01 X28.3766 Y52.4253
G01 X28.3723 Y52.4008
G01 X28.3615 Y52.3280
G01 X28.3599 Y52.3156
G01 X28.3574 Y52.2909
G01 X28.3530 Y52.2049
G01 X28.3524 Y52.1800
G01 X28.3524 Y50.4706
G01 X28.3400 Y50.4505
G01 X28.3276 Y50.4706
G01 X28.3276 Y54.1991
G01 X28.8609 Y54.7324
G01 X60.0900 Y54.7324
G01 X60.1149 Y54.7330
G01 X60.1884 Y54.7366
G01 X60.2133 Y54.7385
G01 X60.2380 Y54.7415
G01 X60.3231 Y54.7543
G01 X60.3475 Y54.7592
G01 X60.3596 Y54.7620
G01 X60.4311 Y54.7799
G01 X60.4551 Y54.7866
G01 X60.4787 Y54.7944
G01 X60.5480 Y54.8192
G01 X60.5713 Y54.8282
G01 X60.5940 Y54.8382
G01 X60.6606 Y54.8697
G01 X60.6828 Y54.8809
G01 X60.7045 Y54.8932
G01 X60.7676 Y54.9310
G01 X60.7887 Y54.9444
G01 X60.8090 Y54.9587
G01 X60.8781 Y55.0101
G01 X60.8973 Y55.0259
G01 X60.9612 Y55.0836
G01 X60.9792 Y55.1008
G01 X63.5279 Y57.6497
G01 X63.5859 Y57.7134
G01 X63.6021 Y57.7322
G01 X63.6174 Y57.7518
G01 X63.6613 Y57.8110
G01 X63.6756 Y57.8313
G01 X63.6890 Y57.8524
G01 X63.7268 Y57.9155
G01 X63.7391 Y57.9372
G01 X63.7503 Y57.9594
G01 X63.7818 Y58.0260
G01 X63.7918 Y58.0487
G01 X63.8008 Y58.0720
G01 X63.8256 Y58.1413
G01 X63.8334 Y58.1649
G01 X63.8401 Y58.1889
G01 X63.8580 Y58.2604
G01 X63.8634 Y58.2847
G01 X63.8677 Y58.3092
G01 X63.8785 Y58.3820
G01 X63.8815 Y58.4067
G01 X63.8834 Y58.4316
G01 X63.8870 Y58.5051
G00 Z2.0000
G00 X63.8523 Y59.3105
G01 F60.00
G01 Z-0.1800
G01 F120.00
G01 X63.8879 Y59.4103
G01 X63.8925 Y59.4252
G01 X63.9000 Y59.4549
G01 X63.9075 Y59.4252
G01 X63.9121 Y59.4103
G01 X63.9504 Y59.3032
G01 X63.9596 Y59.2818
G01 X64.0015 Y59.1931
G01 X64.0085 Y59.1792
G01 X64.0162 Y59.1656
G01 X64.0707 Y59.0748
G01 X64.0794 Y59.0619
G01 X64.1026 Y59.0304
G01 X64.1026 Y55.1621
G01 X63.4579 Y54.5174
G01 X30.8800 Y54.5174
G01 X30.8644 Y54.5170
G01 X30.7909 Y54.5134
G01 X30.7676 Y54.5114
G01 X30.6871 Y54.4995
G01 X30.6718 Y54.4969
G01 X30.6566 Y54.4935
G01 X30.5852 Y54.4756
G01 X30.5702 Y54.4714
G01 X30.5554 Y54.4665
G01 X30.4860 Y54.4417
G01 X30.4715 Y54.4361
G01 X30.4573 Y54.4298
G01 X30.3907 Y54.3983
G01 X30.3768 Y54.3913
G01 X30.3633 Y54.3837
G01 X30.3001 Y54.3458
G01 X30.2870 Y54.3375
G01 X30.2743 Y54.3285
G01 X30.2151 Y54.2847
G01 X30.1969 Y54.2701
G01 X30.1365 Y54.2155
G01 X30.1253 Y54.2047
G01 X28.8553 Y52.9347
G01 X28.8445 Y52.9235
G01 X28.7951 Y52.8689
G01 X28.7849 Y52.8571
G01 X28.7753 Y52.8449
G01 X28.7315 Y52.7857
G01 X28.7183 Y52.7665
G01 X28.6724 Y52.6900
G01 X28.6617 Y52.6693
G01 X28.6302 Y52.6027
G01 X28.6239 Y52.5885
G01 X28.6183 Y52.5740
G01 X28.5935 Y52.5046
G01 X28.5886 Y52.4898
G01 X28.5844 Y52.4748
G01 X28.5665 Y52.4034
G01 X28.5631 Y52.3882
G01 X28.5605 Y52.3729
G01 X28.5497 Y52.3001
G01 X28.5471 Y52.2769
G01 X28.5430 Y52.1956
G01 X28.5426 Y52.1800
G01 X28.5426 Y50.4096
G01 X28.5194 Y50.3781
G01 X28.5107 Y50.3652
G01 X28.4562 Y50.2744
G01 X28.4485 Y50.2608
G01 X28.4415 Y50.2469
G01 X28.3996 Y50.1582
G01 X28.3904 Y50.1368
G01 X28.3521 Y50.0297
G01 X28.3475 Y50.0148
G01 X28.3400 Y49.9851
G01 X28.3325 Y50.0148
G01 X28.3279 Y50.0297
G01 X28.2896 Y50.1368
G01 X28.2804 Y50.1582
G01 X28.2385 Y50.2469
G01 X28.2315 Y50.2608
