(G-CODE GENERATED BY FLATCAM v8.994 - www.flatcam.org - Version Date: 2020/11/7)

(Name: stoplight-Edge_Cuts.gbr_iso_combined_cnc)
(Type: G-code from Geometry)
(Units: MM)

(Created on quarta, 19 janeiro 2022 at 20:36)

(This preprocessor is the default preprocessor used by FlatCAM.)
(It is made to work with MACH3 compatible motion controllers.)

(TOOL DIAMETER: 0.1 mm)
(Feedrate_XY: 120.0 mm/min)
(Feedrate_Z: 60.0 mm/min)
(Feedrate rapids 1500.0 mm/min)

(Z_Cut: -0.3 mm)
(Z_Move: 2.0 mm)
(Z Start: None mm)
(Z End: 15.0 mm)
(X,Y End: None mm)
(Steps per circle: 64)
(Preprocessor Geometry: default)

(X range:    1.4500 ...   84.4400  mm)
(Y range:    1.1600 ...   68.9100  mm)

(Spindle Speed: 0.0 RPM)
G21
G90
G94

G01 F120.00

M5
G00 Z15.0000
G00 X0.0000 Y0.0000
T1
M6    
(MSG, Change to Tool Dia = 0.1000)
M0
G00 Z15.0000

M03
G01 F120.00
G00 X1.5600 Y33.1325
G01 F60.00
G01 Z-0.3000
G01 F120.00
G01 X1.5600 Y1.3800
G01 X1.5605 Y1.3692
G01 X1.5621 Y1.3585
G01 X1.5651 Y1.3469
G01 X1.5693 Y1.3356
G01 X1.5730 Y1.3281
G01 X1.5772 Y1.3209
G01 X1.5834 Y1.3121
G01 X1.5913 Y1.3031
G01 X1.6002 Y1.2949
G01 X1.6089 Y1.2885
G01 X1.6181 Y1.2830
G01 X1.6279 Y1.2783
G01 X1.6357 Y1.2755
G01 X1.6510 Y1.2717
G01 X1.6592 Y1.2705
G01 X1.6700 Y1.2700
G01 X41.0400 Y1.2700
G01 X41.0508 Y1.2705
G01 X41.0615 Y1.2721
G01 X41.0731 Y1.2751
G01 X41.0844 Y1.2793
G01 X41.0919 Y1.2830
G01 X41.0991 Y1.2872
G01 X41.1079 Y1.2934
G01 X41.1169 Y1.3013
G01 X41.1251 Y1.3102
G01 X41.1328 Y1.3209
G01 X41.1370 Y1.3281
G01 X41.1417 Y1.3379
G01 X41.1459 Y1.3504
G01 X41.1479 Y1.3585
G01 X41.1495 Y1.3692
G01 X41.1500 Y1.3800
G01 X41.1497 Y1.3883
G01 X41.1479 Y1.4015
G01 X41.1445 Y1.4143
G01 X41.1417 Y1.4221
G01 X41.1381 Y1.4297
G01 X41.1308 Y1.4421
G01 X41.1251 Y1.4498
G01 X41.1195 Y1.4560
G01 X41.1098 Y1.4651
G01 X41.0991 Y1.4728
G01 X41.0919 Y1.4770
G01 X41.0844 Y1.4807
G01 X41.0719 Y1.4853
G01 X41.0615 Y1.4879
G01 X41.0532 Y1.4892
G01 X41.0400 Y1.4900
G01 X1.7800 Y1.4900
G01 X1.7800 Y33.1300
G01 X1.7795 Y33.1408
G01 X1.7779 Y33.1515
G01 X1.7753 Y33.1619
G01 X1.7717 Y33.1721
G01 X1.7670 Y33.1819
G01 X1.7615 Y33.1911
G01 X1.7551 Y33.1998
G01 X1.7478 Y33.2078
G01 X1.7398 Y33.2151
G01 X1.7311 Y33.2215
G01 X1.7219 Y33.2270
G01 X1.7121 Y33.2317
G01 X1.7019 Y33.2353
G01 X1.6915 Y33.2379
G01 X1.6808 Y33.2395
G01 X1.6700 Y33.2400
G01 X1.6592 Y33.2395
G01 X1.6485 Y33.2379
G01 X1.6381 Y33.2353
G01 X1.6279 Y33.2317
G01 X1.6181 Y33.2270
G01 X1.6089 Y33.2215
G01 X1.6002 Y33.2151
G01 X1.5922 Y33.2078
G01 X1.5849 Y33.1998
G01 X1.5785 Y33.1911
G01 X1.5730 Y33.1819
G01 X1.5683 Y33.1721
G01 X1.5647 Y33.1619
G01 X1.5621 Y33.1515
G01 X1.5605 Y33.1408
G01 X1.5600 Y33.1325
G00 Z2.0000
G00 X1.5051 Y33.1352
G01 F60.00
G01 Z-0.3000
G01 F120.00
G01 X1.5050 Y1.3800
G01 X1.5058 Y1.3638
G01 X1.5087 Y1.3453
G01 X1.5129 Y1.3296
G01 X1.5166 Y1.3192
G01 X1.5196 Y1.3121
G01 X1.5245 Y1.3022
G01 X1.5300 Y1.2927
G01 X1.5342 Y1.2862
G01 X1.5408 Y1.2773
G01 X1.5533 Y1.2633
G01 X1.5653 Y1.2524
G01 X1.5783 Y1.2428
G01 X1.5899 Y1.2357
G01 X1.6045 Y1.2285
G01 X1.6172 Y1.2237
G01 X1.6271 Y1.2207
G01 X1.6403 Y1.2177
G01 X1.6538 Y1.2158
G01 X1.6700 Y1.2150
G01 X41.0400 Y1.2150
G01 X41.0562 Y1.2158
G01 X41.0747 Y1.2187
G01 X41.0904 Y1.2229
G01 X41.1008 Y1.2266
G01 X41.1079 Y1.2296
G01 X41.1178 Y1.2345
G01 X41.1273 Y1.2400
G01 X41.1338 Y1.2442
G01 X41.1427 Y1.2508
G01 X41.1567 Y1.2633
G01 X41.1676 Y1.2753
G01 X41.1758 Y1.2862
G01 X41.1800 Y1.2927
G01 X41.1867 Y1.3045
G01 X41.1925 Y1.3168
G01 X41.1971 Y1.3296
G01 X41.1993 Y1.3371
G01 X41.2019 Y1.3478
G01 X41.2040 Y1.3613
G01 X41.2046 Y1.3690
G01 X41.2050 Y1.3826
G01 X41.2042 Y1.3962
G01 X41.2023 Y1.4097
G01 X41.1993 Y1.4229
G01 X41.1971 Y1.4304
G01 X41.1925 Y1.4432
G01 X41.1879 Y1.4532
G01 X41.1843 Y1.4601
G01 X41.1772 Y1.4717
G01 X41.1692 Y1.4827
G01 X41.1642 Y1.4886
G01 X41.1567 Y1.4967
G01 X41.1467 Y1.5059
G01 X41.1406 Y1.5107
G01 X41.1295 Y1.5186
G01 X41.1178 Y1.5255
G01 X41.1079 Y1.5304
G01 X41.1008 Y1.5334
G01 X41.0879 Y1.5379
G01 X41.0747 Y1.5413
G01 X41.0613 Y1.5436
G01 X41.0536 Y1.5445
G01 X41.0400 Y1.5450
G01 X1.8350 Y1.5450
G01 X1.8350 Y33.1300
G01 X1.8342 Y33.1462
G01 X1.8319 Y33.1622
G01 X1.8279 Y33.1779
G01 X1.8225 Y33.1932
G01 X1.8155 Y33.2078
G01 X1.8072 Y33.2217
G01 X1.7976 Y33.2347
G01 X1.7867 Y33.2467
G01 X1.7747 Y33.2576
G01 X1.7617 Y33.2672
G01 X1.7478 Y33.2755
G01 X1.7332 Y33.2825
G01 X1.7179 Y33.2879
G01 X1.7022 Y33.2919
G01 X1.6862 Y33.2942
G01 X1.6726 Y33.2950
G01 X1.6564 Y33.2945
G01 X1.6403 Y33.2923
G01 X1.6246 Y33.2886
G01 X1.6092 Y33.2834
G01 X1.5945 Y33.2767
G01 X1.5805 Y33.2686
G01 X1.5673 Y33.2592
G01 X1.5552 Y33.2485
G01 X1.5441 Y33.2367
G01 X1.5342 Y33.2238
G01 X1.5257 Y33.2101
G01 X1.5185 Y33.1955
G01 X1.5129 Y33.1804
G01 X1.5087 Y33.1647
G01 X1.5060 Y33.1487
G01 X1.5051 Y33.1352
G00 Z2.0000
G00 X1.4502 Y33.1379
G01 F60.00
G01 Z-0.3000
G01 F120.00
G01 X1.4500 Y1.3800
G01 X1.4510 Y1.3584
G01 X1.4529 Y1.3448
G01 X1.4550 Y1.3332
G01 X1.4606 Y1.3124
G01 X1.4653 Y1.2994
G01 X1.4699 Y1.2886
G01 X1.4760 Y1.2763
G01 X1.4829 Y1.2644
G01 X1.4893 Y1.2545
G01 X1.4975 Y1.2435
G01 X1.5050 Y1.2345
G01 X1.5144 Y1.2244
G01 X1.5304 Y1.2099
G01 X1.5478 Y1.1971
G01 X1.5628 Y1.1878
G01 X1.5822 Y1.1783
G01 X1.5987 Y1.1719
G01 X1.6137 Y1.1673
G01 X1.6309 Y1.1635
G01 X1.6484 Y1.1610
G01 X1.6700 Y1.1600
G01 X41.0400 Y1.1600
G01 X41.0616 Y1.1610
G01 X41.0752 Y1.1629
G01 X41.0868 Y1.1650
G01 X41.1076 Y1.1706
G01 X41.1206 Y1.1753
G01 X41.1314 Y1.1799
G01 X41.1437 Y1.1860
G01 X41.1556 Y1.1929
G01 X41.1655 Y1.1993
G01 X41.1765 Y1.2075
G01 X41.1855 Y1.2150
G01 X41.1956 Y1.2244
G01 X41.2101 Y1.2404
G01 X41.2207 Y1.2545
G01 X41.2271 Y1.2644
G01 X41.2359 Y1.2798
G01 X41.2433 Y1.2958
G01 X41.2494 Y1.3124
G01 X41.2527 Y1.3237
G01 X41.2558 Y1.3371
G01 X41.2585 Y1.3545
G01 X41.2595 Y1.3663
G01 X41.2600 Y1.3839
G01 X41.2590 Y1.4016
G01 X41.2565 Y1.4191
G01 X41.2527 Y1.4363
G01 X41.2494 Y1.4476
G01 X41.2433 Y1.4642
G01 X41.2376 Y1.4767
G01 X41.2322 Y1.4872
G01 X41.2229 Y1.5022
G01 X41.2125 Y1.5165
G01 X41.2050 Y1.5255
G01 X41.1956 Y1.5356
G01 X41.1826 Y1.5476
G01 X41.1734 Y1.5549
G01 X41.1590 Y1.5651
G01 X41.1437 Y1.5740
G01 X41.1314 Y1.5801
G01 X41.1206 Y1.5847
G01 X41.1039 Y1.5906
G01 X41.0868 Y1.5950
G01 X41.0694 Y1.5980
G01 X41.0577 Y1.5993
G01 X41.0400 Y1.6000
G01 X1.8900 Y1.6000
G01 X1.8900 Y33.1339
G01 X1.8890 Y33.1516
G01 X1.8858 Y33.1729
G01 X1.8806 Y33.1939
G01 X1.8733 Y33.2142
G01 X1.8640 Y33.2337
G01 X1.8529 Y33.2522
G01 X1.8401 Y33.2696
G01 X1.8256 Y33.2856
G01 X1.8096 Y33.3001
G01 X1.7922 Y33.3129
G01 X1.7737 Y33.3240
G01 X1.7542 Y33.3333
G01 X1.7339 Y33.3406
G01 X1.7129 Y33.3458
G01 X1.6916 Y33.3490
G01 X1.6700 Y33.3500
G01 X1.6484 Y33.3490
G01 X1.6271 Y33.3458
G01 X1.6061 Y33.3406
G01 X1.5858 Y33.3333
G01 X1.5663 Y33.3240
G01 X1.5478 Y33.3129
G01 X1.5304 Y33.3001
G01 X1.5172 Y33.2883
G01 X1.5024 Y33.2726
G01 X1.4893 Y33.2555
G01 X1.4778 Y33.2372
G01 X1.4683 Y33.2178
G01 X1.4606 Y33.1976
G01 X1.4550 Y33.1768
G01 X1.4515 Y33.1555
G01 X1.4502 Y33.1379
G00 Z2.0000
G00 X1.5600 Y68.6925
G01 F60.00
G01 Z-0.3000
G01 F120.00
G01 X1.5600 Y35.6700
G01 X1.5605 Y35.6592
G01 X1.5621 Y35.6485
G01 X1.5647 Y35.6381
G01 X1.5683 Y35.6279
G01 X1.5730 Y35.6181
G01 X1.5785 Y35.6089
G01 X1.5849 Y35.6002
G01 X1.5922 Y35.5922
G01 X1.6002 Y35.5849
G01 X1.6089 Y35.5785
G01 X1.6181 Y35.5730
G01 X1.6279 Y35.5683
G01 X1.6381 Y35.5647
G01 X1.6485 Y35.5621
G01 X1.6592 Y35.5605
G01 X1.6700 Y35.5600
G01 X1.6808 Y35.5605
G01 X1.6915 Y35.5621
G01 X1.7019 Y35.5647
G01 X1.7121 Y35.5683
G01 X1.7219 Y35.5730
G01 X1.7311 Y35.5785
G01 X1.7398 Y35.5849
G01 X1.7478 Y35.5922
G01 X1.7551 Y35.6002
G01 X1.7615 Y35.6089
G01 X1.7670 Y35.6181
G01 X1.7717 Y35.6279
G01 X1.7753 Y35.6381
G01 X1.7779 Y35.6485
G01 X1.7795 Y35.6592
G01 X1.7800 Y35.6700
G01 X1.7800 Y68.5800
G01 X42.3100 Y68.5800
G01 X42.3208 Y68.5805
G01 X42.3315 Y68.5821
G01 X42.3419 Y68.5847
G01 X42.3521 Y68.5883
G01 X42.3619 Y68.5930
G01 X42.3711 Y68.5985
G01 X42.3798 Y68.6049
G01 X42.3878 Y68.6122
G01 X42.3951 Y68.6202
G01 X42.4015 Y68.6289
G01 X42.4070 Y68.6381
G01 X42.4117 Y68.6479
G01 X42.4153 Y68.6581
G01 X42.4179 Y68.6685
G01 X42.4195 Y68.6792
G01 X42.4200 Y68.6900
G01 X42.4195 Y68.7008
G01 X42.4179 Y68.7115
G01 X42.4153 Y68.7219
G01 X42.4117 Y68.7321
G01 X42.4070 Y68.7419
G01 X42.4015 Y68.7511
G01 X42.3951 Y68.7598
G01 X42.3878 Y68.7678
G01 X42.3798 Y68.7751
G01 X42.3711 Y68.7815
G01 X42.3619 Y68.7870
G01 X42.3521 Y68.7917
G01 X42.3419 Y68.7953
G01 X42.3315 Y68.7979
G01 X42.3208 Y68.7995
G01 X42.3100 Y68.8000
G01 X1.6700 Y68.8000
G01 X1.6592 Y68.7995
G01 X1.6485 Y68.7979
G01 X1.6381 Y68.7953
G01 X1.6279 Y68.7917
G01 X1.6181 Y68.7870
G01 X1.6089 Y68.7815
G01 X1.6002 Y68.7751
G01 X1.5922 Y68.7678
G01 X1.5849 Y68.7598
G01 X1.5785 Y68.7511
G01 X1.5730 Y68.7419
G01 X1.5683 Y68.7321
G01 X1.5647 Y68.7219
G01 X1.5621 Y68.7115
G01 X1.5605 Y68.7008
G01 X1.5600 Y68.6925
G00 Z2.0000
G00 X1.5051 Y68.6952
G01 F60.00
G01 Z-0.3000
G01 F120.00
G01 X1.5050 Y35.6700
G01 X1.5058 Y35.6538
G01 X1.5081 Y35.6378
G01 X1.5121 Y35.6221
G01 X1.5175 Y35.6068
G01 X1.5245 Y35.5922
G01 X1.5328 Y35.5783
G01 X1.5424 Y35.5653
G01 X1.5533 Y35.5533
G01 X1.5653 Y35.5424
G01 X1.5783 Y35.5328
G01 X1.5922 Y35.5245
G01 X1.6068 Y35.5175
G01 X1.6221 Y35.5121
G01 X1.6378 Y35.5081
G01 X1.6538 Y35.5058
G01 X1.6700 Y35.5050
G01 X1.6862 Y35.5058
G01 X1.7022 Y35.5081
G01 X1.7179 Y35.5121
G01 X1.7332 Y35.5175
G01 X1.7478 Y35.5245
G01 X1.7617 Y35.5328
G01 X1.7747 Y35.5424
G01 X1.7867 Y35.5533
G01 X1.7976 Y35.5653
G01 X1.8072 Y35.5783
G01 X1.8155 Y35.5922
G01 X1.8225 Y35.6068
G01 X1.8279 Y35.6221
G01 X1.8319 Y35.6378
G01 X1.8342 Y35.6538
G01 X1.8350 Y35.6700
G01 X1.8350 Y68.5250
G01 X42.3100 Y68.5250
G01 X42.3262 Y68.5258
G01 X42.3422 Y68.5281
G01 X42.3579 Y68.5321
G01 X42.3732 Y68.5375
G01 X42.3878 Y68.5445
G01 X42.4017 Y68.5528
G01 X42.4147 Y68.5624
G01 X42.4267 Y68.5733
G01 X42.4376 Y68.5853
G01 X42.4472 Y68.5983
G01 X42.4555 Y68.6122
G01 X42.4625 Y68.6268
G01 X42.4679 Y68.6421
G01 X42.4719 Y68.6578
G01 X42.4742 Y68.6738
G01 X42.4750 Y68.6900
G01 X42.4742 Y68.7062
G01 X42.4719 Y68.7222
G01 X42.4679 Y68.7379
G01 X42.4625 Y68.7532
G01 X42.4555 Y68.7678
G01 X42.4472 Y68.7817
G01 X42.4376 Y68.7947
G01 X42.4267 Y68.8067
G01 X42.4147 Y68.8176
G01 X42.4017 Y68.8272
G01 X42.3878 Y68.8355
G01 X42.3732 Y68.8425
G01 X42.3579 Y68.8479
G01 X42.3422 Y68.8519
G01 X42.3262 Y68.8542
G01 X42.3100 Y68.8550
G01 X1.6700 Y68.8550
G01 X1.6538 Y68.8542
G01 X1.6378 Y68.8519
G01 X1.6221 Y68.8479
G01 X1.6068 Y68.8425
G01 X1.5922 Y68.8355
G01 X1.5783 Y68.8272
G01 X1.5653 Y68.8176
G01 X1.5552 Y68.8085
G01 X1.5441 Y68.7967
G01 X1.5342 Y68.7838
G01 X1.5257 Y68.7701
G01 X1.5185 Y68.7555
G01 X1.5129 Y68.7404
G01 X1.5087 Y68.7247
G01 X1.5060 Y68.7087
G01 X1.5051 Y68.6952
G00 Z2.0000
G00 X1.4502 Y68.6979
G01 F60.00
G01 Z-0.3000
G01 F120.00
G01 X1.4500 Y35.6700
G01 X1.4510 Y35.6484
G01 X1.4542 Y35.6271
G01 X1.4594 Y35.6061
G01 X1.4667 Y35.5858
G01 X1.4760 Y35.5663
G01 X1.4871 Y35.5478
G01 X1.4999 Y35.5304
G01 X1.5144 Y35.5144
G01 X1.5304 Y35.4999
G01 X1.5478 Y35.4871
G01 X1.5663 Y35.4760
G01 X1.5858 Y35.4667
G01 X1.6061 Y35.4594
G01 X1.6271 Y35.4542
G01 X1.6484 Y35.4510
G01 X1.6700 Y35.4500
G01 X1.6916 Y35.4510
G01 X1.7129 Y35.4542
G01 X1.7339 Y35.4594
G01 X1.7542 Y35.4667
G01 X1.7737 Y35.4760
G01 X1.7922 Y35.4871
G01 X1.8096 Y35.4999
G01 X1.8256 Y35.5144
G01 X1.8401 Y35.5304
G01 X1.8529 Y35.5478
G01 X1.8640 Y35.5663
G01 X1.8733 Y35.5858
G01 X1.8806 Y35.6061
G01 X1.8858 Y35.6271
G01 X1.8890 Y35.6484
G01 X1.8900 Y35.6700
G01 X1.8900 Y68.4700
G01 X42.3100 Y68.4700
G01 X42.3316 Y68.4710
G01 X42.3529 Y68.4742
G01 X42.3739 Y68.4794
G01 X42.3942 Y68.4867
G01 X42.4137 Y68.4960
G01 X42.4322 Y68.5071
G01 X42.4496 Y68.5199
G01 X42.4656 Y68.5344
G01 X42.4801 Y68.5504
G01 X42.4929 Y68.5678
G01 X42.5040 Y68.5863
G01 X42.5133 Y68.6058
G01 X42.5206 Y68.6261
G01 X42.5258 Y68.6471
G01 X42.5290 Y68.6684
G01 X42.5300 Y68.6900
G01 X42.5290 Y68.7116
G01 X42.5258 Y68.7329
G01 X42.5206 Y68.7539
G01 X42.5133 Y68.7742
G01 X42.5040 Y68.7937
G01 X42.4929 Y68.8122
G01 X42.4801 Y68.8296
G01 X42.4656 Y68.8456
G01 X42.4496 Y68.8601
G01 X42.4322 Y68.8729
G01 X42.4137 Y68.8840
G01 X42.3942 Y68.8933
G01 X42.3739 Y68.9006
G01 X42.3529 Y68.9058
G01 X42.3316 Y68.9090
G01 X42.3100 Y68.9100
G01 X1.6700 Y68.9100
G01 X1.6484 Y68.9090
G01 X1.6271 Y68.9058
G01 X1.6061 Y68.9006
G01 X1.5858 Y68.8933
G01 X1.5663 Y68.8840
G01 X1.5478 Y68.8729
G01 X1.5304 Y68.8601
G01 X1.5172 Y68.8483
G01 X1.5024 Y68.8326
G01 X1.4893 Y68.8155
G01 X1.4778 Y68.7972
G01 X1.4683 Y68.7778
G01 X1.4606 Y68.7576
G01 X1.4550 Y68.7368
G01 X1.4515 Y68.7155
G01 X1.4502 Y68.6979
G00 Z2.0000
G00 X44.7658 Y68.4867
G01 F60.00
G01 Z-0.3000
G01 F120.00
G01 X44.7861 Y68.4794
G01 X44.8071 Y68.4742
G01 X44.8284 Y68.4710
G01 X44.8500 Y68.4700
G01 X84.0000 Y68.4700
G01 X84.0000 Y35.6700
G01 X84.0007 Y35.6523
G01 X84.0020 Y35.6406
G01 X84.0050 Y35.6232
G01 X84.0094 Y35.6061
G01 X84.0153 Y35.5894
G01 X84.0224 Y35.5733
G01 X84.0298 Y35.5594
G01 X84.0393 Y35.5445
G01 X84.0499 Y35.5304
G01 X84.0617 Y35.5172
G01 X84.0701 Y35.5090
G01 X84.0835 Y35.4975
G01 X84.0978 Y35.4871
G01 X84.1128 Y35.4778
G01 X84.1286 Y35.4699
G01 X84.1431 Y35.4639
G01 X84.1599 Y35.4584
G01 X84.1771 Y35.4542
G01 X84.1945 Y35.4515
G01 X84.2121 Y35.4502
G01 X84.2279 Y35.4502
G01 X84.2455 Y35.4515
G01 X84.2629 Y35.4542
G01 X84.2801 Y35.4584
G01 X84.2969 Y35.4639
G01 X84.3114 Y35.4699
G01 X84.3272 Y35.4778
G01 X84.3422 Y35.4871
G01 X84.3565 Y35.4975
G01 X84.3699 Y35.5090
G01 X84.3783 Y35.5172
G01 X84.3901 Y35.5304
G01 X84.4029 Y35.5478
G01 X84.4122 Y35.5628
G01 X84.4217 Y35.5822
G01 X84.4281 Y35.5987
G01 X84.4327 Y35.6137
G01 X84.4365 Y35.6309
G01 X84.4390 Y35.6484
G01 X84.4400 Y35.6700
G01 X84.4400 Y68.6900
G01 X84.4390 Y68.7116
G01 X84.4371 Y68.7252
G01 X84.4350 Y68.7368
G01 X84.4294 Y68.7576
G01 X84.4247 Y68.7706
G01 X84.4201 Y68.7814
G01 X84.4140 Y68.7937
G01 X84.4071 Y68.8056
G01 X84.4007 Y68.8155
G01 X84.3925 Y68.8265
G01 X84.3850 Y68.8355
G01 X84.3756 Y68.8456
G01 X84.3596 Y68.8601
G01 X84.3422 Y68.8729
G01 X84.3272 Y68.8822
G01 X84.3078 Y68.8917
G01 X84.2913 Y68.8981
G01 X84.2763 Y68.9027
G01 X84.2591 Y68.9065
G01 X84.2416 Y68.9090
G01 X84.2200 Y68.9100
G01 X44.8500 Y68.9100
G01 X44.8284 Y68.9090
G01 X44.8109 Y68.9065
G01 X44.7937 Y68.9027
G01 X44.7787 Y68.8981
G01 X44.7622 Y68.8917
G01 X44.7428 Y68.8822
G01 X44.7278 Y68.8729
G01 X44.7104 Y68.8601
G01 X44.6944 Y68.8456
G01 X44.6824 Y68.8326
G01 X44.6716 Y68.8187
G01 X44.6629 Y68.8056
G01 X44.6541 Y68.7902
G01 X44.6453 Y68.7706
G01 X44.6394 Y68.7539
G01 X44.6342 Y68.7329
G01 X44.6310 Y68.7116
G01 X44.6300 Y68.6939
G01 X44.6305 Y68.6763
G01 X44.6320 Y68.6606
G01 X44.6350 Y68.6432
G01 X44.6406 Y68.6224
G01 X44.6467 Y68.6058
G01 X44.6560 Y68.5863
G01 X44.6671 Y68.5678
G01 X44.6775 Y68.5535
G01 X44.6890 Y68.5401
G01 X44.7001 Y68.5290
G01 X44.7135 Y68.5175
G01 X44.7310 Y68.5049
G01 X44.7463 Y68.4960
G01 X44.7658 Y68.4867
G00 Z2.0000
G00 X44.7868 Y68.5375
G01 F60.00
G01 Z-0.3000
G01 F120.00
G01 X44.8021 Y68.5321
G01 X44.8178 Y68.5281
G01 X44.8338 Y68.5258
G01 X44.8500 Y68.5250
G01 X84.0550 Y68.5250
G01 X84.0550 Y35.6700
G01 X84.0555 Y35.6564
G01 X84.0564 Y35.6487
G01 X84.0587 Y35.6353
G01 X84.0621 Y35.6221
G01 X84.0666 Y35.6092
G01 X84.0721 Y35.5968
G01 X84.0770 Y35.5877
G01 X84.0842 Y35.5762
G01 X84.0924 Y35.5653
G01 X84.1015 Y35.5552
G01 X84.1070 Y35.5498
G01 X84.1173 Y35.5408
G01 X84.1283 Y35.5328
G01 X84.1399 Y35.5257
G01 X84.1521 Y35.5196
G01 X84.1617 Y35.5157
G01 X84.1746 Y35.5114
G01 X84.1878 Y35.5081
G01 X84.2013 Y35.5060
G01 X84.2148 Y35.5051
G01 X84.2252 Y35.5051
G01 X84.2387 Y35.5060
G01 X84.2522 Y35.5081
G01 X84.2654 Y35.5114
G01 X84.2783 Y35.5157
G01 X84.2879 Y35.5196
G01 X84.3001 Y35.5257
G01 X84.3117 Y35.5328
G01 X84.3227 Y35.5408
G01 X84.3330 Y35.5498
G01 X84.3385 Y35.5552
G01 X84.3476 Y35.5653
G01 X84.3572 Y35.5783
G01 X84.3643 Y35.5899
G01 X84.3715 Y35.6045
G01 X84.3763 Y35.6172
G01 X84.3793 Y35.6271
G01 X84.3823 Y35.6403
G01 X84.3842 Y35.6538
G01 X84.3850 Y35.6700
G01 X84.3850 Y68.6900
G01 X84.3842 Y68.7062
G01 X84.3813 Y68.7247
G01 X84.3771 Y68.7404
G01 X84.3734 Y68.7508
G01 X84.3704 Y68.7579
G01 X84.3655 Y68.7678
G01 X84.3600 Y68.7773
G01 X84.3558 Y68.7838
G01 X84.3492 Y68.7927
G01 X84.3367 Y68.8067
G01 X84.3247 Y68.8176
G01 X84.3117 Y68.8272
G01 X84.3001 Y68.8343
G01 X84.2855 Y68.8415
G01 X84.2728 Y68.8463
G01 X84.2629 Y68.8493
G01 X84.2497 Y68.8523
G01 X84.2362 Y68.8542
G01 X84.2200 Y68.8550
G01 X44.8500 Y68.8550
G01 X44.8338 Y68.8542
G01 X44.8203 Y68.8523
G01 X44.8071 Y68.8493
G01 X44.7972 Y68.8463
G01 X44.7845 Y68.8415
G01 X44.7699 Y68.8343
G01 X44.7583 Y68.8272
G01 X44.7453 Y68.8176
G01 X44.7333 Y68.8067
G01 X44.7241 Y68.7967
G01 X44.7158 Y68.7859
G01 X44.7100 Y68.7773
G01 X44.7033 Y68.7655
G01 X44.6966 Y68.7508
G01 X44.6921 Y68.7379
G01 X44.6881 Y68.7222
G01 X44.6858 Y68.7062
G01 X44.6850 Y68.6926
G01 X44.6854 Y68.6790
G01 X44.6864 Y68.6687
G01 X44.6887 Y68.6553
G01 X44.6929 Y68.6396
G01 X44.6975 Y68.6268
G01 X44.7045 Y68.6122
G01 X44.7128 Y68.5983
G01 X44.7208 Y68.5873
G01 X44.7298 Y68.5770
G01 X44.7370 Y68.5698
G01 X44.7473 Y68.5608
G01 X44.7605 Y68.5514
G01 X44.7722 Y68.5445
G01 X44.7868 Y68.5375
G00 Z2.0000
G00 X44.8079 Y68.5883
G01 F60.00
G01 Z-0.3000
G01 F120.00
G01 X44.8181 Y68.5847
G01 X44.8285 Y68.5821
G01 X44.8392 Y68.5805
G01 X44.8500 Y68.5800
G01 X84.1100 Y68.5800
G01 X84.1100 Y35.6700
G01 X84.1108 Y35.6568
G01 X84.1121 Y35.6485
G01 X84.1147 Y35.6381
G01 X84.1193 Y35.6256
G01 X84.1230 Y35.6181
G01 X84.1285 Y35.6089
G01 X84.1349 Y35.6002
G01 X84.1405 Y35.5940
G01 X84.1502 Y35.5849
G01 X84.1589 Y35.5785
G01 X84.1660 Y35.5742
G01 X84.1802 Y35.5675
G01 X84.1881 Y35.5647
G01 X84.1985 Y35.5621
G01 X84.2092 Y35.5605
G01 X84.2175 Y35.5600
G01 X84.2320 Y35.5606
G01 X84.2415 Y35.5621
G01 X84.2496 Y35.5641
G01 X84.2644 Y35.5693
G01 X84.2719 Y35.5730
G01 X84.2811 Y35.5785
G01 X84.2898 Y35.5849
G01 X84.2960 Y35.5905
G01 X84.3051 Y35.6002
G01 X84.3115 Y35.6089
G01 X84.3170 Y35.6181
G01 X84.3217 Y35.6279
G01 X84.3245 Y35.6357
G01 X84.3283 Y35.6510
G01 X84.3295 Y35.6592
G01 X84.3300 Y35.6700
G01 X84.3300 Y68.6900
G01 X84.3295 Y68.7008
G01 X84.3279 Y68.7115
G01 X84.3249 Y68.7231
G01 X84.3207 Y68.7344
G01 X84.3170 Y68.7419
G01 X84.3128 Y68.7491
G01 X84.3066 Y68.7579
G01 X84.2987 Y68.7669
G01 X84.2898 Y68.7751
G01 X84.2811 Y68.7815
G01 X84.2719 Y68.7870
G01 X84.2621 Y68.7917
G01 X84.2543 Y68.7945
G01 X84.2390 Y68.7983
G01 X84.2308 Y68.7995
G01 X84.2200 Y68.8000
G01 X44.8500 Y68.8000
G01 X44.8392 Y68.7995
G01 X44.8310 Y68.7983
G01 X44.8157 Y68.7945
G01 X44.8079 Y68.7917
G01 X44.7981 Y68.7870
G01 X44.7889 Y68.7815
G01 X44.7802 Y68.7751
G01 X44.7722 Y68.7678
G01 X44.7665 Y68.7617
G01 X44.7572 Y68.7491
G01 X44.7530 Y68.7419
G01 X44.7483 Y68.7321
G01 X44.7447 Y68.7219
G01 X44.7421 Y68.7115
G01 X44.7405 Y68.7008
G01 X44.7400 Y68.6925
G01 X44.7408 Y68.6768
G01 X44.7421 Y68.6685
G01 X44.7447 Y68.6581
G01 X44.7483 Y68.6479
G01 X44.7530 Y68.6381
G01 X44.7585 Y68.6289
G01 X44.7634 Y68.6221
G01 X44.7740 Y68.6105
G01 X44.7802 Y68.6049
G01 X44.7889 Y68.5985
G01 X44.7981 Y68.5930
G01 X44.8079 Y68.5883
G00 Z2.0000
G00 X43.5775 Y1.2700
G01 F60.00
G01 Z-0.3000
G01 F120.00
G01 X84.2200 Y1.2700
G01 X84.2308 Y1.2705
G01 X84.2390 Y1.2717
G01 X84.2543 Y1.2755
G01 X84.2621 Y1.2783
G01 X84.2719 Y1.2830
G01 X84.2811 Y1.2885
G01 X84.2888 Y1.2942
G01 X84.2978 Y1.3022
G01 X84.3051 Y1.3102
G01 X84.3122 Y1.3199
G01 X84.3181 Y1.3303
G01 X84.3225 Y1.3402
G01 X84.3253 Y1.3481
G01 X84.3274 Y1.3561
G01 X84.3294 Y1.3680
G01 X84.3300 Y1.3800
G01 X84.3300 Y33.1300
G01 X84.3295 Y33.1408
G01 X84.3283 Y33.1490
G01 X84.3245 Y33.1643
G01 X84.3217 Y33.1721
G01 X84.3170 Y33.1819
G01 X84.3115 Y33.1911
G01 X84.3058 Y33.1988
G01 X84.2960 Y33.2095
G01 X84.2898 Y33.2151
G01 X84.2811 Y33.2215
G01 X84.2697 Y33.2281
G01 X84.2621 Y33.2317
G01 X84.2519 Y33.2353
G01 X84.2390 Y33.2383
G01 X84.2308 Y33.2395
G01 X84.2200 Y33.2400
G01 X84.2092 Y33.2395
G01 X84.2010 Y33.2383
G01 X84.1857 Y33.2345
G01 X84.1779 Y33.2317
G01 X84.1681 Y33.2270
G01 X84.1589 Y33.2215
G01 X84.1521 Y33.2166
G01 X84.1413 Y33.2069
G01 X84.1349 Y33.1998
G01 X84.1299 Y33.1931
G01 X84.1219 Y33.1797
G01 X84.1183 Y33.1721
G01 X84.1147 Y33.1619
G01 X84.1121 Y33.1515
G01 X84.1108 Y33.1432
G01 X84.1100 Y33.1300
G01 X84.1100 Y1.4900
G01 X43.5800 Y1.4900
G01 X43.5692 Y1.4895
G01 X43.5585 Y1.4879
G01 X43.5481 Y1.4853
G01 X43.5379 Y1.4817
G01 X43.5281 Y1.4770
G01 X43.5189 Y1.4715
G01 X43.5102 Y1.4651
G01 X43.5022 Y1.4578
G01 X43.4949 Y1.4498
G01 X43.4885 Y1.4411
G01 X43.4830 Y1.4319
G01 X43.4783 Y1.4221
G01 X43.4747 Y1.4119
G01 X43.4721 Y1.4015
G01 X43.4705 Y1.3908
G01 X43.4700 Y1.3800
G01 X43.4705 Y1.3692
G01 X43.4721 Y1.3585
G01 X43.4747 Y1.3481
G01 X43.4783 Y1.3379
G01 X43.4830 Y1.3281
G01 X43.4885 Y1.3189
G01 X43.4949 Y1.3102
G01 X43.5022 Y1.3022
G01 X43.5102 Y1.2949
G01 X43.5189 Y1.2885
G01 X43.5281 Y1.2830
G01 X43.5379 Y1.2783
G01 X43.5481 Y1.2747
G01 X43.5585 Y1.2721
G01 X43.5692 Y1.2705
G01 X43.5775 Y1.2700
G00 Z2.0000
G00 X43.5748 Y1.2151
G01 F60.00
G01 Z-0.3000
G01 F120.00
G01 X84.2200 Y1.2150
G01 X84.2362 Y1.2158
G01 X84.2497 Y1.2177
G01 X84.2629 Y1.2207
G01 X84.2728 Y1.2237
G01 X84.2855 Y1.2285
G01 X84.2978 Y1.2345
G01 X84.3117 Y1.2428
G01 X84.3227 Y1.2508
G01 X84.3367 Y1.2633
G01 X84.3476 Y1.2753
G01 X84.3586 Y1.2905
G01 X84.3643 Y1.2999
G01 X84.3679 Y1.3068
G01 X84.3725 Y1.3168
G01 X84.3763 Y1.3272
G01 X84.3786 Y1.3346
G01 X84.3813 Y1.3453
G01 X84.3842 Y1.3638
G01 X84.3850 Y1.3800
G01 X84.3850 Y33.1300
G01 X84.3842 Y33.1462
G01 X84.3823 Y33.1597
G01 X84.3793 Y33.1729
G01 X84.3763 Y33.1828
G01 X84.3715 Y33.1955
G01 X84.3655 Y33.2078
G01 X84.3572 Y33.2217
G01 X84.3492 Y33.2327
G01 X84.3402 Y33.2430
G01 X84.3330 Y33.2502
G01 X84.3227 Y33.2592
G01 X84.3117 Y33.2672
G01 X84.3001 Y33.2743
G01 X84.2932 Y33.2779
G01 X84.2808 Y33.2834
G01 X84.2679 Y33.2879
G01 X84.2547 Y33.2913
G01 X84.2413 Y33.2936
G01 X84.2310 Y33.2946
G01 X84.2174 Y33.2950
G01 X84.2038 Y33.2942
G01 X84.1903 Y33.2923
G01 X84.1771 Y33.2893
G01 X84.1672 Y33.2863
G01 X84.1545 Y33.2815
G01 X84.1422 Y33.2755
G01 X84.1305 Y33.2686
G01 X84.1194 Y33.2607
G01 X84.1114 Y33.2542
G01 X84.1015 Y33.2448
G01 X84.0924 Y33.2347
G01 X84.0842 Y33.2238
G01 X84.0770 Y33.2123
G01 X84.0721 Y33.2032
G01 X84.0666 Y33.1908
G01 X84.0621 Y33.1779
G01 X84.0587 Y33.1647
G01 X84.0564 Y33.1513
G01 X84.0555 Y33.1436
G01 X84.0550 Y33.1300
G01 X84.0550 Y1.5450
G01 X43.5800 Y1.5450
G01 X43.5638 Y1.5442
G01 X43.5478 Y1.5419
G01 X43.5321 Y1.5379
G01 X43.5168 Y1.5325
G01 X43.5022 Y1.5255
G01 X43.4883 Y1.5172
G01 X43.4753 Y1.5076
G01 X43.4633 Y1.4967
G01 X43.4524 Y1.4847
G01 X43.4428 Y1.4717
G01 X43.4345 Y1.4578
G01 X43.4275 Y1.4432
G01 X43.4221 Y1.4279
G01 X43.4181 Y1.4122
G01 X43.4158 Y1.3962
G01 X43.4150 Y1.3826
G01 X43.4155 Y1.3664
G01 X43.4177 Y1.3503
G01 X43.4214 Y1.3346
G01 X43.4266 Y1.3192
G01 X43.4333 Y1.3045
G01 X43.4414 Y1.2905
G01 X43.4508 Y1.2773
G01 X43.4615 Y1.2652
G01 X43.4733 Y1.2541
G01 X43.4862 Y1.2442
G01 X43.4999 Y1.2357
G01 X43.5145 Y1.2285
G01 X43.5296 Y1.2229
G01 X43.5453 Y1.2187
G01 X43.5613 Y1.2160
G01 X43.5748 Y1.2151
G00 Z2.0000
G00 X43.5721 Y1.1602
G01 F60.00
G01 Z-0.3000
G01 F120.00
G01 X84.2200 Y1.1600
G01 X84.2416 Y1.1610
G01 X84.2591 Y1.1635
G01 X84.2763 Y1.1673
G01 X84.2913 Y1.1719
G01 X84.3078 Y1.1783
G01 X84.3237 Y1.1860
G01 X84.3422 Y1.1971
G01 X84.3565 Y1.2075
G01 X84.3655 Y1.2150
G01 X84.3756 Y1.2244
G01 X84.3901 Y1.2404
G01 X84.3984 Y1.2513
G01 X84.4051 Y1.2610
G01 X84.4122 Y1.2728
G01 X84.4176 Y1.2833
G01 X84.4233 Y1.2958
G01 X84.4281 Y1.3087
G01 X84.4316 Y1.3199
G01 X84.4350 Y1.3332
G01 X84.4371 Y1.3448
G01 X84.4390 Y1.3584
G01 X84.4400 Y1.3800
G01 X84.4400 Y33.1300
G01 X84.4390 Y33.1516
G01 X84.4365 Y33.1691
G01 X84.4327 Y33.1863
G01 X84.4281 Y33.2013
G01 X84.4217 Y33.2178
G01 X84.4140 Y33.2337
G01 X84.4029 Y33.2522
G01 X84.3925 Y33.2665
G01 X84.3810 Y33.2799
G01 X84.3699 Y33.2910
G01 X84.3565 Y33.3025
G01 X84.3422 Y33.3129
G01 X84.3272 Y33.3222
G01 X84.3167 Y33.3276
G01 X84.3006 Y33.3347
G01 X84.2839 Y33.3406
G01 X84.2668 Y33.3450
G01 X84.2552 Y33.3471
G01 X84.2377 Y33.3493
G01 X84.2200 Y33.3500
G01 X84.2023 Y33.3493
G01 X84.1848 Y33.3471
G01 X84.1694 Y33.3441
G01 X84.1524 Y33.3394
G01 X84.1358 Y33.3333
G01 X84.1198 Y33.3259
G01 X84.1044 Y33.3171
G01 X84.0913 Y33.3084
G01 X84.0774 Y33.2976
G01 X84.0644 Y33.2856
G01 X84.0524 Y33.2726
G01 X84.0416 Y33.2587
G01 X84.0329 Y33.2456
G01 X84.0241 Y33.2302
G01 X84.0167 Y33.2142
G01 X84.0106 Y33.1976
G01 X84.0073 Y33.1863
G01 X84.0035 Y33.1691
G01 X84.0010 Y33.1516
G01 X84.0000 Y33.1339
G01 X84.0000 Y1.6000
G01 X43.5800 Y1.6000
G01 X43.5584 Y1.5990
G01 X43.5371 Y1.5958
G01 X43.5161 Y1.5906
G01 X43.4958 Y1.5833
G01 X43.4763 Y1.5740
G01 X43.4578 Y1.5629
G01 X43.4404 Y1.5501
G01 X43.4244 Y1.5356
G01 X43.4099 Y1.5196
G01 X43.3971 Y1.5022
G01 X43.3860 Y1.4837
G01 X43.3767 Y1.4642
G01 X43.3694 Y1.4439
G01 X43.3642 Y1.4229
G01 X43.3610 Y1.4016
G01 X43.3600 Y1.3839
G01 X43.3607 Y1.3623
G01 X43.3635 Y1.3409
G01 X43.3684 Y1.3199
G01 X43.3753 Y1.2994
G01 X43.3841 Y1.2798
G01 X43.3949 Y1.2610
G01 X43.4075 Y1.2435
G01 X43.4217 Y1.2272
G01 X43.4374 Y1.2124
G01 X43.4545 Y1.1993
G01 X43.4728 Y1.1878
G01 X43.4922 Y1.1783
G01 X43.5124 Y1.1706
G01 X43.5332 Y1.1650
G01 X43.5545 Y1.1615
G01 X43.5721 Y1.1602
G00 Z2.0000
M05
G00 Z2.0000
G00 Z15.00


