(G-CODE GENERATED BY FLATCAM v8.994 - www.flatcam.org - Version Date: 2020/11/7)

(Name: stoplight-PTH.drl_cnc)
(Type: G-code from Geometry)
(Units: MM)

(Created on quinta, 20 janeiro 2022 at 14:16)

(This preprocessor is the default preprocessor used by FlatCAM.)
(It is made to work with MACH3 compatible motion controllers.)


(TOOLS DIAMETER: )
(Tool: 1 -> Dia: 0.8)
(Tool: 2 -> Dia: 0.9)
(Tool: 3 -> Dia: 1.0)
(Tool: 4 -> Dia: 2.0)
(Tool: 5 -> Dia: 2.2)

(FEEDRATE Z: )
(Tool: 1 -> Feedrate: 300)
(Tool: 2 -> Feedrate: 300)
(Tool: 3 -> Feedrate: 300)
(Tool: 4 -> Feedrate: 300)
(Tool: 5 -> Feedrate: 300)

(FEEDRATE RAPIDS: )
(Tool: 1 -> Feedrate Rapids: 1500)
(Tool: 2 -> Feedrate Rapids: 1500)
(Tool: 3 -> Feedrate Rapids: 1500)
(Tool: 4 -> Feedrate Rapids: 1500)
(Tool: 5 -> Feedrate Rapids: 1500)

(Z_CUT: )
(Tool: 1 -> Z_Cut: -2.1)
(Tool: 2 -> Z_Cut: -2.1)
(Tool: 3 -> Z_Cut: -2.1)
(Tool: 4 -> Z_Cut: -2.1)
(Tool: 5 -> Z_Cut: -2.1)

(Tools Offset: )
(Tool: 1 -> Offset Z: 0.0)
(Tool: 2 -> Offset Z: 0.0)
(Tool: 3 -> Offset Z: 0.0)
(Tool: 4 -> Offset Z: 0.0)
(Tool: 5 -> Offset Z: 0.0)

(Z_MOVE: )
(Tool: 1 -> Z_Move: 2)
(Tool: 2 -> Z_Move: 2)
(Tool: 3 -> Z_Move: 2)
(Tool: 4 -> Z_Move: 2)
(Tool: 5 -> Z_Move: 2)

(Z Toolchange: 15.0 mm)
(X,Y Toolchange: 0.0000, 0.0000 mm)
(Z Start: None mm)
(Z End: 0.5 mm)
(X,Y End: None mm)
(Steps per circle: 64)
(Preprocessor Excellon: default)

(X range:    4.3800 ...   81.5100  mm)
(Y range:   11.8100 ...   65.9800  mm)

(Spindle Speed: 0 RPM)
G21
G90
G94

G01 F300.00

M5
G00 Z15.0000
T1
G00 X0.0000 Y0.0000                
M6
(MSG, Change to Tool Dia = 0.8000 ||| Total drills for tool T1 = 59)
M0
G00 Z15.0000

G01 F300.00
M03
G00 X18.1800 Y62.3400
G01 Z-2.1000
G01 Z0
G00 Z2.0000
G00 X11.8300 Y59.8000
G01 Z-2.1000
G01 Z0
G00 Z2.0000
G00 X5.4800 Y64.8800
G01 Z-2.1000
G01 Z0
G00 Z2.0000
G00 X5.4800 Y59.8000
G01 Z-2.1000
G01 Z0
G00 Z2.0000
G00 X5.4800 Y57.2600
G01 Z-2.1000
G01 Z0
G00 Z2.0000
G00 X5.4800 Y54.7200
G01 Z-2.1000
G01 Z0
G00 Z2.0000
G00 X5.4800 Y52.1800
G01 Z-2.1000
G01 Z0
G00 Z2.0000
G00 X11.8300 Y49.6400
G01 Z-2.1000
G01 Z0
G00 Z2.0000
G00 X8.0200 Y47.1000
G01 Z-2.1000
G01 Z0
G00 Z2.0000
G00 X8.0200 Y44.5600
G01 Z-2.1000
G01 Z0
G00 Z2.0000
G00 X10.5600 Y26.7800
G01 Z-2.1000
G01 Z0
G00 Z2.0000
G00 X5.4800 Y12.8100
G01 Z-2.1000
G01 Z0
G00 Z2.0000
G00 X34.6900 Y25.5100
G01 Z-2.1000
G01 Z0
G00 Z2.0000
G00 X34.6900 Y28.0500
G01 Z-2.1000
G01 Z0
G00 Z2.0000
G00 X34.6900 Y30.5900
G01 Z-2.1000
G01 Z0
G00 Z2.0000
G00 X34.6900 Y33.1300
G01 Z-2.1000
G01 Z0
G00 Z2.0000
G00 X34.6900 Y35.6700
G01 Z-2.1000
G01 Z0
G00 Z2.0000
G00 X34.6900 Y38.2100
G01 Z-2.1000
G01 Z0
G00 Z2.0000
G00 X34.6900 Y40.7500
G01 Z-2.1000
G01 Z0
G00 Z2.0000
G00 X46.1200 Y47.1000
G01 Z-2.1000
G01 Z0
G00 Z2.0000
G00 X48.6600 Y47.1000
G01 Z-2.1000
G01 Z0
G00 Z2.0000
G00 X51.2000 Y47.1000
G01 Z-2.1000
G01 Z0
G00 Z2.0000
G00 X53.7400 Y47.1000
G01 Z-2.1000
G01 Z0
G00 Z2.0000
G00 X56.2800 Y47.1000
G01 Z-2.1000
G01 Z0
G00 Z2.0000
G00 X58.8200 Y47.1000
G01 Z-2.1000
G01 Z0
G00 Z2.0000
G00 X61.3600 Y47.1000
G01 Z-2.1000
G01 Z0
G00 Z2.0000
G00 X67.7100 Y26.7800
G01 Z-2.1000
G01 Z0
G00 Z2.0000
G00 X77.4800 Y12.8100
G01 Z-2.1000
G01 Z0
G00 Z2.0000
G00 X77.8700 Y29.3200
G01 Z-2.1000
G01 Z0
G00 Z2.0000
G00 X77.8700 Y31.8600
G01 Z-2.1000
G01 Z0
G00 Z2.0000
G00 X74.0600 Y47.1000
G01 Z-2.1000
G01 Z0
G00 Z2.0000
G00 X71.5200 Y47.1000
G01 Z-2.1000
G01 Z0
G00 Z2.0000
G00 X68.9800 Y47.1000
G01 Z-2.1000
G01 Z0
G00 Z2.0000
G00 X66.4400 Y47.1000
G01 Z-2.1000
G01 Z0
G00 Z2.0000
G00 X63.9000 Y47.1000
G01 Z-2.1000
G01 Z0
G00 Z2.0000
G00 X62.6300 Y59.8000
G01 Z-2.1000
G01 Z0
G00 Z2.0000
G00 X65.1700 Y59.8000
G01 Z-2.1000
G01 Z0
G00 Z2.0000
G00 X71.5200 Y62.3400
G01 Z-2.1000
G01 Z0
G00 Z2.0000
G00 X74.0600 Y62.3400
G01 Z-2.1000
G01 Z0
G00 Z2.0000
G00 X80.4100 Y64.8800
G01 Z-2.1000
G01 Z0
G00 Z2.0000
G00 X68.9800 Y62.3400
G01 Z-2.1000
G01 Z0
G00 Z2.0000
G00 X66.4400 Y62.3400
G01 Z-2.1000
G01 Z0
G00 Z2.0000
G00 X63.9000 Y62.3400
G01 Z-2.1000
G01 Z0
G00 Z2.0000
G00 X61.3600 Y62.3400
G01 Z-2.1000
G01 Z0
G00 Z2.0000
G00 X58.8200 Y62.3400
G01 Z-2.1000
G01 Z0
G00 Z2.0000
G00 X56.2800 Y62.3400
G01 Z-2.1000
G01 Z0
G00 Z2.0000
G00 X53.7400 Y62.3400
G01 Z-2.1000
G01 Z0
G00 Z2.0000
G00 X55.0100 Y59.8000
G01 Z-2.1000
G01 Z0
G00 Z2.0000
G00 X52.4700 Y59.8000
G01 Z-2.1000
G01 Z0
G00 Z2.0000
G00 X51.2000 Y62.3400
G01 Z-2.1000
G01 Z0
G00 Z2.0000
G00 X48.6600 Y62.3400
G01 Z-2.1000
G01 Z0
G00 Z2.0000
G00 X46.1200 Y62.3400
G01 Z-2.1000
G01 Z0
G00 Z2.0000
G00 X37.2300 Y49.6400
G01 Z-2.1000
G01 Z0
G00 Z2.0000
G00 X34.6900 Y49.6400
G01 Z-2.1000
G01 Z0
G00 Z2.0000
G00 X32.1500 Y49.6400
G01 Z-2.1000
G01 Z0
G00 Z2.0000
G00 X29.6100 Y49.6400
G01 Z-2.1000
G01 Z0
G00 Z2.0000
G00 X27.0700 Y49.6400
G01 Z-2.1000
G01 Z0
G00 Z2.0000
G00 X24.5300 Y49.6400
G01 Z-2.1000
G01 Z0
G00 Z2.0000
G00 X18.1800 Y52.1800
G01 Z-2.1000
G01 Z0
G00 Z2.0000
M05
G00 Z0.50


