(G-CODE GENERATED BY FLATCAM v8.994 - www.flatcam.org - Version Date: 2020/11/7)

(Name: stoplight-F_Cu.gbr_iso_combined_cnc)
(Type: G-code from Geometry)
(Units: MM)

(Created on quinta, 20 janeiro 2022 at 14:18)

(This preprocessor is the default preprocessor used by FlatCAM.)
(It is made to work with MACH3 compatible motion controllers.)

(TOOL DIAMETER: 0.2536 mm)
(Feedrate_XY: 120.0 mm/min)
(Feedrate_Z: 60.0 mm/min)
(Feedrate rapids 1500.0 mm/min)

(Z_Cut: -0.17 mm)
(Z_Move: 2.0 mm)
(Z Start: None mm)
(Z End: 15.0 mm)
(X,Y End: None mm)
(Steps per circle: 64)
(Preprocessor Geometry: default)

(X range:    2.7880 ...   83.1020  mm)
(Y range:   10.5680 ...   67.5720  mm)

(Spindle Speed: 0.0 RPM)
G21
G90
G94

G01 F120.00

M5
G00 Z15.0000
G00 X0.0000 Y0.0000
T1
M6    
(MSG, Change to Tool Dia = 0.2536)
M0
G00 Z15.0000

M03
G01 F120.00
G00 X3.7083 Y10.9351
G01 F60.00
G01 Z-0.1700
G01 F120.00
G01 X3.7207 Y10.9335
G01 X3.7300 Y10.9332
G01 X7.2331 Y10.9332
G01 X7.2486 Y10.9346
G01 X7.2608 Y10.9370
G01 X7.2756 Y10.9417
G01 X7.2870 Y10.9467
G01 X7.2978 Y10.9529
G01 X7.3104 Y10.9620
G01 X7.3218 Y10.9726
G01 X7.3318 Y10.9845
G01 X7.3371 Y10.9922
G01 X7.3418 Y11.0002
G01 X7.3459 Y11.0086
G01 X7.3504 Y11.0202
G01 X7.3537 Y11.0322
G01 X7.3554 Y11.0414
G01 X7.3565 Y11.0507
G01 X7.3568 Y11.0600
G01 X7.3568 Y14.5600
G01 X7.3562 Y14.5724
G01 X7.3544 Y14.5847
G01 X7.3522 Y14.5938
G01 X7.3494 Y14.6027
G01 X7.3446 Y14.6142
G01 X7.3403 Y14.6225
G01 X7.3337 Y14.6330
G01 X7.3280 Y14.6404
G01 X7.3218 Y14.6474
G01 X7.3152 Y14.6540
G01 X7.3080 Y14.6600
G01 X7.3004 Y14.6654
G01 X7.2925 Y14.6703
G01 X7.2814 Y14.6759
G01 X7.2727 Y14.6794
G01 X7.2638 Y14.6822
G01 X7.2547 Y14.6844
G01 X7.2424 Y14.6862
G01 X7.2300 Y14.6868
G01 X6.3572 Y14.6868
G01 X6.3572 Y15.6967
G01 X10.2133 Y19.5528
G01 X68.9800 Y19.5528
G01 X69.0660 Y19.5570
G01 X69.1450 Y19.5686
G01 X69.1572 Y19.5710
G01 X69.2286 Y19.5889
G01 X69.2405 Y19.5925
G01 X69.3157 Y19.6196
G01 X69.3935 Y19.6564
G01 X69.4673 Y19.7007
G01 X69.5340 Y19.7500
G01 X69.5412 Y19.7560
G01 X69.6003 Y19.8097
G01 X74.6803 Y24.8897
G01 X74.7381 Y24.9535
G01 X74.7858 Y25.0176
G01 X74.7927 Y25.0279
G01 X74.8305 Y25.0911
G01 X74.8350 Y25.0993
G01 X74.8679 Y25.1686
G01 X74.8726 Y25.1801
G01 X74.8994 Y25.2554
G01 X74.9190 Y25.3328
G01 X74.9214 Y25.3450
G01 X74.9330 Y25.4240
G01 X74.9372 Y25.5100
G01 X74.9372 Y35.3067
G01 X79.7624 Y40.1320
G01 X79.8181 Y40.1935
G01 X79.8693 Y40.2627
G01 X79.9136 Y40.3365
G01 X79.9479 Y40.4086
G01 X79.9526 Y40.4201
G01 X79.9775 Y40.4895
G01 X79.9811 Y40.5014
G01 X80.0003 Y40.5789
G01 X80.0122 Y40.6578
G01 X80.0134 Y40.6702
G01 X80.0172 Y40.7500
G01 X80.0172 Y50.9100
G01 X80.0134 Y50.9898
G01 X80.0122 Y51.0022
G01 X80.0003 Y51.0811
G01 X79.9794 Y51.1646
G01 X79.9526 Y51.2399
G01 X79.9479 Y51.2514
G01 X79.9136 Y51.3235
G01 X79.8727 Y51.3921
G01 X79.8658 Y51.4024
G01 X79.8181 Y51.4665
G01 X79.7603 Y51.5303
G01 X72.3972 Y58.8933
G01 X72.3972 Y61.6332
G01 X72.4569 Y61.7140
G01 X72.5137 Y61.8088
G01 X72.5610 Y61.9088
G01 X72.5963 Y62.0070
G01 X72.5999 Y62.0189
G01 X72.6238 Y62.1141
G01 X72.6262 Y62.1263
G01 X72.6414 Y62.2296
G01 X72.6466 Y62.3338
G01 X72.6468 Y62.3431
G01 X72.6414 Y62.4504
G01 X72.6262 Y62.5537
G01 X72.6238 Y62.5659
G01 X72.5999 Y62.6611
G01 X72.5963 Y62.6730
G01 X72.5610 Y62.7712
G01 X72.5137 Y62.8712
G01 X72.4569 Y62.9660
G01 X72.3972 Y63.0468
G01 X72.3972 Y64.8800
G01 X72.3932 Y64.9629
G01 X72.3922 Y64.9722
G01 X72.3814 Y65.0450
G01 X72.3790 Y65.0572
G01 X72.3594 Y65.1346
G01 X72.3304 Y65.2157
G01 X72.2964 Y65.2879
G01 X72.2905 Y65.2989
G01 X72.2493 Y65.3673
G01 X72.2000 Y65.4340
G01 X72.1940 Y65.4412
G01 X72.1403 Y65.5003
G01 X70.8703 Y66.7703
G01 X70.8065 Y66.8281
G01 X70.7373 Y66.8793
G01 X70.6689 Y66.9205
G01 X70.6579 Y66.9264
G01 X70.5914 Y66.9579
G01 X70.5799 Y66.9626
G01 X70.5046 Y66.9894
G01 X70.4211 Y67.0103
G01 X70.3360 Y67.0230
G01 X70.2531 Y67.0271
G01 X14.0800 Y67.0272
G01 X13.9971 Y67.0232
G01 X13.9878 Y67.0222
G01 X13.9089 Y67.0103
G01 X13.8314 Y66.9911
G01 X13.8195 Y66.9875
G01 X13.7501 Y66.9626
G01 X13.7386 Y66.9579
G01 X13.6665 Y66.9236
G01 X13.5927 Y66.8793
G01 X13.5235 Y66.8281
G01 X13.4620 Y66.7724
G01 X7.3667 Y60.6772
G01 X6.6068 Y60.6772
G01 X6.6068 Y60.8000
G01 X6.6065 Y60.8093
G01 X6.6054 Y60.8186
G01 X6.6030 Y60.8308
G01 X6.5994 Y60.8427
G01 X6.5946 Y60.8542
G01 X6.5903 Y60.8625
G01 X6.5854 Y60.8704
G01 X6.5760 Y60.8828
G01 X6.5697 Y60.8897
G01 X6.5628 Y60.8960
G01 X6.5504 Y60.9054
G01 X6.5370 Y60.9133
G01 X6.5227 Y60.9194
G01 X6.5138 Y60.9222
G01 X6.5047 Y60.9244
G01 X6.4893 Y60.9265
G01 X6.4800 Y60.9268
G01 X4.4769 Y60.9268
G01 X4.4645 Y60.9258
G01 X4.4553 Y60.9244
G01 X4.4462 Y60.9222
G01 X4.4373 Y60.9194
G01 X4.4258 Y60.9146
G01 X4.4175 Y60.9103
G01 X4.4096 Y60.9054
G01 X4.4020 Y60.9000
G01 X4.3903 Y60.8897
G01 X4.3820 Y60.8804
G01 X4.3746 Y60.8704
G01 X4.3667 Y60.8570
G01 X4.3617 Y60.8456
G01 X4.3570 Y60.8308
G01 X4.3546 Y60.8186
G01 X4.3532 Y60.8031
G01 X4.3532 Y58.8000
G01 X4.3535 Y58.7907
G01 X4.3546 Y58.7814
G01 X4.3578 Y58.7662
G01 X4.3629 Y58.7515
G01 X4.3667 Y58.7430
G01 X4.3712 Y58.7348
G01 X4.3800 Y58.7220
G01 X4.3860 Y58.7148
G01 X4.3926 Y58.7082
G01 X4.3996 Y58.7020
G01 X4.4070 Y58.6963
G01 X4.4202 Y58.6882
G01 X4.4344 Y58.6817
G01 X4.4492 Y58.6770
G01 X4.4645 Y58.6742
G01 X4.4800 Y58.6732
G01 X6.4800 Y58.6732
G01 X6.4893 Y58.6735
G01 X6.5047 Y58.6756
G01 X6.5138 Y58.6778
G01 X6.5227 Y58.6806
G01 X6.5370 Y58.6867
G01 X6.5452 Y58.6912
G01 X6.5530 Y58.6963
G01 X6.5652 Y58.7060
G01 X6.5718 Y58.7126
G01 X6.5780 Y58.7196
G01 X6.5871 Y58.7322
G01 X6.5946 Y58.7458
G01 X6.5994 Y58.7573
G01 X6.6030 Y58.7692
G01 X6.6054 Y58.7814
G01 X6.6065 Y58.7907
G01 X6.6068 Y58.8000
G01 X6.6068 Y58.9228
G01 X7.7362 Y58.9230
G01 X7.8160 Y58.9270
G01 X7.9011 Y58.9397
G01 X7.9846 Y58.9606
G01 X8.0599 Y58.9874
G01 X8.0685 Y58.9908
G01 X8.1435 Y59.0264
G01 X8.2173 Y59.0707
G01 X8.2865 Y59.1219
G01 X8.3503 Y59.1797
G01 X14.4433 Y65.2728
G01 X69.8867 Y65.2728
G01 X70.6428 Y64.5167
G01 X70.6428 Y63.0468
G01 X70.5831 Y62.9660
G01 X70.5263 Y62.8712
G01 X70.4790 Y62.7712
G01 X70.4437 Y62.6730
G01 X70.4401 Y62.6611
G01 X70.4162 Y62.5659
G01 X70.4138 Y62.5537
G01 X70.3986 Y62.4504
G01 X70.3934 Y62.3462
G01 X70.3932 Y62.3369
G01 X70.3986 Y62.2296
G01 X70.4138 Y62.1263
G01 X70.4162 Y62.1141
G01 X70.4401 Y62.0189
G01 X70.4437 Y62.0070
G01 X70.4790 Y61.9088
G01 X70.5263 Y61.8088
G01 X70.5831 Y61.7140
G01 X70.6428 Y61.6332
G01 X70.6429 Y58.5269
G01 X70.6466 Y58.4502
G01 X70.6478 Y58.4378
G01 X70.6597 Y58.3589
G01 X70.6789 Y58.2814
G01 X70.6825 Y58.2695
G01 X70.7096 Y58.1943
G01 X70.7436 Y58.1221
G01 X70.7479 Y58.1138
G01 X70.7907 Y58.0427
G01 X70.8381 Y57.9784
G01 X70.8460 Y57.9688
G01 X70.8997 Y57.9097
G01 X78.2628 Y50.5467
G01 X78.2628 Y41.1133
G01 X73.4397 Y36.2903
G01 X73.3819 Y36.2265
G01 X73.3342 Y36.1624
G01 X73.3273 Y36.1521
G01 X73.2895 Y36.0889
G01 X73.2836 Y36.0779
G01 X73.2521 Y36.0114
G01 X73.2474 Y35.9999
G01 X73.2206 Y35.9246
G01 X73.2010 Y35.8472
G01 X73.1986 Y35.8350
G01 X73.1870 Y35.7560
G01 X73.1828 Y35.6700
G01 X73.1828 Y25.8733
G01 X68.6167 Y21.3072
G01 X35.5672 Y21.3072
G01 X35.5672 Y24.8032
G01 X35.6269 Y24.8840
G01 X35.6807 Y24.9734
G01 X35.6865 Y24.9844
G01 X35.7285 Y25.0731
G01 X35.7333 Y25.0846
G01 X35.7683 Y25.1829
G01 X35.7938 Y25.2841
G01 X35.7962 Y25.2963
G01 X35.8114 Y25.3996
G01 X35.8168 Y25.5100
G01 X35.8114 Y25.6204
G01 X35.7951 Y25.7298
G01 X35.7683 Y25.8371
G01 X35.7310 Y25.9412
G01 X35.6837 Y26.0412
G01 X35.6269 Y26.1360
G01 X35.5610 Y26.2248
G01 X35.4868 Y26.3068
G01 X35.4048 Y26.3810
G01 X35.3160 Y26.4469
G01 X35.2212 Y26.5037
G01 X35.1212 Y26.5510
G01 X35.0171 Y26.5883
G01 X34.9098 Y26.6151
G01 X34.8004 Y26.6314
G01 X34.6900 Y26.6368
G01 X34.5796 Y26.6314
G01 X34.4763 Y26.6162
G01 X34.4641 Y26.6138
G01 X34.3689 Y26.5899
G01 X34.3570 Y26.5863
G01 X34.2588 Y26.5510
G01 X34.1588 Y26.5037
G01 X34.0640 Y26.4469
G01 X33.9801 Y26.3849
G01 X33.9705 Y26.3770
G01 X33.8977 Y26.3111
G01 X33.8889 Y26.3023
G01 X33.8190 Y26.2248
G01 X33.7531 Y26.1360
G01 X33.6963 Y26.0412
G01 X33.6515 Y25.9469
G01 X33.6467 Y25.9354
G01 X33.6137 Y25.8430
G01 X33.6101 Y25.8311
G01 X33.5849 Y25.7298
G01 X33.5690 Y25.6235
G01 X33.5682 Y25.6142
G01 X33.5632 Y25.5100
G01 X33.5686 Y25.3996
G01 X33.5849 Y25.2902
G01 X33.6117 Y25.1829
G01 X33.6490 Y25.0788
G01 X33.6963 Y24.9788
G01 X33.7531 Y24.8840
G01 X33.8128 Y24.8032
G01 X33.8128 Y21.3072
G01 X9.8500 Y21.3072
G01 X9.7640 Y21.3030
G01 X9.6850 Y21.2914
G01 X9.6728 Y21.2890
G01 X9.5954 Y21.2694
G01 X9.5201 Y21.2426
G01 X9.5086 Y21.2379
G01 X9.4393 Y21.2050
G01 X9.4311 Y21.2005
G01 X9.3679 Y21.1627
G01 X9.3576 Y21.1558
G01 X9.2935 Y21.1081
G01 X9.2297 Y21.0503
G01 X4.8597 Y16.6803
G01 X4.8060 Y16.6212
G01 X4.7981 Y16.6116
G01 X4.7507 Y16.5473
G01 X4.7095 Y16.4789
G01 X4.7036 Y16.4679
G01 X4.6696 Y16.3957
G01 X4.6425 Y16.3205
G01 X4.6389 Y16.3086
G01 X4.6197 Y16.2311
G01 X4.6070 Y16.1460
G01 X4.6028 Y16.0600
G01 X4.6028 Y14.6868
G01 X3.7300 Y14.6868
G01 X3.7207 Y14.6865
G01 X3.7053 Y14.6844
G01 X3.6902 Y14.6804
G01 X3.6758 Y14.6746
G01 X3.6622 Y14.6671
G01 X3.6496 Y14.6580
G01 X3.6382 Y14.6474
G01 X3.6282 Y14.6355
G01 X3.6197 Y14.6225
G01 X3.6154 Y14.6142
G01 X3.6117 Y14.6056
G01 X3.6070 Y14.5908
G01 X3.6042 Y14.5755
G01 X3.6032 Y14.5600
G01 X3.6032 Y11.0569
G01 X3.6038 Y11.0476
G01 X3.6056 Y11.0353
G01 X3.6087 Y11.0232
G01 X3.6117 Y11.0144
G01 X3.6154 Y11.0058
G01 X3.6212 Y10.9948
G01 X3.6263 Y10.9870
G01 X3.6340 Y10.9772
G01 X3.6403 Y10.9703
G01 X3.6496 Y10.9620
G01 X3.6570 Y10.9563
G01 X3.6675 Y10.9497
G01 X3.6786 Y10.9441
G01 X3.6873 Y10.9406
G01 X3.6992 Y10.9370
G01 X3.7083 Y10.9351
G00 Z2.0000
G00 X9.3017 Y24.4003
G01 F60.00
G01 Z-0.1700
G01 F120.00
G01 X9.5077 Y24.3027
G01 X9.5298 Y24.2929
G01 X9.5524 Y24.2842
G01 X9.7556 Y24.2115
G01 X9.7786 Y24.2039
G01 X9.8018 Y24.1975
G01 X10.0113 Y24.1450
G01 X10.0348 Y24.1397
G01 X10.0586 Y24.1356
G01 X10.2722 Y24.1039
G01 X10.2961 Y24.1010
G01 X10.3202 Y24.0992
G01 X10.5359 Y24.0886
G01 X10.5600 Y24.0880
G01 X10.5841 Y24.0886
G01 X10.7998 Y24.0992
G01 X10.8239 Y24.1010
G01 X10.8478 Y24.1039
G01 X11.0614 Y24.1356
G01 X11.0852 Y24.1397
G01 X11.1087 Y24.1450
G01 X11.3182 Y24.1975
G01 X11.3414 Y24.2039
G01 X11.3644 Y24.2115
G01 X11.5676 Y24.2842
G01 X11.5902 Y24.2929
G01 X11.6123 Y24.3027
G01 X11.8074 Y24.3950
G01 X11.8290 Y24.4059
G01 X11.8500 Y24.4178
G01 X12.0352 Y24.5288
G01 X12.0556 Y24.5417
G01 X12.0753 Y24.5556
G01 X12.2487 Y24.6842
G01 X12.2678 Y24.6991
G01 X12.2861 Y24.7148
G01 X12.4460 Y24.8598
G01 X12.4635 Y24.8765
G01 X12.4802 Y24.8940
G01 X12.6252 Y25.0539
G01 X12.6409 Y25.0722
G01 X12.6558 Y25.0913
G01 X12.7844 Y25.2647
G01 X12.7983 Y25.2844
G01 X12.8112 Y25.3048
G01 X12.9222 Y25.4900
G01 X12.9341 Y25.5110
G01 X12.9450 Y25.5326
G01 X13.0373 Y25.7277
G01 X13.0471 Y25.7498
G01 X13.0558 Y25.7724
G01 X13.1285 Y25.9756
G01 X13.1361 Y25.9986
G01 X13.1425 Y26.0218
G01 X13.1950 Y26.2313
G01 X13.2003 Y26.2548
G01 X13.2044 Y26.2786
G01 X13.2361 Y26.4922
G01 X13.2390 Y26.5161
G01 X13.2408 Y26.5402
G01 X13.2514 Y26.7559
G01 X13.2520 Y26.7800
G01 X13.2514 Y26.8041
G01 X13.2408 Y27.0198
G01 X13.2390 Y27.0439
G01 X13.2361 Y27.0678
G01 X13.2044 Y27.2814
G01 X13.2003 Y27.3052
G01 X13.1950 Y27.3287
G01 X13.1425 Y27.5382
G01 X13.1361 Y27.5614
G01 X13.1285 Y27.5844
G01 X13.0558 Y27.7876
G01 X13.0471 Y27.8102
G01 X13.0373 Y27.8323
G01 X12.9450 Y28.0274
G01 X12.9341 Y28.0490
G01 X12.9222 Y28.0700
G01 X12.8112 Y28.2552
G01 X12.7983 Y28.2756
G01 X12.7844 Y28.2953
G01 X12.6558 Y28.4687
G01 X12.6409 Y28.4878
G01 X12.6252 Y28.5061
G01 X12.4802 Y28.6660
G01 X12.4635 Y28.6835
G01 X12.4460 Y28.7002
G01 X12.2861 Y28.8452
G01 X12.2678 Y28.8609
G01 X12.2487 Y28.8758
G01 X12.0753 Y29.0044
G01 X12.0556 Y29.0183
G01 X12.0352 Y29.0312
G01 X11.8500 Y29.1422
G01 X11.8290 Y29.1541
G01 X11.8074 Y29.1650
G01 X11.6123 Y29.2573
G01 X11.5902 Y29.2671
G01 X11.5676 Y29.2758
G01 X11.3644 Y29.3485
G01 X11.3414 Y29.3561
G01 X11.3182 Y29.3625
G01 X11.1087 Y29.4150
G01 X11.0852 Y29.4203
G01 X11.0614 Y29.4244
G01 X10.8478 Y29.4561
G01 X10.8239 Y29.4590
G01 X10.7998 Y29.4608
G01 X10.5841 Y29.4714
G01 X10.5600 Y29.4720
G01 X10.5359 Y29.4714
G01 X10.3202 Y29.4608
G01 X10.2961 Y29.4590
G01 X10.2722 Y29.4561
G01 X10.0586 Y29.4244
G01 X10.0348 Y29.4203
G01 X10.0113 Y29.4150
G01 X9.8018 Y29.3625
G01 X9.7786 Y29.3561
G01 X9.7556 Y29.3485
G01 X9.5524 Y29.2758
G01 X9.5298 Y29.2671
G01 X9.5077 Y29.2573
G01 X9.3126 Y29.1650
G01 X9.2910 Y29.1541
G01 X9.2700 Y29.1422
G01 X9.0848 Y29.0312
G01 X9.0644 Y29.0183
G01 X9.0447 Y29.0044
G01 X8.8713 Y28.8758
G01 X8.8522 Y28.8609
G01 X8.8339 Y28.8452
G01 X8.6740 Y28.7002
G01 X8.6565 Y28.6835
G01 X8.6398 Y28.6660
G01 X8.4948 Y28.5061
G01 X8.4791 Y28.4878
G01 X8.4642 Y28.4687
G01 X8.3356 Y28.2953
G01 X8.3217 Y28.2756
G01 X8.3088 Y28.2552
G01 X8.1978 Y28.0700
G01 X8.1859 Y28.0490
G01 X8.1750 Y28.0274
G01 X8.0827 Y27.8323
G01 X8.0729 Y27.8102
G01 X8.0642 Y27.7876
G01 X7.9915 Y27.5844
G01 X7.9839 Y27.5614
G01 X7.9775 Y27.5382
G01 X7.9250 Y27.3287
G01 X7.9197 Y27.3052
G01 X7.9156 Y27.2814
G01 X7.8839 Y27.0678
G01 X7.8810 Y27.0439
G01 X7.8792 Y27.0198
G01 X7.8686 Y26.8041
G01 X7.8680 Y26.7800
G01 X7.8686 Y26.7559
G01 X7.8792 Y26.5402
G01 X7.8810 Y26.5161
G01 X7.8839 Y26.4922
G01 X7.9156 Y26.2786
G01 X7.9197 Y26.2548
G01 X7.9250 Y26.2313
G01 X7.9775 Y26.0218
G01 X7.9839 Y25.9986
G01 X7.9915 Y25.9756
G01 X8.0642 Y25.7724
G01 X8.0729 Y25.7498
G01 X8.0827 Y25.7277
G01 X8.1750 Y25.5326
G01 X8.1859 Y25.5110
G01 X8.1978 Y25.4900
G01 X8.3088 Y25.3048
G01 X8.3217 Y25.2844
G01 X8.3356 Y25.2647
G01 X8.4642 Y25.0913
G01 X8.4791 Y25.0722
G01 X8.4948 Y25.0539
G01 X8.6398 Y24.8940
G01 X8.6565 Y24.8765
G01 X8.6740 Y24.8598
G01 X8.8339 Y24.7148
G01 X8.8522 Y24.6991
G01 X8.8713 Y24.6842
G01 X9.0447 Y24.5556
G01 X9.0644 Y24.5417
G01 X9.0848 Y24.5288
G01 X9.2700 Y24.4178
G01 X9.2910 Y24.4059
G01 X9.3017 Y24.4003
G00 Z2.0000
G00 X9.3838 Y24.5634
G01 F60.00
G01 Z-0.1700
G01 F120.00
G01 X9.5858 Y24.4678
G01 X9.5997 Y24.4616
G01 X9.6139 Y24.4562
G01 X9.8171 Y24.3834
G01 X9.8316 Y24.3787
G01 X9.8462 Y24.3746
G01 X10.0556 Y24.3222
G01 X10.0704 Y24.3188
G01 X10.0854 Y24.3162
G01 X10.2990 Y24.2846
G01 X10.3140 Y24.2827
G01 X10.3292 Y24.2816
G01 X10.5448 Y24.2710
G01 X10.5600 Y24.2706
G01 X10.5752 Y24.2710
G01 X10.7908 Y24.2816
G01 X10.8060 Y24.2827
G01 X10.8210 Y24.2846
G01 X11.0346 Y24.3162
G01 X11.0496 Y24.3188
G01 X11.0644 Y24.3222
G01 X11.2738 Y24.3746
G01 X11.2884 Y24.3787
G01 X11.3029 Y24.3834
G01 X11.5061 Y24.4562
G01 X11.5203 Y24.4616
G01 X11.5342 Y24.4678
G01 X11.7294 Y24.5601
G01 X11.7429 Y24.5669
G01 X11.7561 Y24.5744
G01 X11.9413 Y24.6854
G01 X11.9541 Y24.6935
G01 X11.9666 Y24.7023
G01 X12.1400 Y24.8309
G01 X12.1519 Y24.8402
G01 X12.1634 Y24.8501
G01 X12.3234 Y24.9951
G01 X12.3344 Y25.0056
G01 X12.3449 Y25.0166
G01 X12.4899 Y25.1766
G01 X12.4998 Y25.1881
G01 X12.5091 Y25.2000
G01 X12.6377 Y25.3734
G01 X12.6465 Y25.3859
G01 X12.6546 Y25.3987
G01 X12.7656 Y25.5839
G01 X12.7731 Y25.5971
G01 X12.7799 Y25.6106
G01 X12.8722 Y25.8058
G01 X12.8784 Y25.8197
G01 X12.8838 Y25.8339
G01 X12.9566 Y26.0371
G01 X12.9613 Y26.0516
G01 X12.9654 Y26.0662
G01 X13.0178 Y26.2756
G01 X13.0212 Y26.2904
G01 X13.0238 Y26.3054
G01 X13.0554 Y26.5190
G01 X13.0573 Y26.5340
G01 X13.0584 Y26.5492
G01 X13.0690 Y26.7648
G01 X13.0694 Y26.7800
G01 X13.0690 Y26.7952
G01 X13.0584 Y27.0108
G01 X13.0573 Y27.0260
G01 X13.0554 Y27.0410
G01 X13.0238 Y27.2546
G01 X13.0212 Y27.2696
G01 X13.0178 Y27.2844
G01 X12.9654 Y27.4938
G01 X12.9613 Y27.5084
G01 X12.9566 Y27.5229
G01 X12.8838 Y27.7261
G01 X12.8784 Y27.7403
G01 X12.8722 Y27.7542
G01 X12.7799 Y27.9494
G01 X12.7731 Y27.9629
G01 X12.7656 Y27.9761
G01 X12.6546 Y28.1613
G01 X12.6465 Y28.1741
G01 X12.6377 Y28.1866
G01 X12.5091 Y28.3600
G01 X12.4998 Y28.3719
G01 X12.4899 Y28.3834
G01 X12.3449 Y28.5434
G01 X12.3344 Y28.5544
G01 X12.3234 Y28.5649
G01 X12.1634 Y28.7099
G01 X12.1519 Y28.7198
G01 X12.1400 Y28.7291
G01 X11.9666 Y28.8577
G01 X11.9541 Y28.8665
G01 X11.9413 Y28.8746
G01 X11.7561 Y28.9856
G01 X11.7429 Y28.9931
G01 X11.7294 Y28.9999
G01 X11.5342 Y29.0922
G01 X11.5203 Y29.0984
G01 X11.5061 Y29.1038
G01 X11.3029 Y29.1766
G01 X11.2884 Y29.1813
G01 X11.2738 Y29.1854
G01 X11.0644 Y29.2378
G01 X11.0496 Y29.2412
G01 X11.0346 Y29.2438
G01 X10.8210 Y29.2754
G01 X10.8060 Y29.2773
G01 X10.7908 Y29.2784
G01 X10.5752 Y29.2890
G01 X10.5600 Y29.2894
G01 X10.5448 Y29.2890
G01 X10.3292 Y29.2784
G01 X10.3140 Y29.2773
G01 X10.2990 Y29.2754
G01 X10.0854 Y29.2438
G01 X10.0704 Y29.2412
G01 X10.0556 Y29.2378
G01 X9.8462 Y29.1854
G01 X9.8316 Y29.1813
G01 X9.8171 Y29.1766
G01 X9.6139 Y29.1038
G01 X9.5997 Y29.0984
G01 X9.5858 Y29.0922
G01 X9.3906 Y28.9999
G01 X9.3771 Y28.9931
G01 X9.3639 Y28.9856
G01 X9.1787 Y28.8746
G01 X9.1659 Y28.8665
G01 X9.1534 Y28.8577
G01 X8.9800 Y28.7291
G01 X8.9681 Y28.7198
G01 X8.9566 Y28.7099
G01 X8.7966 Y28.5649
G01 X8.7856 Y28.5544
G01 X8.7751 Y28.5434
G01 X8.6301 Y28.3834
G01 X8.6202 Y28.3719
G01 X8.6109 Y28.3600
G01 X8.4823 Y28.1866
G01 X8.4735 Y28.1741
G01 X8.4654 Y28.1613
G01 X8.3544 Y27.9761
G01 X8.3469 Y27.9629
G01 X8.3401 Y27.9494
G01 X8.2478 Y27.7542
G01 X8.2416 Y27.7403
G01 X8.2362 Y27.7261
G01 X8.1634 Y27.5229
G01 X8.1587 Y27.5084
G01 X8.1546 Y27.4938
G01 X8.1022 Y27.2844
G01 X8.0988 Y27.2696
G01 X8.0962 Y27.2546
G01 X8.0646 Y27.0410
G01 X8.0627 Y27.0260
G01 X8.0616 Y27.0108
G01 X8.0510 Y26.7952
G01 X8.0506 Y26.7800
G01 X8.0510 Y26.7648
G01 X8.0616 Y26.5492
G01 X8.0627 Y26.5340
G01 X8.0646 Y26.5190
G01 X8.0962 Y26.3054
G01 X8.0988 Y26.2904
G01 X8.1022 Y26.2756
G01 X8.1546 Y26.0662
G01 X8.1587 Y26.0516
G01 X8.1634 Y26.0371
G01 X8.2362 Y25.8339
G01 X8.2416 Y25.8197
G01 X8.2478 Y25.8058
G01 X8.3401 Y25.6106
G01 X8.3469 Y25.5971
G01 X8.3544 Y25.5839
G01 X8.4654 Y25.3987
G01 X8.4735 Y25.3859
G01 X8.4823 Y25.3734
G01 X8.6109 Y25.2000
G01 X8.6202 Y25.1881
G01 X8.6301 Y25.1766
G01 X8.7751 Y25.0166
G01 X8.7856 Y25.0056
G01 X8.7966 Y24.9951
G01 X8.9566 Y24.8501
G01 X8.9681 Y24.8402
G01 X8.9800 Y24.8309
G01 X9.1534 Y24.7023
G01 X9.1659 Y24.6935
G01 X9.1787 Y24.6854
G01 X9.3639 Y24.5744
G01 X9.3838 Y24.5634
G00 Z2.0000
G00 X9.4659 Y24.7265
G01 F60.00
G01 Z-0.1700
G01 F120.00
G01 X9.6696 Y24.6303
G01 X9.8846 Y24.5534
G01 X10.1061 Y24.4979
G01 X10.3319 Y24.4644
G01 X10.5600 Y24.4532
G01 X10.7881 Y24.4644
G01 X11.0139 Y24.4979
G01 X11.2354 Y24.5534
G01 X11.4504 Y24.6303
G01 X11.6568 Y24.7279
G01 X11.8527 Y24.8453
G01 X12.0361 Y24.9814
G01 X12.2053 Y25.1347
G01 X12.3586 Y25.3039
G01 X12.4947 Y25.4873
G01 X12.6121 Y25.6832
G01 X12.7097 Y25.8896
G01 X12.7866 Y26.1046
G01 X12.8421 Y26.3261
G01 X12.8756 Y26.5519
G01 X12.8868 Y26.7800
G01 X12.8756 Y27.0081
G01 X12.8421 Y27.2339
G01 X12.7866 Y27.4554
G01 X12.7097 Y27.6704
G01 X12.6121 Y27.8768
G01 X12.4947 Y28.0727
G01 X12.3586 Y28.2561
G01 X12.2053 Y28.4253
G01 X12.0361 Y28.5786
G01 X11.8527 Y28.7147
G01 X11.6568 Y28.8321
G01 X11.4504 Y28.9297
G01 X11.2354 Y29.0066
G01 X11.0139 Y29.0621
G01 X10.7881 Y29.0956
G01 X10.5600 Y29.1068
G01 X10.3319 Y29.0956
G01 X10.1061 Y29.0621
G01 X9.8846 Y29.0066
G01 X9.6696 Y28.9297
G01 X9.4632 Y28.8321
G01 X9.2673 Y28.7147
G01 X9.0839 Y28.5786
G01 X8.9147 Y28.4253
G01 X8.7614 Y28.2561
G01 X8.6253 Y28.0727
G01 X8.5079 Y27.8768
G01 X8.4103 Y27.6704
G01 X8.3334 Y27.4554
G01 X8.2779 Y27.2339
G01 X8.2444 Y27.0081
G01 X8.2332 Y26.7800
G01 X8.2444 Y26.5519
G01 X8.2779 Y26.3261
G01 X8.3334 Y26.1046
G01 X8.4103 Y25.8896
G01 X8.5079 Y25.6832
G01 X8.6253 Y25.4873
G01 X8.7614 Y25.3039
G01 X8.9147 Y25.1347
G01 X9.0839 Y24.9814
G01 X9.2673 Y24.8453
G01 X9.4577 Y24.7310
G01 X9.4659 Y24.7265
G00 Z2.0000
G00 X14.7584 Y37.7828
G01 F60.00
G01 Z-0.1700
G01 F120.00
G01 X14.8199 Y37.6597
G01 X14.8516 Y37.6280
G01 X14.9435 Y37.5821
G01 X15.0032 Y37.5821
G01 X15.0950 Y37.6280
G01 X15.1267 Y37.6597
G01 X15.1883 Y37.7828
G01 X15.2679 Y38.1012
G01 X15.2679 Y38.5092
G01 X15.1883 Y38.8276
G01 X15.1267 Y38.9508
G01 X15.0950 Y38.9824
G01 X15.0032 Y39.0284
G01 X14.9435 Y39.0284
G01 X14.8516 Y38.9824
G01 X14.8199 Y38.9508
G01 X14.7584 Y38.8276
G01 X14.6788 Y38.5092
G01 X14.6788 Y38.1012
G01 X14.7584 Y37.7828
G00 Z2.0000
G00 X14.9666 Y37.7747
G01 F60.00
G01 Z-0.1700
G01 F120.00
G01 X14.9733 Y37.7713
G01 X14.9801 Y37.7747
G01 X15.0160 Y37.8466
G01 X15.0853 Y38.1237
G01 X15.0853 Y38.4868
G01 X15.0160 Y38.7639
G01 X14.9801 Y38.8358
G01 X14.9733 Y38.8392
G01 X14.9666 Y38.8358
G01 X14.9307 Y38.7639
G01 X14.8614 Y38.4868
G01 X14.8614 Y38.1237
G01 X14.9307 Y37.8466
G01 X14.9666 Y37.7747
G00 Z2.0000
G00 X16.1104 Y37.8509
G01 F60.00
G01 Z-0.1700
G01 F120.00
G01 X16.0969 Y37.8391
G01 X16.0770 Y37.8206
G01 X15.9818 Y37.7254
G01 X15.9713 Y37.7144
G01 X15.9564 Y37.6978
G01 X15.9422 Y37.6800
G01 X15.9246 Y37.6557
G01 X15.9093 Y37.6309
G01 X15.9905 Y37.9557
G01 X15.9927 Y37.9649
G01 X15.9979 Y37.9923
G01 X16.0012 Y38.0148
G01 X16.0036 Y38.0482
G01 X16.0042 Y38.0671
G01 X16.0041 Y38.5528
G01 X16.0020 Y38.5882
G01 X16.0003 Y38.6032
G01 X15.9945 Y38.6363
G01 X15.9905 Y38.6548
G01 X15.8931 Y39.0439
G01 X15.8859 Y39.0677
G01 X15.8805 Y39.0837
G01 X15.8676 Y39.1144
G01 X15.8605 Y39.1298
G01 X15.7614 Y39.3276
G01 X15.7453 Y39.3560
G01 X15.7363 Y39.3700
G01 X15.7221 Y39.3898
G01 X15.7121 Y39.4030
G01 X15.7013 Y39.4156
G01 X15.6850 Y39.4337
G01 X15.5839 Y39.5349
G01 X15.5719 Y39.5463
G01 X15.5473 Y39.5678
G01 X15.5211 Y39.5873
G01 X15.5003 Y39.6010
G01 X15.4719 Y39.6171
G01 X15.2676 Y39.7193
G01 X15.2418 Y39.7308
G01 X15.2284 Y39.7360
G01 X15.2016 Y39.7450
G01 X15.1809 Y39.7507
G01 X15.1533 Y39.7568
G01 X15.1254 Y39.7611
G01 X15.1040 Y39.7633
G01 X15.0757 Y39.7646
G01 X14.8709 Y39.7646
G01 X14.8355 Y39.7627
G01 X14.8075 Y39.7591
G01 X14.7934 Y39.7568
G01 X14.7658 Y39.7507
G01 X14.7450 Y39.7450
G01 X14.7183 Y39.7360
G01 X14.6983 Y39.7280
G01 X14.6726 Y39.7162
G01 X14.4821 Y39.6210
G01 X14.4675 Y39.6131
G01 X14.4393 Y39.5966
G01 X14.4126 Y39.5779
G01 X14.3930 Y39.5625
G01 X14.3687 Y39.5407
G01 X14.2617 Y39.4337
G01 X14.2453 Y39.4156
G01 X14.2346 Y39.4030
G01 X14.2245 Y39.3898
G01 X14.2104 Y39.3700
G01 X14.1972 Y39.3489
G01 X14.1814 Y39.3202
G01 X14.0862 Y39.1298
G01 X14.0790 Y39.1144
G01 X14.0693 Y39.0916
G01 X14.0608 Y39.0677
G01 X14.0536 Y39.0439
G01 X14.0384 Y38.9838
G01 X14.0207 Y38.9984
G01 X14.0087 Y39.0078
G01 X13.9841 Y39.0247
G01 X13.9647 Y39.0366
G01 X13.9450 Y39.0472
G01 X13.9314 Y39.0540
G01 X13.9176 Y39.0602
G01 X13.8969 Y39.0686
G01 X13.8754 Y39.0760
G01 X13.8466 Y39.0843
G01 X13.8318 Y39.0877
G01 X13.8099 Y39.0919
G01 X13.7873 Y39.0950
G01 X13.7651 Y39.0970
G01 X13.7499 Y39.0978
G01 X13.7276 Y39.0979
G01 X13.7124 Y39.0975
G01 X13.6826 Y39.0949
G01 X13.6601 Y39.0918
G01 X13.6381 Y39.0875
G01 X13.6233 Y39.0842
G01 X13.6087 Y39.0801
G01 X13.5874 Y39.0736
G01 X13.5660 Y39.0656
G01 X13.5385 Y39.0538
G01 X13.5250 Y39.0470
G01 X13.5054 Y39.0364
G01 X13.4860 Y39.0244
G01 X13.4613 Y39.0075
G01 X13.4494 Y38.9981
G01 X13.4322 Y38.9839
G01 X13.4155 Y38.9684
G01 X13.3946 Y38.9469
G01 X13.3847 Y38.9354
G01 X13.3706 Y38.9181
G01 X13.3573 Y38.8996
G01 X13.3410 Y38.8746
G01 X13.3266 Y38.8483
G01 X13.3166 Y38.8279
G01 X13.3080 Y38.8073
G01 X13.3025 Y38.7931
G01 X13.2590 Y38.6713
G01 X13.2129 Y38.8002
G01 X13.2045 Y38.8209
G01 X13.1983 Y38.8348
G01 X13.1846 Y38.8613
G01 X13.1771 Y38.8746
G01 X13.1690 Y38.8874
G01 X13.1565 Y38.9059
G01 X13.1475 Y38.9181
G01 X13.1334 Y38.9354
G01 X13.1235 Y38.9469
G01 X13.1130 Y38.9579
G01 X13.0972 Y38.9737
G01 X13.0859 Y38.9839
G01 X13.0687 Y38.9981
G01 X13.0568 Y39.0075
G01 X13.0444 Y39.0162
G01 X13.0258 Y39.0285
G01 X13.0127 Y39.0364
G01 X12.9864 Y39.0505
G01 X12.9726 Y39.0570
G01 X12.9521 Y39.0656
G01 X12.9379 Y39.0711
G01 X12.9235 Y39.0759
G01 X12.8948 Y39.0842
G01 X12.8655 Y39.0904
G01 X12.8505 Y39.0930
G01 X12.8355 Y39.0949
G01 X12.8133 Y39.0970
G01 X12.7981 Y39.0978
G01 X12.7682 Y39.0978
G01 X12.7530 Y39.0970
G01 X12.7308 Y39.0950
G01 X12.7157 Y39.0931
G01 X12.7007 Y39.0905
G01 X12.6789 Y39.0861
G01 X12.6568 Y39.0803
G01 X12.6355 Y39.0737
G01 X12.6212 Y39.0686
G01 X12.5936 Y39.0572
G01 X12.5798 Y39.0507
G01 X12.5601 Y39.0403
G01 X12.5469 Y39.0328
G01 X12.5340 Y39.0247
G01 X12.5094 Y39.0078
G01 X12.4860 Y38.9891
G01 X12.4745 Y38.9792
G01 X12.4635 Y38.9687
G01 X12.4478 Y38.9529
G01 X12.4376 Y38.9416
G01 X12.4186 Y38.9185
G01 X12.4095 Y38.9063
G01 X12.3970 Y38.8878
G01 X12.3851 Y38.8685
G01 X12.3745 Y38.8488
G01 X12.3676 Y38.8353
G01 X12.3615 Y38.8214
G01 X12.3530 Y38.8007
G01 X12.3479 Y38.7864
G01 X12.3392 Y38.7578
G01 X12.3355 Y38.7431
G01 X12.3310 Y38.7212
G01 X12.3284 Y38.7063
G01 X12.3251 Y38.6765
G01 X12.3237 Y38.6538
G01 X12.3236 Y38.6315
G01 X12.3239 Y38.6163
G01 X12.3265 Y38.5865
G01 X12.3295 Y38.5639
G01 X12.3338 Y38.5420
G01 X12.3371 Y38.5272
G01 X12.3454 Y38.4985
G01 X12.3502 Y38.4840
G01 X12.8263 Y37.1507
G01 X12.8318 Y37.1365
G01 X12.8404 Y37.1159
G01 X12.8504 Y37.0954
G01 X12.8648 Y37.0692
G01 X12.8811 Y37.0441
G01 X12.8945 Y37.0257
G01 X12.9135 Y37.0025
G01 X12.9290 Y36.9858
G01 X12.9504 Y36.9649
G01 X12.9733 Y36.9456
G01 X12.9914 Y36.9318
G01 X13.0163 Y36.9152
G01 X13.0359 Y36.9037
G01 X13.0625 Y36.8899
G01 X13.0900 Y36.8781
G01 X13.1042 Y36.8727
G01 X13.1327 Y36.8636
G01 X13.1547 Y36.8578
G01 X13.1766 Y36.8533
G01 X13.1916 Y36.8507
G01 X13.2213 Y36.8474
G01 X13.2441 Y36.8460
G01 X13.2664 Y36.8460
G01 X13.2816 Y36.8463
G01 X13.2968 Y36.8474
G01 X13.3190 Y36.8497
G01 X13.3415 Y36.8533
G01 X13.3633 Y36.8578
G01 X13.3781 Y36.8615
G01 X13.3995 Y36.8679
G01 X13.4139 Y36.8727
G01 X13.4281 Y36.8781
G01 X13.4487 Y36.8868
G01 X13.4624 Y36.8933
G01 X13.4821 Y36.9037
G01 X13.5018 Y36.9152
G01 X13.5204 Y36.9275
G01 X13.5329 Y36.9363
G01 X13.5448 Y36.9456
G01 X13.5620 Y36.9599
G01 X13.5787 Y36.9754
G01 X13.5996 Y36.9968
G01 X13.6095 Y37.0083
G01 X13.6236 Y37.0257
G01 X13.6370 Y37.0441
G01 X13.6493 Y37.0628
G01 X13.6571 Y37.0758
G01 X13.6677 Y37.0954
G01 X13.6745 Y37.1090
G01 X13.6807 Y37.1229
G01 X13.6891 Y37.1436
G01 X13.9657 Y37.9177
G01 X14.0514 Y37.5748
G01 X14.0559 Y37.5585
G01 X14.0662 Y37.5268
G01 X14.0790 Y37.4960
G01 X14.0862 Y37.4807
G01 X14.1814 Y37.2902
G01 X14.1892 Y37.2756
G01 X14.2014 Y37.2545
G01 X14.2151 Y37.2337
G01 X14.2295 Y37.2140
G01 X14.2399 Y37.2011
G01 X14.2561 Y37.1829
G01 X14.2675 Y37.1708
G01 X14.3687 Y37.0698
G01 X14.3867 Y37.0534
G01 X14.3994 Y37.0427
G01 X14.4256 Y37.0232
G01 X14.4464 Y37.0095
G01 X14.4675 Y36.9973
G01 X14.4821 Y36.9895
G01 X14.6726 Y36.8943
G01 X14.6856 Y36.8882
G01 X14.7116 Y36.8770
G01 X14.7450 Y36.8655
G01 X14.7588 Y36.8615
G01 X14.7793 Y36.8566
G01 X14.7934 Y36.8537
G01 X14.8075 Y36.8513
G01 X14.8284 Y36.8485
G01 X14.8427 Y36.8472
G01 X14.8781 Y36.8458
G01 X15.0757 Y36.8459
G01 X15.1111 Y36.8477
G01 X15.1391 Y36.8513
G01 X15.1603 Y36.8551
G01 X15.1947 Y36.8634
G01 X15.2216 Y36.8721
G01 X15.2418 Y36.8797
G01 X15.2741 Y36.8943
G01 X15.4645 Y36.9895
G01 X15.4931 Y37.0053
G01 X15.5143 Y37.0184
G01 X15.5408 Y37.0376
G01 X15.5599 Y37.0534
G01 X15.5839 Y37.0756
G01 X15.6792 Y37.1708
G01 X15.6906 Y37.1829
G01 X15.7121 Y37.2075
G01 X15.7221 Y37.2207
G01 X15.7409 Y37.2474
G01 X15.7495 Y37.2616
G01 X15.7614 Y37.2829
G01 X15.8516 Y37.4630
G01 X15.8488 Y37.4379
G01 X15.8473 Y37.4081
G01 X15.8473 Y37.3929
G01 X15.8483 Y37.3706
G01 X15.8494 Y37.3554
G01 X15.8513 Y37.3404
G01 X15.8546 Y37.3183
G01 X15.8576 Y37.3034
G01 X15.8629 Y37.2817
G01 X15.8670 Y37.2671
G01 X15.8717 Y37.2527
G01 X15.8794 Y37.2317
G01 X15.8852 Y37.2177
G01 X15.8946 Y37.1975
G01 X15.9015 Y37.1839
G01 X15.9165 Y37.1580
G01 X15.9289 Y37.1389
G01 X15.9422 Y37.1210
G01 X15.9515 Y37.1090
G01 X15.9713 Y37.0866
G01 X15.9818 Y37.0756
G01 X16.0824 Y36.9750
G01 X16.0989 Y36.9600
G01 X16.1104 Y36.9501
G01 X16.1342 Y36.9320
G01 X16.1530 Y36.9191
G01 X16.1721 Y36.9075
G01 X16.1853 Y36.9000
G01 X16.1989 Y36.8932
G01 X16.2191 Y36.8837
G01 X16.2402 Y36.8753
G01 X16.2685 Y36.8656
G01 X16.2832 Y36.8615
G01 X16.3048 Y36.8562
G01 X16.3272 Y36.8520
G01 X16.3493 Y36.8488
G01 X16.3644 Y36.8473
G01 X16.3867 Y36.8461
G01 X16.4019 Y36.8458
G01 X16.4318 Y36.8469
G01 X16.4545 Y36.8488
G01 X16.4766 Y36.8520
G01 X16.4915 Y36.8546
G01 X16.5064 Y36.8579
G01 X16.5280 Y36.8634
G01 X16.5497 Y36.8703
G01 X16.5707 Y36.8779
G01 X16.5847 Y36.8837
G01 X16.6049 Y36.8932
G01 X16.6185 Y36.9000
G01 X16.6443 Y36.9151
G01 X16.6572 Y36.9232
G01 X16.6814 Y36.9407
G01 X16.6992 Y36.9550
G01 X16.7158 Y36.9699
G01 X16.7268 Y36.9803
G01 X16.8220 Y37.0756
G01 X16.8325 Y37.0866
G01 X16.8474 Y37.1032
G01 X16.8571 Y37.1149
G01 X16.8749 Y37.1389
G01 X16.8833 Y37.1516
G01 X16.8987 Y37.1772
G01 X16.9059 Y37.1906
G01 X16.9186 Y37.2177
G01 X16.9245 Y37.2317
G01 X16.9345 Y37.2599
G01 X16.9389 Y37.2744
G01 X16.9462 Y37.3034
G01 X16.9504 Y37.3258
G01 X16.9536 Y37.3479
G01 X16.9555 Y37.3706
G01 X16.9566 Y37.4005
G01 X16.9555 Y37.4304
G01 X16.9536 Y37.4531
G01 X16.9492 Y37.4826
G01 X16.9462 Y37.4975
G01 X16.9389 Y37.5266
G01 X16.9321 Y37.5483
G01 X16.9216 Y37.5763
G01 X16.9155 Y37.5902
G01 X16.9024 Y37.6171
G01 X16.8873 Y37.6429
G01 X16.8749 Y37.6620
G01 X16.8571 Y37.6860
G01 X16.8424 Y37.7035
G01 X16.8220 Y37.7254
G01 X16.7268 Y37.8206
G01 X16.7158 Y37.8311
G01 X16.6992 Y37.8460
G01 X16.6814 Y37.8602
G01 X16.6572 Y37.8777
G01 X16.6317 Y37.8934
G01 X16.6185 Y37.9009
G01 X16.6049 Y37.9078
G01 X16.5777 Y37.9202
G01 X16.5497 Y37.9306
G01 X16.5353 Y37.9354
G01 X16.5064 Y37.9430
G01 X16.4841 Y37.9477
G01 X16.4620 Y37.9511
G01 X16.4469 Y37.9530
G01 X16.4171 Y37.9548
G01 X16.3943 Y37.9551
G01 X16.3644 Y37.9536
G01 X16.3418 Y37.9511
G01 X16.3123 Y37.9464
G01 X16.2832 Y37.9394
G01 X16.2613 Y37.9331
G01 X16.2402 Y37.9257
G01 X16.2261 Y37.9202
G01 X16.1989 Y37.9078
G01 X16.1787 Y37.8973
G01 X16.1530 Y37.8819
G01 X16.1342 Y37.8690
G01 X16.1104 Y37.8509
G00 Z2.0000
G00 X16.2263 Y37.7097
G01 F60.00
G01 Z-0.1700
G01 F120.00
G01 X16.2061 Y37.6915
G01 X16.1109 Y37.5963
G01 X16.0946 Y37.5785
G01 X16.0800 Y37.5594
G01 X16.0731 Y37.5490
G01 X16.0625 Y37.5310
G01 X16.0509 Y37.5064
G01 X16.0417 Y37.4808
G01 X16.0351 Y37.4545
G01 X16.0311 Y37.4276
G01 X16.0298 Y37.4005
G01 X16.0311 Y37.3733
G01 X16.0351 Y37.3465
G01 X16.0417 Y37.3201
G01 X16.0486 Y37.3003
G01 X16.0521 Y37.2917
G01 X16.0625 Y37.2700
G01 X16.0765 Y37.2467
G01 X16.0926 Y37.2248
G01 X16.1087 Y37.2069
G01 X16.2061 Y37.1095
G01 X16.2215 Y37.0953
G01 X16.2287 Y37.0893
G01 X16.2455 Y37.0768
G01 X16.2533 Y37.0717
G01 X16.2714 Y37.0611
G01 X16.2903 Y37.0520
G01 X16.2988 Y37.0483
G01 X16.3186 Y37.0412
G01 X16.3275 Y37.0386
G01 X16.3448 Y37.0343
G01 X16.3540 Y37.0326
G01 X16.3748 Y37.0297
G01 X16.3957 Y37.0285
G01 X16.4050 Y37.0284
G01 X16.4259 Y37.0294
G01 X16.4352 Y37.0305
G01 X16.4559 Y37.0337
G01 X16.4823 Y37.0403
G01 X16.5021 Y37.0472
G01 X16.5107 Y37.0507
G01 X16.5324 Y37.0611
G01 X16.5557 Y37.0750
G01 X16.5776 Y37.0912
G01 X16.5955 Y37.1073
G01 X16.6929 Y37.2047
G01 X16.7071 Y37.2201
G01 X16.7131 Y37.2273
G01 X16.7256 Y37.2441
G01 X16.7307 Y37.2519
G01 X16.7413 Y37.2700
G01 X16.7504 Y37.2888
G01 X16.7541 Y37.2974
G01 X16.7612 Y37.3171
G01 X16.7638 Y37.3261
G01 X16.7687 Y37.3465
G01 X16.7719 Y37.3672
G01 X16.7730 Y37.3764
G01 X16.7739 Y37.3943
G01 X16.7740 Y37.4036
G01 X16.7730 Y37.4245
G01 X16.7719 Y37.4338
G01 X16.7687 Y37.4545
G01 X16.7621 Y37.4808
G01 X16.7552 Y37.5006
G01 X16.7517 Y37.5093
G01 X16.7413 Y37.5310
G01 X16.7307 Y37.5490
G01 X16.7238 Y37.5594
G01 X16.7092 Y37.5785
G01 X16.6929 Y37.5963
G01 X16.5977 Y37.6915
G01 X16.5776 Y37.7097
G01 X16.5557 Y37.7259
G01 X16.5324 Y37.7399
G01 X16.5135 Y37.7490
G01 X16.5050 Y37.7527
G01 X16.4823 Y37.7607
G01 X16.4620 Y37.7659
G01 X16.4529 Y37.7678
G01 X16.4290 Y37.7713
G01 X16.4050 Y37.7726
G01 X16.3957 Y37.7724
G01 X16.3748 Y37.7713
G01 X16.3540 Y37.7683
G01 X16.3448 Y37.7666
G01 X16.3215 Y37.7607
G01 X16.2988 Y37.7527
G01 X16.2903 Y37.7490
G01 X16.2714 Y37.7399
G01 X16.2533 Y37.7293
G01 X16.2455 Y37.7242
G01 X16.2263 Y37.7097
G00 Z2.0000
G00 X16.2040 Y38.1065
G01 F60.00
G01 Z-0.1700
G01 F120.00
G01 X16.1868 Y38.1005
G01 X16.1866 Y38.5584
G01 X16.1848 Y38.5918
G01 X16.1827 Y38.6158
G01 X16.1795 Y38.6397
G01 X16.1711 Y38.6844
G01 X16.0724 Y39.0800
G01 X16.0652 Y39.1059
G01 X16.0562 Y39.1344
G01 X16.0469 Y39.1596
G01 X16.0296 Y39.1993
G01 X15.9286 Y39.4019
G01 X15.9161 Y39.4252
G01 X15.9015 Y39.4505
G01 X15.8945 Y39.4617
G01 X15.8872 Y39.4727
G01 X15.8703 Y39.4966
G01 X15.8543 Y39.5176
G01 X15.8459 Y39.5277
G01 X15.8175 Y39.5593
G01 X15.7131 Y39.6640
G01 X15.6939 Y39.6822
G01 X15.6720 Y39.7016
G01 X15.6618 Y39.7100
G01 X15.6409 Y39.7260
G01 X15.6170 Y39.7430
G01 X15.6060 Y39.7502
G01 X15.5834 Y39.7639
G01 X15.5579 Y39.7782
G01 X15.5462 Y39.7843
G01 X15.3557 Y39.8795
G01 X15.3224 Y39.8949
G01 X15.3119 Y39.8994
G01 X15.2906 Y39.9076
G01 X15.2667 Y39.9158
G01 X15.2449 Y39.9226
G01 X15.2093 Y39.9316
G01 X15.1870 Y39.9363
G01 X15.1757 Y39.9383
G01 X15.1507 Y39.9419
G01 X15.1280 Y39.9445
G01 X15.1053 Y39.9461
G01 X15.0800 Y39.9472
G01 X14.8781 Y39.9473
G01 X14.8553 Y39.9468
G01 X14.8186 Y39.9445
G01 X14.7822 Y39.9400
G01 X14.7709 Y39.9383
G01 X14.7485 Y39.9341
G01 X14.7128 Y39.9256
G01 X14.6908 Y39.9194
G01 X14.6560 Y39.9076
G01 X14.6348 Y39.8994
G01 X14.6243 Y39.8949
G01 X14.5910 Y39.8795
G01 X14.4005 Y39.7843
G01 X14.3772 Y39.7718
G01 X14.3519 Y39.7572
G01 X14.3407 Y39.7502
G01 X14.3189 Y39.7354
G01 X14.2952 Y39.7181
G01 X14.2848 Y39.7100
G01 X14.2647 Y39.6929
G01 X14.2431 Y39.6732
G01 X14.2336 Y39.6640
G01 X14.1384 Y39.5688
G01 X14.1202 Y39.5496
G01 X14.1008 Y39.5277
G01 X14.0842 Y39.5072
G01 X14.0670 Y39.4835
G01 X14.0521 Y39.4617
G01 X14.0385 Y39.4392
G01 X14.0242 Y39.4136
G01 X14.0181 Y39.4019
G01 X13.9406 Y39.2469
G01 X13.9142 Y39.2551
G01 X13.8909 Y39.2615
G01 X13.8791 Y39.2643
G01 X13.8529 Y39.2696
G01 X13.8291 Y39.2737
G01 X13.8171 Y39.2754
G01 X13.7904 Y39.2781
G01 X13.7664 Y39.2799
G01 X13.7422 Y39.2805
G01 X13.7154 Y39.2803
G01 X13.6913 Y39.2791
G01 X13.6793 Y39.2780
G01 X13.6526 Y39.2753
G01 X13.6287 Y39.2717
G01 X13.6024 Y39.2666
G01 X13.5789 Y39.2613
G01 X13.5556 Y39.2548
G01 X13.5300 Y39.2469
G01 X13.5073 Y39.2388
G01 X13.4961 Y39.2343
G01 X13.4714 Y39.2239
G01 X13.4495 Y39.2135
G01 X13.4258 Y39.2010
G01 X13.4048 Y39.1891
G01 X13.3844 Y39.1762
G01 X13.3622 Y39.1611
G01 X13.3429 Y39.1467
G01 X13.3221 Y39.1298
G01 X13.3038 Y39.1141
G01 X13.2949 Y39.1058
G01 X13.2759 Y39.0870
G01 X13.2590 Y39.0692
G01 X13.2422 Y39.0870
G01 X13.2232 Y39.1058
G01 X13.2143 Y39.1141
G01 X13.1960 Y39.1298
G01 X13.1752 Y39.1467
G01 X13.1559 Y39.1611
G01 X13.1337 Y39.1762
G01 X13.1133 Y39.1891
G01 X13.0923 Y39.2010
G01 X13.0686 Y39.2135
G01 X13.0467 Y39.2239
G01 X13.0220 Y39.2343
G01 X12.9995 Y39.2430
G01 X12.9881 Y39.2469
G01 X12.9625 Y39.2548
G01 X12.9392 Y39.2613
G01 X12.9157 Y39.2666
G01 X12.8894 Y39.2717
G01 X12.8655 Y39.2753
G01 X12.8388 Y39.2780
G01 X12.8268 Y39.2791
G01 X12.8027 Y39.2803
G01 X12.7759 Y39.2805
G01 X12.7517 Y39.2799
G01 X12.7276 Y39.2781
G01 X12.7010 Y39.2754
G01 X12.6771 Y39.2718
G01 X12.6508 Y39.2668
G01 X12.6272 Y39.2615
G01 X12.6039 Y39.2551
G01 X12.5783 Y39.2471
G01 X12.5556 Y39.2390
G01 X12.5308 Y39.2289
G01 X12.5087 Y39.2191
G01 X12.4978 Y39.2139
G01 X12.4741 Y39.2014
G01 X12.4531 Y39.1895
G01 X12.4428 Y39.1832
G01 X12.4204 Y39.1684
G01 X12.4007 Y39.1545
G01 X12.3911 Y39.1472
G01 X12.3703 Y39.1303
G01 X12.3520 Y39.1146
G01 X12.3431 Y39.1063
G01 X12.3240 Y39.0875
G01 X12.3074 Y39.0700
G01 X12.2994 Y39.0610
G01 X12.2822 Y39.0404
G01 X12.2674 Y39.0213
G01 X12.2603 Y39.0116
G01 X12.2453 Y38.9894
G01 X12.2323 Y38.9690
G01 X12.2263 Y38.9586
G01 X12.2135 Y38.9350
G01 X12.2079 Y38.9243
G01 X12.1976 Y38.9025
G01 X12.1872 Y38.8778
G01 X12.1785 Y38.8552
G01 X12.1745 Y38.8438
G01 X12.1666 Y38.8182
G01 X12.1632 Y38.8066
G01 X12.1573 Y38.7832
G01 X12.1519 Y38.7569
G01 X12.1478 Y38.7332
G01 X12.1462 Y38.7212
G01 X12.1434 Y38.6945
G01 X12.1416 Y38.6705
G01 X12.1411 Y38.6584
G01 X12.1410 Y38.6316
G01 X12.1411 Y38.6195
G01 X12.1423 Y38.5954
G01 X12.1461 Y38.5567
G01 X12.1496 Y38.5328
G01 X12.1518 Y38.5209
G01 X12.1572 Y38.4947
G01 X12.1599 Y38.4829
G01 X12.1630 Y38.4713
G01 X12.1706 Y38.4456
G01 X12.1782 Y38.4226
G01 X12.6544 Y37.0893
G01 X12.6586 Y37.0780
G01 X12.6687 Y37.0531
G01 X12.6735 Y37.0420
G01 X12.6838 Y37.0202
G01 X12.6963 Y36.9965
G01 X12.7082 Y36.9754
G01 X12.7145 Y36.9651
G01 X12.7293 Y36.9428
G01 X12.7432 Y36.9230
G01 X12.7505 Y36.9134
G01 X12.7751 Y36.8833
G01 X12.7914 Y36.8654
G01 X12.7998 Y36.8567
G01 X12.8189 Y36.8379
G01 X12.8277 Y36.8297
G01 X12.8367 Y36.8217
G01 X12.8574 Y36.8045
G01 X12.8668 Y36.7970
G01 X12.8862 Y36.7826
G01 X12.9185 Y36.7610
G01 X12.9393 Y36.7485
G01 X12.9498 Y36.7427
G01 X12.9736 Y36.7302
G01 X12.9844 Y36.7249
G01 X13.0065 Y36.7151
G01 X13.0313 Y36.7050
G01 X13.0541 Y36.6968
G01 X13.0656 Y36.6932
G01 X13.0913 Y36.6855
G01 X13.1030 Y36.6824
G01 X13.1147 Y36.6796
G01 X13.1410 Y36.6743
G01 X13.1648 Y36.6701
G01 X13.1768 Y36.6685
G01 X13.2155 Y36.6647
G01 X13.2396 Y36.6635
G01 X13.2785 Y36.6635
G01 X13.2906 Y36.6640
G01 X13.3147 Y36.6657
G01 X13.3413 Y36.6685
G01 X13.3533 Y36.6701
G01 X13.3771 Y36.6743
G01 X13.4034 Y36.6796
G01 X13.4151 Y36.6824
G01 X13.4268 Y36.6855
G01 X13.4525 Y36.6932
G01 X13.4640 Y36.6968
G01 X13.4868 Y36.7050
G01 X13.5227 Y36.7198
G01 X13.5445 Y36.7302
G01 X13.5788 Y36.7485
G01 X13.5996 Y36.7610
G01 X13.6319 Y36.7826
G01 X13.6513 Y36.7970
G01 X13.6813 Y36.8217
G01 X13.6992 Y36.8379
G01 X13.7267 Y36.8654
G01 X13.7430 Y36.8833
G01 X13.7676 Y36.9134
G01 X13.7820 Y36.9328
G01 X13.8036 Y36.9651
G01 X13.8160 Y36.9859
G01 X13.8288 Y37.0095
G01 X13.8343 Y37.0202
G01 X13.8446 Y37.0420
G01 X13.8595 Y37.0780
G01 X13.9529 Y37.3390
G01 X14.0181 Y37.2086
G01 X14.0305 Y37.1853
G01 X14.0452 Y37.1599
G01 X14.0521 Y37.1488
G01 X14.0670 Y37.1269
G01 X14.0842 Y37.1033
G01 X14.1008 Y37.0828
G01 X14.1095 Y37.0728
G01 X14.1292 Y37.0512
G01 X14.1384 Y37.0417
G01 X14.2431 Y36.9373
G01 X14.2647 Y36.9176
G01 X14.2848 Y36.9005
G01 X14.3058 Y36.8845
G01 X14.3297 Y36.8675
G01 X14.3519 Y36.8533
G01 X14.3772 Y36.8386
G01 X14.4005 Y36.8262
G01 X14.6012 Y36.7260
G01 X14.6243 Y36.7156
G01 X14.6454 Y36.7068
G01 X14.6668 Y36.6991
G01 X14.6908 Y36.6911
G01 X14.7128 Y36.6849
G01 X14.7374 Y36.6789
G01 X14.7597 Y36.6742
G01 X14.7822 Y36.6705
G01 X14.8186 Y36.6659
G01 X14.8414 Y36.6644
G01 X14.8667 Y36.6633
G01 X15.0686 Y36.6632
G01 X15.1053 Y36.6644
G01 X15.1167 Y36.6650
G01 X15.1394 Y36.6671
G01 X15.1645 Y36.6705
G01 X15.1870 Y36.6742
G01 X15.2093 Y36.6789
G01 X15.2339 Y36.6849
G01 X15.2558 Y36.6911
G01 X15.2799 Y36.6991
G01 X15.3013 Y36.7068
G01 X15.3119 Y36.7111
G01 X15.3351 Y36.7212
G01 X15.3557 Y36.7310
G01 X15.5462 Y36.8262
G01 X15.5695 Y36.8386
G01 X15.5948 Y36.8533
G01 X15.6060 Y36.8602
G01 X15.6278 Y36.8751
G01 X15.6515 Y36.8923
G01 X15.6720 Y36.9089
G01 X15.6819 Y36.9176
G01 X15.7036 Y36.9373
G01 X15.7131 Y36.9465
G01 X15.7884 Y37.0218
G01 X15.8103 Y36.9932
G01 X15.8261 Y36.9749
G01 X15.8442 Y36.9551
G01 X15.9479 Y36.8512
G01 X15.9654 Y36.8346
G01 X15.9853 Y36.8167
G01 X16.0040 Y36.8014
G01 X16.0255 Y36.7853
G01 X16.0452 Y36.7714
G01 X16.0656 Y36.7585
G01 X16.0887 Y36.7448
G01 X16.1100 Y36.7334
G01 X16.1341 Y36.7218
G01 X16.1562 Y36.7121
G01 X16.1868 Y36.7005
G01 X16.2155 Y36.6908
G01 X16.2388 Y36.6844
G01 X16.2648 Y36.6780
G01 X16.2885 Y36.6733
G01 X16.3150 Y36.6692
G01 X16.3390 Y36.6663
G01 X16.3631 Y36.6645
G01 X16.3898 Y36.6633
G01 X16.4140 Y36.6633
G01 X16.4408 Y36.6645
G01 X16.4648 Y36.6663
G01 X16.4768 Y36.6676
G01 X16.5034 Y36.6714
G01 X16.5272 Y36.6755
G01 X16.5507 Y36.6808
G01 X16.5767 Y36.6875
G01 X16.5998 Y36.6945
G01 X16.6364 Y36.7076
G01 X16.6587 Y36.7168
G01 X16.6830 Y36.7281
G01 X16.7046 Y36.7390
G01 X16.7151 Y36.7448
G01 X16.7382 Y36.7585
G01 X16.7586 Y36.7714
G01 X16.7784 Y36.7853
G01 X16.7998 Y36.8014
G01 X16.8092 Y36.8089
G01 X16.8275 Y36.8247
G01 X16.8473 Y36.8428
G01 X16.9511 Y36.9465
G01 X16.9678 Y36.9640
G01 X16.9857 Y36.9839
G01 X17.0010 Y37.0026
G01 X17.0171 Y37.0240
G01 X17.0310 Y37.0438
G01 X17.0439 Y37.0642
G01 X17.0576 Y37.0872
G01 X17.0689 Y37.1085
G01 X17.0805 Y37.1327
G01 X17.0903 Y37.1548
G01 X17.0990 Y37.1773
G01 X17.1079 Y37.2026
G01 X17.1149 Y37.2257
G01 X17.1216 Y37.2517
G01 X17.1269 Y37.2752
G01 X17.1291 Y37.2871
G01 X17.1348 Y37.3255
G01 X17.1365 Y37.3417
G01 X17.1709 Y37.3361
G01 X17.1952 Y37.3330
G01 X17.2196 Y37.3312
G01 X17.2468 Y37.3300
G01 X17.5694 Y37.3298
G01 X17.5695 Y37.2932
G01 X17.5714 Y37.2543
G01 X17.5725 Y37.2423
G01 X17.5754 Y37.2183
G01 X17.5795 Y37.1919
G01 X17.5817 Y37.1800
G01 X17.5870 Y37.1564
G01 X17.5937 Y37.1305
G01 X17.5970 Y37.1189
G01 X17.6007 Y37.1073
G01 X17.6096 Y37.0821
G01 X17.6138 Y37.0707
G01 X17.6230 Y37.0484
G01 X17.6396 Y37.0133
G01 X17.6510 Y36.9920
G01 X17.6571 Y36.9816
G01 X17.6710 Y36.9587
G01 X17.6776 Y36.9485
G01 X17.6844 Y36.9386
G01 X17.7003 Y36.9170
G01 X17.7151 Y36.8979
G01 X17.7229 Y36.8887
G01 X17.7490 Y36.8599
G01 X17.7661 Y36.8428
G01 X17.7749 Y36.8346
G01 X17.7949 Y36.8167
G01 X17.8041 Y36.8089
G01 X17.8135 Y36.8014
G01 X17.8350 Y36.7853
G01 X17.8547 Y36.7714
G01 X17.8648 Y36.7648
G01 X17.8878 Y36.7509
G01 X17.9088 Y36.7390
G01 X17.9195 Y36.7334
G01 X17.9546 Y36.7168
G01 X17.9769 Y36.7076
G01 X17.9883 Y36.7034
G01 X18.0135 Y36.6945
G01 X18.0250 Y36.6908
G01 X18.0366 Y36.6875
G01 X18.0626 Y36.6808
G01 X18.0862 Y36.6755
G01 X18.0980 Y36.6733
G01 X18.1365 Y36.6676
G01 X18.1485 Y36.6663
G01 X18.1726 Y36.6645
G01 X18.1994 Y36.6633
G01 X18.2114 Y36.6632
G01 X18.2356 Y36.6638
G01 X18.2623 Y36.6652
G01 X18.2744 Y36.6663
G01 X18.2864 Y36.6676
G01 X18.3129 Y36.6714
G01 X18.3248 Y36.6733
G01 X18.3485 Y36.6780
G01 X18.3862 Y36.6875
G01 X18.4093 Y36.6945
G01 X18.4459 Y36.7076
G01 X18.4682 Y36.7168
G01 X18.5034 Y36.7334
G01 X18.5247 Y36.7448
G01 X18.5580 Y36.7648
G01 X18.5781 Y36.7782
G01 X18.6093 Y36.8014
G01 X18.6280 Y36.8167
G01 X18.6568 Y36.8428
G01 X18.6739 Y36.8599
G01 X18.7000 Y36.8887
G01 X18.7153 Y36.9073
G01 X18.7384 Y36.9386
G01 X18.7519 Y36.9587
G01 X18.7658 Y36.9816
G01 X18.7777 Y37.0026
G01 X18.7885 Y37.0241
G01 X18.7999 Y37.0484
G01 X18.8046 Y37.0595
G01 X18.8133 Y37.0821
G01 X18.8222 Y37.1073
G01 X18.8258 Y37.1189
G01 X18.8323 Y37.1421
G01 X18.8386 Y37.1682
G01 X18.8434 Y37.1919
G01 X18.8474 Y37.2183
G01 X18.8504 Y37.2423
G01 X18.8522 Y37.2664
G01 X18.8533 Y37.2932
G01 X18.8535 Y37.3052
G01 X18.8535 Y37.4378
G01 X18.8638 Y37.4449
G01 X18.8854 Y37.4607
G01 X18.8950 Y37.4680
G01 X18.9137 Y37.4834
G01 X18.9425 Y37.5095
G01 X18.9596 Y37.5265
G01 X18.9678 Y37.5354
G01 X18.9857 Y37.5553
G01 X18.9935 Y37.5646
G01 X19.0010 Y37.5740
G01 X19.0171 Y37.5955
G01 X19.0242 Y37.6052
G01 X19.0376 Y37.6253
G01 X19.0576 Y37.6587
G01 X19.0689 Y37.6800
G01 X19.0742 Y37.6908
G01 X19.0856 Y37.7151
G01 X19.0903 Y37.7262
G01 X19.0990 Y37.7487
G01 X19.1079 Y37.7740
G01 X19.1116 Y37.7855
G01 X19.1149 Y37.7971
G01 X19.1216 Y37.8231
G01 X19.1269 Y37.8466
G01 X19.1291 Y37.8585
G01 X19.1348 Y37.8970
G01 X19.1361 Y37.9090
G01 X19.1379 Y37.9331
G01 X19.1391 Y37.9598
G01 X19.1392 Y37.9719
G01 X19.1386 Y37.9960
G01 X19.1371 Y38.0228
G01 X19.1361 Y38.0348
G01 X19.1332 Y38.0588
G01 X19.1291 Y38.0853
G01 X19.1269 Y38.0972
G01 X19.1216 Y38.1207
G01 X19.1149 Y38.1467
G01 X19.1116 Y38.1583
G01 X19.1040 Y38.1812
G01 X19.0948 Y38.2064
G01 X19.0903 Y38.2176
G01 X19.0805 Y38.2397
G01 X19.0689 Y38.2639
G01 X19.0576 Y38.2851
G01 X19.0515 Y38.2956
G01 X19.0376 Y38.3185
G01 X19.0310 Y38.3286
G01 X19.0171 Y38.3484
G01 X19.0010 Y38.3698
G01 X18.9935 Y38.3792
G01 X18.9777 Y38.3975
G01 X18.9596 Y38.4173
G01 X18.9511 Y38.4259
G01 X18.9337 Y38.4426
G01 X18.9137 Y38.4604
G01 X18.8950 Y38.4758
G01 X18.8854 Y38.4831
G01 X18.8638 Y38.4989
G01 X18.8535 Y38.5060
G01 X18.8535 Y38.6386
G01 X18.8529 Y38.6627
G01 X18.8514 Y38.6895
G01 X18.8491 Y38.7135
G01 X18.8453 Y38.7400
G01 X18.8411 Y38.7638
G01 X18.8359 Y38.7874
G01 X18.8292 Y38.8134
G01 X18.8258 Y38.8250
G01 X18.8183 Y38.8479
G01 X18.8091 Y38.8731
G01 X18.7999 Y38.8954
G01 X18.7885 Y38.9197
G01 X18.7777 Y38.9412
G01 X18.7658 Y38.9622
G01 X18.7519 Y38.9852
G01 X18.7453 Y38.9953
G01 X18.7314 Y39.0150
G01 X18.7153 Y39.0365
G01 X18.7077 Y39.0459
G01 X18.6920 Y39.0642
G01 X18.6739 Y39.0839
G01 X18.6654 Y39.0926
G01 X18.6479 Y39.1092
G01 X18.6280 Y39.1271
G01 X18.6187 Y39.1349
G01 X18.5997 Y39.1497
G01 X18.5781 Y39.1656
G01 X18.5681 Y39.1724
G01 X18.5477 Y39.1853
G01 X18.5247 Y39.1990
G01 X18.5141 Y39.2048
G01 X18.4925 Y39.2157
G01 X18.4682 Y39.2270
G01 X18.4571 Y39.2318
G01 X18.4346 Y39.2404
G01 X18.4093 Y39.2493
G01 X18.3978 Y39.2530
G01 X18.3862 Y39.2563
G01 X18.3623 Y39.2625
G01 X18.3661 Y39.2818
G01 X18.3706 Y39.3082
G01 X18.3736 Y39.3322
G01 X18.3766 Y39.3709
G01 X18.3772 Y39.3951
G01 X18.3764 Y39.4339
G01 X18.3747 Y39.4580
G01 X18.3700 Y39.4966
G01 X18.3660 Y39.5204
G01 X18.3575 Y39.5584
G01 X18.3512 Y39.5817
G01 X18.3391 Y39.6186
G01 X18.3304 Y39.6412
G01 X18.3148 Y39.6767
G01 X18.3040 Y39.6983
G01 X18.2849 Y39.7322
G01 X18.2720 Y39.7527
G01 X18.2497 Y39.7845
G01 X18.2425 Y39.7941
G01 X18.2272 Y39.8128
G01 X18.2096 Y39.8331
G01 X18.2014 Y39.8420
G01 X18.1930 Y39.8506
G01 X18.1738 Y39.8693
G01 X18.1559 Y39.8855
G01 X18.1467 Y39.8933
G01 X18.1161 Y39.9173
G01 X18.1063 Y39.9244
G01 X18.0863 Y39.9379
G01 X18.0636 Y39.9522
G01 X18.0532 Y39.9583
G01 X18.0426 Y39.9641
G01 X18.0188 Y39.9764
G01 X18.0080 Y39.9817
G01 X17.9859 Y39.9915
G01 X17.9497 Y40.0056
G01 X17.9268 Y40.0133
G01 X17.9152 Y40.0167
G01 X17.8893 Y40.0237
G01 X17.8776 Y40.0266
G01 X17.8658 Y40.0291
G01 X17.8394 Y40.0339
G01 X17.8155 Y40.0375
G01 X17.8035 Y40.0389
G01 X17.7648 Y40.0418
G01 X17.7406 Y40.0425
G01 X17.7138 Y40.0420
G01 X17.7018 Y40.0416
G01 X17.6777 Y40.0399
G01 X17.6511 Y40.0369
G01 X17.6272 Y40.0334
G01 X17.6153 Y40.0312
G01 X17.5891 Y40.0255
G01 X17.5773 Y40.0228
G01 X17.5540 Y40.0164
G01 X17.5285 Y40.0082
G01 X17.5058 Y40.0001
G01 X17.4834 Y39.9910
G01 X17.4590 Y39.9800
G01 X17.4374 Y39.9692
G01 X17.4268 Y39.9634
G01 X17.4035 Y39.9501
G01 X17.3932 Y39.9438
G01 X17.3731 Y39.9305
G01 X17.3512 Y39.9150
G01 X17.3321 Y39.9002
G01 X17.3229 Y39.8924
G01 X17.3026 Y39.8749
G01 X17.2851 Y39.8583
G01 X17.2665 Y39.8390
G01 X17.2502 Y39.8212
G01 X17.2424 Y39.8119
G01 X17.2257 Y39.7909
G01 X17.2184 Y39.7814
G01 X17.2044 Y39.7616
G01 X17.1899 Y39.7391
G01 X17.1774 Y39.7184
G01 X17.1660 Y39.6972
G01 X17.1540 Y39.6732
G01 X17.1490 Y39.6622
G01 X17.1442 Y39.6512
G01 X17.1343 Y39.6262
G01 X17.1261 Y39.6035
G01 X16.6499 Y38.1749
G01 X16.6428 Y38.1515
G01 X16.6356 Y38.1253
G01 X16.6292 Y38.0961
G01 X16.5998 Y38.1065
G01 X16.5767 Y38.1135
G01 X16.5507 Y38.1201
G01 X16.5272 Y38.1254
G01 X16.5034 Y38.1296
G01 X16.4768 Y38.1334
G01 X16.4648 Y38.1347
G01 X16.4408 Y38.1365
G01 X16.4140 Y38.1376
G01 X16.3898 Y38.1376
G01 X16.3631 Y38.1365
G01 X16.3390 Y38.1347
G01 X16.3150 Y38.1317
G01 X16.2885 Y38.1276
G01 X16.2648 Y38.1229
G01 X16.2271 Y38.1135
G01 X16.2040 Y38.1065
G00 Z2.0000
G00 X17.9356 Y38.6626
G01 F60.00
G01 Z-0.1700
G01 F120.00
G01 X17.9346 Y38.6386
G01 X17.9346 Y38.2488
G01 X17.6432 Y38.2488
G01 X17.9979 Y39.3129
G01 X18.0052 Y39.3391
G01 X18.0090 Y39.3597
G01 X18.0106 Y39.3720
G01 X18.0121 Y39.3961
G01 X18.0116 Y39.4170
G01 X18.0108 Y39.4263
G01 X18.0082 Y39.4471
G01 X18.0038 Y39.4676
G01 X18.0014 Y39.4766
G01 X17.9949 Y39.4965
G01 X17.9915 Y39.5052
G01 X17.9829 Y39.5243
G01 X17.9727 Y39.5426
G01 X17.9679 Y39.5506
G01 X17.9558 Y39.5678
G01 X17.9500 Y39.5751
G01 X17.9363 Y39.5909
G01 X17.9212 Y39.6055
G01 X17.9143 Y39.6117
G01 X17.9003 Y39.6227
G01 X17.8927 Y39.6282
G01 X17.8750 Y39.6394
G01 X17.8669 Y39.6440
G01 X17.8481 Y39.6533
G01 X17.8286 Y39.6610
G01 X17.8198 Y39.6641
G01 X17.7997 Y39.6697
G01 X17.7905 Y39.6717
G01 X17.7730 Y39.6748
G01 X17.7637 Y39.6758
G01 X17.7428 Y39.6772
G01 X17.7218 Y39.6769
G01 X17.7125 Y39.6764
G01 X17.6917 Y39.6739
G01 X17.6825 Y39.6722
G01 X17.6621 Y39.6675
G01 X17.6392 Y39.6601
G01 X17.6305 Y39.6567
G01 X17.6114 Y39.6481
G01 X17.5931 Y39.6380
G01 X17.5851 Y39.6331
G01 X17.5680 Y39.6211
G01 X17.5607 Y39.6153
G01 X17.5449 Y39.6015
G01 X17.5303 Y39.5865
G01 X17.5241 Y39.5795
G01 X17.5111 Y39.5630
G01 X17.5058 Y39.5553
G01 X17.4947 Y39.5376
G01 X17.4851 Y39.5190
G01 X17.4812 Y39.5105
G01 X17.4747 Y39.4939
G01 X16.9954 Y38.0565
G01 X16.9897 Y38.0360
G01 X16.9877 Y38.0267
G01 X16.9842 Y38.0057
G01 X16.9825 Y37.9846
G01 X16.9822 Y37.9751
G01 X16.9830 Y37.9507
G01 X16.9855 Y37.9296
G01 X16.9871 Y37.9202
G01 X16.9926 Y37.8965
G01 X16.9993 Y37.8763
G01 X17.0027 Y37.8674
G01 X17.0128 Y37.8453
G01 X17.0250 Y37.8241
G01 X17.0302 Y37.8162
G01 X17.0428 Y37.7990
G01 X17.0610 Y37.7784
G01 X17.0813 Y37.7597
G01 X17.0981 Y37.7467
G01 X17.1059 Y37.7413
G01 X17.1268 Y37.7287
G01 X17.1487 Y37.7180
G01 X17.1575 Y37.7144
G01 X17.1775 Y37.7073
G01 X17.2012 Y37.7012
G01 X17.2105 Y37.6994
G01 X17.2315 Y37.6964
G01 X17.2590 Y37.6950
G01 X17.9346 Y37.6950
G01 X17.9346 Y37.3052
G01 X17.9354 Y37.2843
G01 X17.9362 Y37.2750
G01 X17.9393 Y37.2543
G01 X17.9456 Y37.2279
G01 X17.9484 Y37.2190
G01 X17.9556 Y37.1993
G01 X17.9658 Y37.1775
G01 X17.9779 Y37.1567
G01 X17.9848 Y37.1463
G01 X17.9974 Y37.1296
G01 X18.0156 Y37.1095
G01 X18.0358 Y37.0912
G01 X18.0525 Y37.0786
G01 X18.0602 Y37.0733
G01 X18.0755 Y37.0641
G01 X18.0865 Y37.0583
G01 X18.1055 Y37.0494
G01 X18.1311 Y37.0403
G01 X18.1574 Y37.0337
G01 X18.1781 Y37.0305
G01 X18.1874 Y37.0294
G01 X18.2052 Y37.0285
G01 X18.2176 Y37.0285
G01 X18.2386 Y37.0297
G01 X18.2654 Y37.0337
G01 X18.2858 Y37.0386
G01 X18.2948 Y37.0412
G01 X18.3145 Y37.0483
G01 X18.3231 Y37.0520
G01 X18.3419 Y37.0611
G01 X18.3600 Y37.0717
G01 X18.3678 Y37.0768
G01 X18.3822 Y37.0874
G01 X18.3895 Y37.0932
G01 X18.4050 Y37.1073
G01 X18.4115 Y37.1140
G01 X18.4255 Y37.1296
G01 X18.4416 Y37.1514
G01 X18.4525 Y37.1693
G01 X18.4570 Y37.1775
G01 X18.4672 Y37.1993
G01 X18.4744 Y37.2190
G01 X18.4772 Y37.2279
G01 X18.4836 Y37.2543
G01 X18.4866 Y37.2750
G01 X18.4874 Y37.2843
G01 X18.4883 Y37.3052
G01 X18.4883 Y37.6950
G01 X18.5003 Y37.6951
G01 X18.5212 Y37.6961
G01 X18.5305 Y37.6971
G01 X18.5512 Y37.7004
G01 X18.5775 Y37.7070
G01 X18.5973 Y37.7139
G01 X18.6060 Y37.7173
G01 X18.6304 Y37.7292
G01 X18.6484 Y37.7400
G01 X18.6561 Y37.7453
G01 X18.6728 Y37.7579
G01 X18.6884 Y37.7718
G01 X18.6951 Y37.7784
G01 X18.7092 Y37.7939
G01 X18.7150 Y37.8012
G01 X18.7274 Y37.8181
G01 X18.7413 Y37.8414
G01 X18.7504 Y37.8603
G01 X18.7541 Y37.8688
G01 X18.7612 Y37.8886
G01 X18.7638 Y37.8975
G01 X18.7687 Y37.9179
G01 X18.7719 Y37.9386
G01 X18.7730 Y37.9479
G01 X18.7739 Y37.9657
G01 X18.7740 Y37.9750
G01 X18.7730 Y37.9959
G01 X18.7719 Y38.0052
G01 X18.7687 Y38.0259
G01 X18.7621 Y38.0523
G01 X18.7529 Y38.0779
G01 X18.7413 Y38.1024
G01 X18.7307 Y38.1205
G01 X18.7238 Y38.1308
G01 X18.7131 Y38.1451
G01 X18.7071 Y38.1523
G01 X18.6907 Y38.1699
G01 X18.6704 Y38.1879
G01 X18.6510 Y38.2021
G01 X18.6277 Y38.2161
G01 X18.6031 Y38.2277
G01 X18.5805 Y38.2359
G01 X18.5542 Y38.2428
G01 X18.5305 Y38.2467
G01 X18.5181 Y38.2479
G01 X18.5003 Y38.2487
G01 X18.4883 Y38.2488
G01 X18.4883 Y38.6386
G01 X18.4870 Y38.6657
G01 X18.4836 Y38.6895
G01 X18.4816 Y38.6987
G01 X18.4764 Y38.7189
G01 X18.4684 Y38.7416
G01 X18.4570 Y38.7663
G01 X18.4450 Y38.7871
G01 X18.4381 Y38.7975
G01 X18.4274 Y38.8118
G01 X18.4214 Y38.8189
G01 X18.4050 Y38.8365
G01 X18.3846 Y38.8545
G01 X18.3653 Y38.8688
G01 X18.3474 Y38.8797
G01 X18.3392 Y38.8842
G01 X18.3174 Y38.8944
G01 X18.2948 Y38.9026
G01 X18.2858 Y38.9052
G01 X18.2654 Y38.9101
G01 X18.2447 Y38.9134
G01 X18.2355 Y38.9144
G01 X18.2114 Y38.9154
G01 X18.1874 Y38.9144
G01 X18.1781 Y38.9134
G01 X18.1574 Y38.9101
G01 X18.1371 Y38.9052
G01 X18.1281 Y38.9026
G01 X18.1055 Y38.8944
G01 X18.0809 Y38.8828
G01 X18.0629 Y38.8721
G01 X18.0550 Y38.8670
G01 X18.0358 Y38.8526
G01 X18.0179 Y38.8365
G01 X18.0114 Y38.8298
G01 X17.9974 Y38.8142
G01 X17.9848 Y38.7975
G01 X17.9795 Y38.7898
G01 X17.9672 Y38.7691
G01 X17.9569 Y38.7474
G01 X17.9534 Y38.7387
G01 X17.9465 Y38.7189
G01 X17.9405 Y38.6956
G01 X17.9388 Y38.6865
G01 X17.9356 Y38.6626
G00 Z2.0000
G00 X18.1664 Y39.0958
G01 F60.00
G01 Z-0.1700
G01 F120.00
G01 X18.1368 Y39.0918
G01 X18.1153 Y39.0878
G01 X18.1734 Y39.2624
G01 X18.1815 Y39.2912
G01 X18.1863 Y39.3135
G01 X18.1901 Y39.3355
G01 X18.1920 Y39.3506
G01 X18.1942 Y39.3804
G01 X18.1946 Y39.3956
G01 X18.1940 Y39.4255
G01 X18.1929 Y39.4406
G01 X18.1893 Y39.4703
G01 X18.1868 Y39.4853
G01 X18.1820 Y39.5071
G01 X18.1784 Y39.5218
G01 X18.1740 Y39.5364
G01 X18.1644 Y39.5647
G01 X18.1586 Y39.5787
G01 X18.1495 Y39.5991
G01 X18.1427 Y39.6127
G01 X18.1319 Y39.6322
G01 X18.1241 Y39.6452
G01 X18.1157 Y39.6579
G01 X18.1028 Y39.6761
G01 X18.0935 Y39.6881
G01 X18.0790 Y39.7051
G01 X18.0689 Y39.7164
G01 X18.0581 Y39.7272
G01 X18.0420 Y39.7425
G01 X18.0305 Y39.7525
G01 X18.0070 Y39.7710
G01 X17.9946 Y39.7797
G01 X17.9758 Y39.7918
G01 X17.9561 Y39.8033
G01 X17.9363 Y39.8135
G01 X17.9226 Y39.8200
G01 X17.9085 Y39.8259
G01 X17.8877 Y39.8339
G01 X17.8733 Y39.8387
G01 X17.8445 Y39.8467
G01 X17.8297 Y39.8501
G01 X17.8077 Y39.8541
G01 X17.7927 Y39.8563
G01 X17.7776 Y39.8579
G01 X17.7477 Y39.8598
G01 X17.7178 Y39.8595
G01 X17.7027 Y39.8588
G01 X17.6876 Y39.8573
G01 X17.6654 Y39.8546
G01 X17.6504 Y39.8520
G01 X17.6212 Y39.8455
G01 X17.6066 Y39.8415
G01 X17.5853 Y39.8347
G01 X17.5640 Y39.8268
G01 X17.5435 Y39.8179
G01 X17.5298 Y39.8114
G01 X17.5163 Y39.8043
G01 X17.4969 Y39.7933
G01 X17.4841 Y39.7852
G01 X17.4596 Y39.7680
G01 X17.4476 Y39.7587
G01 X17.4306 Y39.7443
G01 X17.4193 Y39.7341
G01 X17.3984 Y39.7127
G01 X17.3832 Y39.6957
G01 X17.3694 Y39.6782
G01 X17.3603 Y39.6660
G01 X17.3518 Y39.6534
G01 X17.3399 Y39.6346
G01 X17.3289 Y39.6146
G01 X17.3157 Y39.5878
G01 X17.3098 Y39.5738
G01 X17.3018 Y39.5529
G01 X16.8208 Y38.1099
G01 X16.8146 Y38.0881
G01 X16.8109 Y38.0731
G01 X16.8079 Y38.0580
G01 X16.8041 Y38.0357
G01 X16.8022 Y38.0204
G01 X16.8004 Y37.9978
G01 X16.7997 Y37.9824
G01 X16.7997 Y37.9670
G01 X16.8009 Y37.9367
G01 X16.8025 Y37.9214
G01 X16.8054 Y37.8989
G01 X16.8098 Y37.8762
G01 X16.8150 Y37.8542
G01 X16.8191 Y37.8394
G01 X16.8263 Y37.8179
G01 X16.8316 Y37.8034
G01 X16.8438 Y37.7756
G01 X16.8541 Y37.7549
G01 X16.8653 Y37.7353
G01 X16.8734 Y37.7221
G01 X16.8821 Y37.7094
G01 X16.8954 Y37.6911
G01 X16.9101 Y37.6732
G01 X16.9305 Y37.6508
G01 X16.9415 Y37.6400
G01 X16.9582 Y37.6247
G01 X16.9700 Y37.6148
G01 X16.9880 Y37.6011
G01 X17.0069 Y37.5878
G01 X17.0262 Y37.5759
G01 X17.0396 Y37.5683
G01 X17.0667 Y37.5548
G01 X17.0879 Y37.5455
G01 X17.1092 Y37.5377
G01 X17.1238 Y37.5328
G01 X17.1386 Y37.5286
G01 X17.1606 Y37.5231
G01 X17.1757 Y37.5201
G01 X17.2057 Y37.5156
G01 X17.2287 Y37.5136
G01 X17.2590 Y37.5124
G01 X17.7520 Y37.5124
G01 X17.7521 Y37.2976
G01 X17.7531 Y37.2753
G01 X17.7542 Y37.2602
G01 X17.7560 Y37.2451
G01 X17.7594 Y37.2231
G01 X17.7641 Y37.2008
G01 X17.7717 Y37.1719
G01 X17.7815 Y37.1436
G01 X17.7869 Y37.1294
G01 X17.7931 Y37.1155
G01 X17.8062 Y37.0886
G01 X17.8213 Y37.0628
G01 X17.8337 Y37.0437
G01 X17.8469 Y37.0257
G01 X17.8563 Y37.0138
G01 X17.8761 Y36.9913
G01 X17.8920 Y36.9750
G01 X17.9141 Y36.9550
G01 X17.9319 Y36.9407
G01 X17.9562 Y36.9232
G01 X17.9816 Y36.9075
G01 X18.0016 Y36.8965
G01 X18.0217 Y36.8869
G01 X18.0356 Y36.8807
G01 X18.0636 Y36.8703
G01 X18.0853 Y36.8634
G01 X18.1144 Y36.8562
G01 X18.1368 Y36.8520
G01 X18.1664 Y36.8480
G01 X18.1962 Y36.8461
G01 X18.2190 Y36.8459
G01 X18.2413 Y36.8469
G01 X18.2565 Y36.8480
G01 X18.2861 Y36.8520
G01 X18.3085 Y36.8562
G01 X18.3375 Y36.8634
G01 X18.3592 Y36.8703
G01 X18.3873 Y36.8807
G01 X18.4145 Y36.8932
G01 X18.4347 Y36.9037
G01 X18.4603 Y36.9191
G01 X18.4791 Y36.9320
G01 X18.5029 Y36.9501
G01 X18.5144 Y36.9600
G01 X18.5309 Y36.9750
G01 X18.5468 Y36.9913
G01 X18.5666 Y37.0138
G01 X18.5847 Y37.0376
G01 X18.5976 Y37.0563
G01 X18.6130 Y37.0820
G01 X18.6201 Y37.0954
G01 X18.6329 Y37.1224
G01 X18.6387 Y37.1365
G01 X18.6488 Y37.1646
G01 X18.6532 Y37.1792
G01 X18.6605 Y37.2082
G01 X18.6647 Y37.2306
G01 X18.6687 Y37.2602
G01 X18.6698 Y37.2753
G01 X18.6708 Y37.2976
G01 X18.6709 Y37.5466
G01 X18.6869 Y37.5536
G01 X18.7070 Y37.5632
G01 X18.7269 Y37.5742
G01 X18.7460 Y37.5857
G01 X18.7587 Y37.5942
G01 X18.7767 Y37.6074
G01 X18.7886 Y37.6167
G01 X18.8001 Y37.6267
G01 X18.8166 Y37.6417
G01 X18.8325 Y37.6580
G01 X18.8474 Y37.6746
G01 X18.8571 Y37.6864
G01 X18.8704 Y37.7042
G01 X18.8792 Y37.7166
G01 X18.8873 Y37.7295
G01 X18.8987 Y37.7487
G01 X18.9092 Y37.7689
G01 X18.9186 Y37.7891
G01 X18.9245 Y37.8031
G01 X18.9321 Y37.8241
G01 X18.9368 Y37.8385
G01 X18.9409 Y37.8532
G01 X18.9462 Y37.8748
G01 X18.9492 Y37.8897
G01 X18.9525 Y37.9118
G01 X18.9544 Y37.9269
G01 X18.9555 Y37.9420
G01 X18.9565 Y37.9643
G01 X18.9565 Y37.9795
G01 X18.9555 Y38.0018
G01 X18.9544 Y38.0169
G01 X18.9504 Y38.0466
G01 X18.9462 Y38.0690
G01 X18.9409 Y38.0906
G01 X18.9368 Y38.1053
G01 X18.9321 Y38.1197
G01 X18.9245 Y38.1407
G01 X18.9155 Y38.1616
G01 X18.9059 Y38.1818
G01 X18.8987 Y38.1951
G01 X18.8873 Y38.2143
G01 X18.8792 Y38.2272
G01 X18.8704 Y38.2396
G01 X18.8571 Y38.2575
G01 X18.8474 Y38.2692
G01 X18.8325 Y38.2858
G01 X18.8166 Y38.3021
G01 X18.8001 Y38.3172
G01 X18.7886 Y38.3271
G01 X18.7767 Y38.3364
G01 X18.7587 Y38.3496
G01 X18.7460 Y38.3581
G01 X18.7269 Y38.3696
G01 X18.7070 Y38.3806
G01 X18.6869 Y38.3902
G01 X18.6709 Y38.3972
G01 X18.6708 Y38.6462
G01 X18.6698 Y38.6685
G01 X18.6687 Y38.6836
G01 X18.6668 Y38.6987
G01 X18.6635 Y38.7207
G01 X18.6587 Y38.7430
G01 X18.6511 Y38.7719
G01 X18.6414 Y38.8002
G01 X18.6359 Y38.8144
G01 X18.6298 Y38.8283
G01 X18.6166 Y38.8552
G01 X18.6016 Y38.8810
G01 X18.5892 Y38.9001
G01 X18.5759 Y38.9181
G01 X18.5666 Y38.9301
G01 X18.5468 Y38.9525
G01 X18.5309 Y38.9688
G01 X18.5144 Y38.9838
G01 X18.5029 Y38.9937
G01 X18.4791 Y39.0119
G01 X18.4603 Y39.0247
G01 X18.4412 Y39.0363
G01 X18.4280 Y39.0438
G01 X18.4011 Y39.0569
G01 X18.3802 Y39.0659
G01 X18.3592 Y39.0735
G01 X18.3448 Y39.0783
G01 X18.3159 Y39.0859
G01 X18.2936 Y39.0906
G01 X18.2715 Y39.0940
G01 X18.2565 Y39.0958
G01 X18.2266 Y39.0977
G01 X18.2038 Y39.0979
G01 X18.1815 Y39.0969
G01 X18.1664 Y39.0958
G00 Z2.0000
G00 X14.7805 Y39.5643
G01 F60.00
G01 Z-0.1700
G01 F120.00
G01 X14.7723 Y39.5610
G01 X14.7543 Y39.5529
G01 X14.5608 Y39.4561
G01 X14.5380 Y39.4430
G01 X14.5193 Y39.4297
G01 X14.5113 Y39.4234
G01 X14.4918 Y39.4058
G01 X14.3942 Y39.3081
G01 X14.3768 Y39.2885
G01 X14.3613 Y39.2672
G01 X14.3559 Y39.2586
G01 X14.3447 Y39.2386
G01 X14.2495 Y39.0481
G01 X14.2400 Y39.0268
G01 X14.2363 Y39.0171
G01 X14.2285 Y38.9914
G01 X14.1333 Y38.6105
G01 X14.1283 Y38.5848
G01 X14.1269 Y38.5756
G01 X14.1250 Y38.5433
G01 X14.1250 Y38.0671
G01 X14.1264 Y38.0410
G01 X14.1273 Y38.0318
G01 X14.1333 Y38.0000
G01 X14.2285 Y37.6190
G01 X14.2375 Y37.5901
G01 X14.2495 Y37.5624
G01 X14.3463 Y37.3689
G01 X14.3576 Y37.3490
G01 X14.3632 Y37.3405
G01 X14.3768 Y37.3220
G01 X14.3942 Y37.3024
G01 X14.4943 Y37.2023
G01 X14.5139 Y37.1849
G01 X14.5352 Y37.1694
G01 X14.5438 Y37.1640
G01 X14.5638 Y37.1528
G01 X14.7543 Y37.0576
G01 X14.7777 Y37.0472
G01 X14.8021 Y37.0390
G01 X14.8213 Y37.0343
G01 X14.8328 Y37.0322
G01 X14.8495 Y37.0299
G01 X14.8583 Y37.0291
G01 X14.8781 Y37.0284
G01 X15.0686 Y37.0284
G01 X15.0883 Y37.0291
G01 X15.0971 Y37.0299
G01 X15.1196 Y37.0331
G01 X15.1446 Y37.0390
G01 X15.1689 Y37.0472
G01 X15.1897 Y37.0563
G01 X15.3859 Y37.1544
G01 X15.4028 Y37.1640
G01 X15.4115 Y37.1694
G01 X15.4301 Y37.1828
G01 X15.4379 Y37.1893
G01 X15.4548 Y37.2047
G01 X15.5524 Y37.3024
G01 X15.5699 Y37.3220
G01 X15.5854 Y37.3433
G01 X15.5908 Y37.3519
G01 X15.6019 Y37.3719
G01 X15.6987 Y37.5655
G01 X15.7092 Y37.5901
G01 X15.7181 Y37.6190
G01 X15.8134 Y38.0000
G01 X15.8184 Y38.0256
G01 X15.8197 Y38.0349
G01 X15.8216 Y38.0671
G01 X15.8216 Y38.5433
G01 X15.8203 Y38.5694
G01 X15.8194 Y38.5787
G01 X15.8134 Y38.6105
G01 X15.7181 Y38.9914
G01 X15.7092 Y39.0203
G01 X15.7001 Y39.0418
G01 X15.6019 Y39.2386
G01 X15.5908 Y39.2586
G01 X15.5854 Y39.2672
G01 X15.5699 Y39.2885
G01 X15.5524 Y39.3081
G01 X15.4524 Y39.4082
G01 X15.4327 Y39.4256
G01 X15.4143 Y39.4391
G01 X15.4058 Y39.4448
G01 X15.3829 Y39.4576
G01 X15.1898 Y39.5542
G01 X15.1717 Y39.5622
G01 X15.1634 Y39.5653
G01 X15.1446 Y39.5715
G01 X15.1254 Y39.5761
G01 X15.1167 Y39.5779
G01 X15.0971 Y39.5806
G01 X15.0715 Y39.5821
G01 X14.8752 Y39.5821
G01 X14.8525 Y39.5809
G01 X14.8270 Y39.5774
G01 X14.8021 Y39.5715
G01 X14.7805 Y39.5643
G00 Z2.0000
G00 X12.7127 Y38.9064
G01 F60.00
G01 Z-0.1700
G01 F120.00
G01 X12.6897 Y38.8993
G01 X12.6703 Y38.8915
G01 X12.6618 Y38.8876
G01 X12.6380 Y38.8745
G01 X12.6206 Y38.8629
G01 X12.6131 Y38.8572
G01 X12.5948 Y38.8417
G01 X12.5799 Y38.8269
G01 X12.5737 Y38.8199
G01 X12.5606 Y38.8036
G01 X12.5488 Y38.7863
G01 X12.5439 Y38.7784
G01 X12.5354 Y38.7627
G01 X12.5313 Y38.7543
G01 X12.5233 Y38.7349
G01 X12.5151 Y38.7090
G01 X12.5130 Y38.6999
G01 X12.5090 Y38.6794
G01 X12.5065 Y38.6554
G01 X12.5062 Y38.6461
G01 X12.5063 Y38.6251
G01 X12.5090 Y38.5981
G01 X12.5142 Y38.5715
G01 X12.5211 Y38.5484
G01 X12.9983 Y37.2121
G01 X13.0087 Y37.1870
G01 X13.0199 Y37.1657
G01 X13.0348 Y37.1429
G01 X13.0498 Y37.1241
G01 X13.0559 Y37.1171
G01 X13.0685 Y37.1044
G01 X13.0778 Y37.0961
G01 X13.0940 Y37.0829
G01 X13.1166 Y37.0678
G01 X13.1406 Y37.0550
G01 X13.1657 Y37.0446
G01 X13.1917 Y37.0367
G01 X13.2123 Y37.0324
G01 X13.2215 Y37.0309
G01 X13.2392 Y37.0292
G01 X13.2517 Y37.0285
G01 X13.2726 Y37.0287
G01 X13.2997 Y37.0314
G01 X13.3264 Y37.0367
G01 X13.3494 Y37.0436
G01 X13.3582 Y37.0468
G01 X13.3775 Y37.0550
G01 X13.4015 Y37.0678
G01 X13.4190 Y37.0793
G01 X13.4265 Y37.0848
G01 X13.4427 Y37.0981
G01 X13.4496 Y37.1044
G01 X13.4622 Y37.1171
G01 X13.4683 Y37.1241
G01 X13.4815 Y37.1404
G01 X13.4933 Y37.1578
G01 X13.4982 Y37.1657
G01 X13.5080 Y37.1842
G01 X13.5187 Y37.2092
G01 X13.9979 Y38.5514
G01 X14.0039 Y38.5715
G01 X14.0091 Y38.5981
G01 X14.0118 Y38.6251
G01 X14.0119 Y38.6461
G01 X14.0113 Y38.6585
G01 X14.0086 Y38.6824
G01 X14.0038 Y38.7060
G01 X13.9969 Y38.7291
G01 X13.9936 Y38.7378
G01 X13.9855 Y38.7571
G01 X13.9742 Y38.7784
G01 X13.9693 Y38.7863
G01 X13.9575 Y38.8036
G01 X13.9443 Y38.8199
G01 X13.9382 Y38.8269
G01 X13.9233 Y38.8417
G01 X13.9163 Y38.8479
G01 X13.9000 Y38.8611
G01 X13.8827 Y38.8728
G01 X13.8748 Y38.8777
G01 X13.8563 Y38.8876
G01 X13.8478 Y38.8915
G01 X13.8284 Y38.8993
G01 X13.8084 Y38.9055
G01 X13.7993 Y38.9079
G01 X13.7757 Y38.9125
G01 X13.7549 Y38.9147
G01 X13.7456 Y38.9152
G01 X13.7246 Y38.9152
G01 X13.7153 Y38.9146
G01 X13.6945 Y38.9124
G01 X13.6739 Y38.9085
G01 X13.6648 Y38.9063
G01 X13.6448 Y38.9002
G01 X13.6360 Y38.8970
G01 X13.6167 Y38.8888
G01 X13.5982 Y38.8790
G01 X13.5901 Y38.8743
G01 X13.5727 Y38.8627
G01 X13.5653 Y38.8570
G01 X13.5492 Y38.8436
G01 X13.5343 Y38.8289
G01 X13.5279 Y38.8221
G01 X13.5146 Y38.8059
G01 X13.5092 Y38.7983
G01 X13.4977 Y38.7808
G01 X13.4862 Y38.7596
G01 X13.4824 Y38.7511
G01 X13.4745 Y38.7317
G01 X13.2590 Y38.1284
G01 X13.0425 Y38.7346
G01 X13.0345 Y38.7540
G01 X13.0304 Y38.7624
G01 X13.0204 Y38.7808
G01 X13.0072 Y38.8009
G01 X12.9922 Y38.8197
G01 X12.9838 Y38.8289
G01 X12.9689 Y38.8436
G01 X12.9479 Y38.8609
G01 X12.9253 Y38.8760
G01 X12.9069 Y38.8860
G01 X12.8986 Y38.8901
G01 X12.8763 Y38.8992
G01 X12.8533 Y38.9063
G01 X12.8442 Y38.9085
G01 X12.8236 Y38.9124
G01 X12.7966 Y38.9151
G01 X12.7694 Y38.9151
G01 X12.7486 Y38.9132
G01 X12.7363 Y38.9114
G01 X12.7127 Y38.9064
G00 Z2.0000
G00 X7.0014 Y43.4346
G01 F60.00
G01 Z-0.1700
G01 F120.00
G01 X7.0107 Y43.4335
G01 X7.0200 Y43.4332
G01 X9.0200 Y43.4332
G01 X9.0355 Y43.4342
G01 X9.0447 Y43.4356
G01 X9.0538 Y43.4378
G01 X9.0685 Y43.4429
G01 X9.0825 Y43.4497
G01 X9.0955 Y43.4582
G01 X9.1028 Y43.4640
G01 X9.1097 Y43.4703
G01 X9.1200 Y43.4820
G01 X9.1288 Y43.4948
G01 X9.1359 Y43.5086
G01 X9.1404 Y43.5202
G01 X9.1430 Y43.5292
G01 X9.1454 Y43.5414
G01 X9.1465 Y43.5507
G01 X9.1468 Y43.5600
G01 X9.1468 Y43.6828
G01 X27.0700 Y43.6828
G01 X27.1560 Y43.6870
G01 X27.2381 Y43.6991
G01 X27.2472 Y43.7010
G01 X27.3186 Y43.7189
G01 X27.3305 Y43.7225
G01 X27.4057 Y43.7496
G01 X27.4835 Y43.7864
G01 X27.5521 Y43.8273
G01 X27.5624 Y43.8342
G01 X27.6265 Y43.8819
G01 X27.6857 Y43.9355
G01 X29.9733 Y46.2228
G01 X35.9600 Y46.2228
G01 X36.0460 Y46.2270
G01 X36.1250 Y46.2386
G01 X36.1372 Y46.2410
G01 X36.2086 Y46.2589
G01 X36.2205 Y46.2625
G01 X36.2957 Y46.2896
G01 X36.3679 Y46.3236
G01 X36.3789 Y46.3295
G01 X36.4473 Y46.3707
G01 X36.5116 Y46.4181
G01 X36.5212 Y46.4260
G01 X36.5803 Y46.4797
G01 X37.8503 Y47.7497
G01 X37.9081 Y47.8135
G01 X37.9593 Y47.8827
G01 X38.0036 Y47.9565
G01 X38.0404 Y48.0343
G01 X38.0675 Y48.1095
G01 X38.0703 Y48.1184
G01 X38.0903 Y48.1989
G01 X38.1030 Y48.2840
G01 X38.1071 Y48.3669
G01 X38.1072 Y48.5132
G01 X38.2362 Y48.5134
G01 X38.2455 Y48.5142
G01 X38.2547 Y48.5156
G01 X38.2698 Y48.5196
G01 X38.2842 Y48.5254
G01 X38.2952 Y48.5312
G01 X38.3055 Y48.5382
G01 X38.3174 Y48.5482
G01 X38.3260 Y48.5572
G01 X38.3354 Y48.5696
G01 X38.3433 Y48.5830
G01 X38.3483 Y48.5944
G01 X38.3513 Y48.6032
G01 X38.3544 Y48.6153
G01 X38.3558 Y48.6245
G01 X38.3568 Y48.6369
G01 X38.3568 Y49.0129
G01 X44.8500 Y49.0129
G01 X44.9115 Y49.0160
G01 X44.9662 Y49.0239
G01 X44.9784 Y49.0264
G01 X45.0320 Y49.0400
G01 X45.0842 Y49.0584
G01 X45.0957 Y49.0632
G01 X45.1456 Y49.0870
G01 X45.1931 Y49.1153
G01 X45.2035 Y49.1222
G01 X45.2429 Y49.1515
G01 X45.2525 Y49.1593
G01 X45.2934 Y49.1966
G01 X46.3797 Y50.2829
G01 X64.9103 Y50.2829
G01 X65.5628 Y49.6304
G01 X65.5628 Y47.8068
G01 X65.5031 Y47.7260
G01 X65.4463 Y47.6312
G01 X65.3990 Y47.5312
G01 X65.3637 Y47.4330
G01 X65.3601 Y47.4211
G01 X65.3362 Y47.3259
G01 X65.3338 Y47.3137
G01 X65.3186 Y47.2104
G01 X65.3132 Y47.1000
G01 X65.3186 Y46.9896
G01 X65.3349 Y46.8802
G01 X65.3617 Y46.7729
G01 X65.3967 Y46.6746
G01 X65.4015 Y46.6631
G01 X65.4435 Y46.5744
G01 X65.4493 Y46.5634
G01 X65.5031 Y46.4740
G01 X65.5651 Y46.3901
G01 X65.5710 Y46.3828
G01 X65.6432 Y46.3032
G01 X65.7205 Y46.2330
G01 X65.7301 Y46.2251
G01 X65.8089 Y46.1667
G01 X65.8192 Y46.1598
G01 X65.9088 Y46.1063
G01 X66.0088 Y46.0590
G01 X66.1129 Y46.0217
G01 X66.2141 Y45.9962
G01 X66.2263 Y45.9938
G01 X66.3234 Y45.9794
G01 X66.3358 Y45.9782
G01 X66.4400 Y45.9732
G01 X66.5504 Y45.9786
G01 X66.6537 Y45.9938
G01 X66.6659 Y45.9962
G01 X66.7671 Y46.0217
G01 X66.8712 Y46.0590
G01 X66.9712 Y46.1063
G01 X67.0608 Y46.1598
G01 X67.0711 Y46.1667
G01 X67.1548 Y46.2290
G01 X67.2368 Y46.3032
G01 X67.3070 Y46.3805
G01 X67.3149 Y46.3901
G01 X67.3733 Y46.4689
G01 X67.3802 Y46.4792
G01 X67.4337 Y46.5688
G01 X67.4810 Y46.6688
G01 X67.5183 Y46.7729
G01 X67.5438 Y46.8741
G01 X67.5462 Y46.8863
G01 X67.5606 Y46.9834
G01 X67.5618 Y46.9958
G01 X67.5668 Y47.1000
G01 X67.5616 Y47.2073
G01 X67.5606 Y47.2166
G01 X67.5462 Y47.3137
G01 X67.5438 Y47.3259
G01 X67.5183 Y47.4271
G01 X67.4810 Y47.5312
G01 X67.4365 Y47.6256
G01 X67.4307 Y47.6366
G01 X67.3769 Y47.7260
G01 X67.3172 Y47.8068
G01 X67.3170 Y49.6462
G01 X67.3134 Y49.7198
G01 X67.3122 Y49.7322
G01 X67.3003 Y49.8111
G01 X67.2811 Y49.8886
G01 X67.2775 Y49.9005
G01 X67.2504 Y49.9757
G01 X67.2136 Y50.0535
G01 X67.1727 Y50.1221
G01 X67.1658 Y50.1324
G01 X67.1181 Y50.1965
G01 X67.0645 Y50.2557
G01 X67.0557 Y50.2645
G01 X66.9965 Y50.3181
G01 X66.9324 Y50.3658
G01 X66.9221 Y50.3727
G01 X66.8535 Y50.4136
G01 X66.7814 Y50.4479
G01 X66.7699 Y50.4526
G01 X66.6946 Y50.4794
G01 X66.6172 Y50.4990
G01 X66.6050 Y50.5014
G01 X66.5260 Y50.5130
G01 X66.4499 Y50.5168
G01 X65.6134 Y51.3534
G01 X65.5702 Y51.3927
G01 X65.5629 Y51.3985
G01 X65.5184 Y51.4314
G01 X65.4710 Y51.4599
G01 X65.4600 Y51.4658
G01 X65.4100 Y51.4893
G01 X65.3579 Y51.5081
G01 X65.3460 Y51.5117
G01 X65.2923 Y51.5250
G01 X65.2315 Y51.5340
G01 X65.1700 Y51.5371
G01 X46.1200 Y51.5371
G01 X46.0616 Y51.5343
G01 X46.0524 Y51.5333
G01 X46.0038 Y51.5261
G01 X45.9916 Y51.5236
G01 X45.9380 Y51.5100
G01 X45.8800 Y51.4893
G01 X45.8244 Y51.4630
G01 X45.7769 Y51.4347
G01 X45.7665 Y51.4278
G01 X45.7271 Y51.3985
G01 X45.7198 Y51.3927
G01 X45.6766 Y51.3534
G01 X44.5903 Y50.2671
G01 X38.3568 Y50.2671
G01 X38.3568 Y50.6400
G01 X38.3562 Y50.6524
G01 X38.3544 Y50.6647
G01 X38.3522 Y50.6738
G01 X38.3494 Y50.6827
G01 X38.3433 Y50.6970
G01 X38.3388 Y50.7052
G01 X38.3337 Y50.7130
G01 X38.3280 Y50.7204
G01 X38.3218 Y50.7274
G01 X38.3152 Y50.7340
G01 X38.3080 Y50.7400
G01 X38.3004 Y50.7454
G01 X38.2925 Y50.7503
G01 X38.2842 Y50.7546
G01 X38.2756 Y50.7583
G01 X38.2668 Y50.7613
G01 X38.2578 Y50.7637
G01 X38.2455 Y50.7658
G01 X38.2300 Y50.7668
G01 X36.2300 Y50.7668
G01 X36.2207 Y50.7665
G01 X36.2114 Y50.7654
G01 X36.2022 Y50.7637
G01 X36.1932 Y50.7613
G01 X36.1844 Y50.7583
G01 X36.1758 Y50.7546
G01 X36.1648 Y50.7488
G01 X36.1570 Y50.7437
G01 X36.1496 Y50.7380
G01 X36.1426 Y50.7318
G01 X36.1360 Y50.7252
G01 X36.1282 Y50.7155
G01 X36.1212 Y50.7052
G01 X36.1167 Y50.6970
G01 X36.1129 Y50.6885
G01 X36.1096 Y50.6798
G01 X36.1070 Y50.6708
G01 X36.1051 Y50.6617
G01 X36.1038 Y50.6524
G01 X36.1032 Y50.6431
G01 X36.1032 Y48.6369
G01 X36.1046 Y48.6214
G01 X36.1070 Y48.6092
G01 X36.1117 Y48.5944
G01 X36.1182 Y48.5802
G01 X36.1246 Y48.5696
G01 X36.1340 Y48.5572
G01 X36.1448 Y48.5460
G01 X36.1563 Y48.5368
G01 X35.5967 Y47.9772
G01 X29.6100 Y47.9772
G01 X29.5302 Y47.9734
G01 X29.5178 Y47.9722
G01 X29.4389 Y47.9603
G01 X29.3584 Y47.9403
G01 X29.3495 Y47.9375
G01 X29.2743 Y47.9104
G01 X29.2021 Y47.8764
G01 X29.1911 Y47.8705
G01 X29.1227 Y47.8293
G01 X29.0584 Y47.7819
G01 X29.0488 Y47.7740
G01 X28.9920 Y47.7224
G01 X26.7067 Y45.4372
G01 X9.1468 Y45.4372
G01 X9.1468 Y45.5600
G01 X9.1465 Y45.5693
G01 X9.1454 Y45.5786
G01 X9.1430 Y45.5908
G01 X9.1394 Y45.6027
G01 X9.1359 Y45.6114
G01 X9.1288 Y45.6252
G01 X9.1200 Y45.6380
G01 X9.1097 Y45.6497
G01 X9.1028 Y45.6560
G01 X9.0955 Y45.6618
G01 X9.0825 Y45.6703
G01 X9.0685 Y45.6771
G01 X9.0598 Y45.6804
G01 X9.0508 Y45.6830
G01 X9.0355 Y45.6858
G01 X9.0200 Y45.6868
G01 X7.0200 Y45.6868
G01 X7.0076 Y45.6862
G01 X6.9953 Y45.6844
G01 X6.9832 Y45.6813
G01 X6.9744 Y45.6783
G01 X6.9658 Y45.6746
G01 X6.9548 Y45.6688
G01 X6.9470 Y45.6637
G01 X6.9372 Y45.6560
G01 X6.9303 Y45.6497
G01 X6.9240 Y45.6428
G01 X6.9163 Y45.6330
G01 X6.9112 Y45.6252
G01 X6.9067 Y45.6170
G01 X6.9017 Y45.6056
G01 X6.8978 Y45.5938
G01 X6.8956 Y45.5847
G01 X6.8942 Y45.5755
G01 X6.8934 Y45.5662
G01 X6.8932 Y43.5600
G01 X6.8935 Y43.5507
G01 X6.8951 Y43.5383
G01 X6.8978 Y43.5262
G01 X6.9017 Y43.5144
G01 X6.9054 Y43.5058
G01 X6.9112 Y43.4948
G01 X6.9163 Y43.4870
G01 X6.9240 Y43.4772
G01 X6.9303 Y43.4703
G01 X6.9396 Y43.4620
G01 X6.9496 Y43.4546
G01 X6.9575 Y43.4497
G01 X6.9658 Y43.4454
G01 X6.9773 Y43.4406
G01 X6.9892 Y43.4370
G01 X7.0014 Y43.4346
G00 Z2.0000
G00 X6.7367 Y45.9622
G01 F60.00
G01 Z-0.1700
G01 F120.00
G01 X6.7568 Y45.9757
G01 X6.7671 Y45.9820
G01 X6.7881 Y45.9939
G01 X6.7988 Y45.9995
G01 X6.8206 Y46.0098
G01 X6.8429 Y46.0190
G01 X6.8657 Y46.0272
G01 X6.8772 Y46.0308
G01 X6.9005 Y46.0372
G01 X6.9240 Y46.0425
G01 X6.9359 Y46.0447
G01 X6.9616 Y46.0485
G01 X6.9484 Y46.0625
G01 X6.8825 Y46.1352
G01 X6.8667 Y46.1535
G01 X6.8518 Y46.1725
G01 X6.7934 Y46.2514
G01 X6.7795 Y46.2711
G01 X6.7665 Y46.2915
G01 X6.7224 Y46.3652
G01 X6.7224 Y45.9517
G01 X6.7367 Y45.9622
G00 Z2.0000
G00 X7.4916 Y46.1048
G01 F60.00
G01 Z-0.1700
G01 F120.00
G01 X7.5831 Y46.0615
G01 X7.5946 Y46.0567
G01 X7.6929 Y46.0217
G01 X7.7941 Y45.9962
G01 X7.8063 Y45.9938
G01 X7.9096 Y45.9786
G01 X8.0138 Y45.9734
G01 X8.0231 Y45.9732
G01 X8.1304 Y45.9786
G01 X8.2337 Y45.9938
G01 X8.2459 Y45.9962
G01 X8.3411 Y46.0201
G01 X8.3530 Y46.0237
G01 X8.4512 Y46.0590
G01 X8.5512 Y46.1063
G01 X8.6460 Y46.1631
G01 X8.7268 Y46.2228
G01 X18.1800 Y46.2228
G01 X18.2598 Y46.2266
G01 X18.2722 Y46.2278
G01 X18.3511 Y46.2397
G01 X18.4286 Y46.2589
G01 X18.4405 Y46.2625
G01 X18.5157 Y46.2896
G01 X18.5879 Y46.3236
G01 X18.5962 Y46.3279
G01 X18.6621 Y46.3673
G01 X18.6724 Y46.3742
G01 X18.7365 Y46.4219
G01 X18.7957 Y46.4755
G01 X18.8045 Y46.4843
G01 X18.8581 Y46.5435
G01 X18.9093 Y46.6127
G01 X18.9536 Y46.6865
G01 X18.9879 Y46.7586
G01 X18.9926 Y46.7701
G01 X19.0194 Y46.8454
G01 X19.0390 Y46.9228
G01 X19.0414 Y46.9350
G01 X19.0530 Y47.0140
G01 X19.0572 Y47.1000
G01 X19.0571 Y50.9131
G01 X19.0534 Y50.9898
G01 X19.0522 Y51.0022
G01 X19.0403 Y51.0811
G01 X19.0203 Y51.1616
G01 X19.0175 Y51.1705
G01 X18.9926 Y51.2399
G01 X18.9892 Y51.2485
G01 X18.9550 Y51.3207
G01 X18.9388 Y51.3486
G01 X18.9723 Y51.3789
G01 X18.9789 Y51.3855
G01 X19.0470 Y51.4605
G01 X19.0530 Y51.4676
G01 X19.1169 Y51.5540
G01 X19.1722 Y51.6461
G01 X19.1765 Y51.6544
G01 X19.2185 Y51.7431
G01 X19.2233 Y51.7546
G01 X19.2583 Y51.8529
G01 X19.2838 Y51.9541
G01 X19.2857 Y51.9632
G01 X19.3014 Y52.0696
G01 X19.3068 Y52.1800
G01 X19.3014 Y52.2904
G01 X19.2862 Y52.3937
G01 X19.2838 Y52.4059
G01 X19.2599 Y52.5011
G01 X19.2563 Y52.5130
G01 X19.2210 Y52.6112
G01 X19.1765 Y52.7056
G01 X19.1722 Y52.7139
G01 X19.1169 Y52.8060
G01 X19.0549 Y52.8899
G01 X19.0470 Y52.8995
G01 X18.9768 Y52.9768
G01 X18.8948 Y53.0510
G01 X18.8111 Y53.1133
G01 X18.8008 Y53.1202
G01 X18.7112 Y53.1737
G01 X18.6169 Y53.2185
G01 X18.6054 Y53.2233
G01 X18.5071 Y53.2583
G01 X18.3998 Y53.2851
G01 X18.2966 Y53.3006
G01 X18.2842 Y53.3018
G01 X18.1800 Y53.3068
G01 X18.0758 Y53.3018
G01 X18.0634 Y53.3006
G01 X17.9602 Y53.2851
G01 X17.8589 Y53.2599
G01 X17.8470 Y53.2563
G01 X17.7488 Y53.2210
G01 X17.6544 Y53.1765
G01 X17.6434 Y53.1707
G01 X17.5592 Y53.1202
G01 X17.5489 Y53.1133
G01 X17.4652 Y53.0510
G01 X17.3877 Y52.9811
G01 X17.3789 Y52.9723
G01 X17.3090 Y52.8948
G01 X17.2431 Y52.8060
G01 X17.1893 Y52.7166
G01 X17.1835 Y52.7056
G01 X17.1415 Y52.6169
G01 X17.1378 Y52.6083
G01 X17.1017 Y52.5071
G01 X17.0762 Y52.4059
G01 X17.0738 Y52.3937
G01 X17.0586 Y52.2904
G01 X17.0532 Y52.1800
G01 X17.0582 Y52.0758
G01 X17.0594 Y52.0634
G01 X17.0738 Y51.9663
G01 X17.0755 Y51.9571
G01 X17.1017 Y51.8529
G01 X17.1367 Y51.7546
G01 X17.1415 Y51.7431
G01 X17.1835 Y51.6544
G01 X17.1878 Y51.6461
G01 X17.2431 Y51.5540
G01 X17.3070 Y51.4676
G01 X17.3130 Y51.4605
G01 X17.3811 Y51.3855
G01 X17.3877 Y51.3789
G01 X17.4212 Y51.3486
G01 X17.4050 Y51.3207
G01 X17.3708 Y51.2485
G01 X17.3674 Y51.2399
G01 X17.3425 Y51.1705
G01 X17.3397 Y51.1616
G01 X17.3210 Y51.0872
G01 X17.3186 Y51.0750
G01 X17.3070 Y50.9960
G01 X17.3029 Y50.9131
G01 X17.3028 Y47.9772
G01 X8.7268 Y47.9772
G01 X8.6460 Y48.0369
G01 X8.5566 Y48.0907
G01 X8.5456 Y48.0965
G01 X8.4569 Y48.1385
G01 X8.4454 Y48.1433
G01 X8.3471 Y48.1783
G01 X8.2459 Y48.2038
G01 X8.2337 Y48.2062
G01 X8.1304 Y48.2214
G01 X8.0200 Y48.2268
G01 X7.9096 Y48.2214
G01 X7.8002 Y48.2051
G01 X7.6989 Y48.1799
G01 X7.6870 Y48.1763
G01 X7.5888 Y48.1410
G01 X7.4888 Y48.0937
G01 X7.3940 Y48.0369
G01 X7.3101 Y47.9749
G01 X7.3005 Y47.9670
G01 X7.2277 Y47.9011
G01 X7.2189 Y47.8923
G01 X7.1490 Y47.8148
G01 X7.0867 Y47.7311
G01 X7.0798 Y47.7208
G01 X7.0293 Y47.6366
G01 X7.0235 Y47.6256
G01 X6.9790 Y47.5312
G01 X6.9417 Y47.4271
G01 X6.9149 Y47.3198
G01 X6.8994 Y47.2166
G01 X6.8982 Y47.2042
G01 X6.8934 Y47.1062
G01 X6.8934 Y47.0938
G01 X6.8986 Y46.9896
G01 X6.9149 Y46.8802
G01 X6.9417 Y46.7729
G01 X6.9767 Y46.6746
G01 X6.9815 Y46.6631
G01 X7.0263 Y46.5688
G01 X7.0798 Y46.4792
G01 X7.0867 Y46.4689
G01 X7.1490 Y46.3852
G01 X7.2232 Y46.3032
G01 X7.3052 Y46.2290
G01 X7.3889 Y46.1667
G01 X7.3992 Y46.1598
G01 X7.4834 Y46.1093
G01 X7.4916 Y46.1048
G00 Z2.0000
G00 X11.0011 Y48.3995
G01 F60.00
G01 Z-0.1700
G01 F120.00
G01 X10.9814 Y48.4134
G01 X10.9025 Y48.4718
G01 X10.8835 Y48.4867
G01 X10.8652 Y48.5025
G01 X10.7925 Y48.5684
G01 X10.7750 Y48.5850
G01 X10.7584 Y48.6025
G01 X10.6925 Y48.6752
G01 X10.6767 Y48.6935
G01 X10.6618 Y48.7125
G01 X10.6034 Y48.7914
G01 X10.5895 Y48.8111
G01 X10.5765 Y48.8315
G01 X10.5261 Y48.9157
G01 X10.5142 Y48.9367
G01 X10.5033 Y48.9583
G01 X10.4614 Y49.0470
G01 X10.4516 Y49.0690
G01 X10.4429 Y49.0916
G01 X10.4098 Y49.1840
G01 X10.4023 Y49.2069
G01 X10.3958 Y49.2302
G01 X10.3692 Y49.3371
G01 X10.3667 Y49.3489
G01 X10.3626 Y49.3727
G01 X10.3482 Y49.4698
G01 X10.3452 Y49.4938
G01 X10.3434 Y49.5178
G01 X10.3386 Y49.6159
G01 X10.3380 Y49.6400
G01 X10.3386 Y49.6641
G01 X10.3434 Y49.7622
G01 X10.3452 Y49.7862
G01 X10.3482 Y49.8102
G01 X10.3645 Y49.9192
G01 X10.3692 Y49.9429
G01 X10.3720 Y49.9546
G01 X10.3958 Y50.0498
G01 X10.4023 Y50.0731
G01 X10.4098 Y50.0960
G01 X10.4471 Y50.1997
G01 X10.4516 Y50.2110
G01 X10.4614 Y50.2330
G01 X10.5086 Y50.3326
G01 X10.5200 Y50.3539
G01 X10.5608 Y50.4222
G01 X10.0454 Y50.9376
G01 X6.7224 Y50.9376
G01 X6.7224 Y47.8348
G01 X6.7665 Y47.9085
G01 X6.7795 Y47.9289
G01 X6.7934 Y47.9486
G01 X6.8518 Y48.0275
G01 X6.8591 Y48.0371
G01 X6.8745 Y48.0557
G01 X6.9484 Y48.1375
G01 X6.9650 Y48.1550
G01 X6.9825 Y48.1716
G01 X7.0552 Y48.2375
G01 X7.0735 Y48.2533
G01 X7.0925 Y48.2682
G01 X7.1714 Y48.3266
G01 X7.1911 Y48.3405
G01 X7.2115 Y48.3535
G01 X7.2957 Y48.4039
G01 X7.3167 Y48.4158
G01 X7.3383 Y48.4267
G01 X7.4270 Y48.4686
G01 X7.4490 Y48.4784
G01 X7.4716 Y48.4871
G01 X7.5640 Y48.5202
G01 X7.5869 Y48.5277
G01 X7.6102 Y48.5342
G01 X7.7054 Y48.5580
G01 X7.7171 Y48.5608
G01 X7.7408 Y48.5655
G01 X7.8618 Y48.5835
G01 X7.8738 Y48.5848
G01 X7.8978 Y48.5866
G01 X7.9959 Y48.5914
G01 X8.0200 Y48.5920
G01 X8.0441 Y48.5914
G01 X8.1422 Y48.5866
G01 X8.1542 Y48.5858
G01 X8.1782 Y48.5835
G01 X8.2873 Y48.5674
G01 X8.3111 Y48.5633
G01 X8.3346 Y48.5580
G01 X8.4298 Y48.5342
G01 X8.4531 Y48.5277
G01 X8.4760 Y48.5202
G01 X8.5684 Y48.4871
G01 X8.5910 Y48.4784
G01 X8.6130 Y48.4686
G01 X8.7017 Y48.4267
G01 X8.7233 Y48.4158
G01 X8.7443 Y48.4039
G01 X8.8285 Y48.3535
G01 X8.8461 Y48.3424
G01 X11.0952 Y48.3424
G01 X11.0215 Y48.3865
G01 X11.0011 Y48.3995
G00 Z2.0000
G00 X13.0724 Y50.4661
G01 F60.00
G01 Z-0.1700
G01 F120.00
G01 X13.0835 Y50.4485
G01 X13.1339 Y50.3643
G01 X13.1458 Y50.3433
G01 X13.1567 Y50.3217
G01 X13.1986 Y50.2330
G01 X13.2084 Y50.2110
G01 X13.2171 Y50.1884
G01 X13.2502 Y50.0960
G01 X13.2577 Y50.0731
G01 X13.2642 Y50.0498
G01 X13.2880 Y49.9546
G01 X13.2933 Y49.9311
G01 X13.2974 Y49.9073
G01 X13.3118 Y49.8102
G01 X13.3148 Y49.7862
G01 X13.3166 Y49.7622
G01 X13.3214 Y49.6641
G01 X13.3220 Y49.6400
G01 X13.3214 Y49.6159
G01 X13.3166 Y49.5178
G01 X13.3148 Y49.4938
G01 X13.3118 Y49.4698
G01 X13.2974 Y49.3727
G01 X13.2933 Y49.3489
G01 X13.2880 Y49.3254
G01 X13.2642 Y49.2302
G01 X13.2577 Y49.2069
G01 X13.2502 Y49.1840
G01 X13.2171 Y49.0916
G01 X13.2084 Y49.0690
G01 X13.2037 Y49.0579
G01 X13.1567 Y48.9583
G01 X13.1458 Y48.9367
G01 X13.1400 Y48.9261
G01 X13.0771 Y48.8212
G01 X13.0705 Y48.8111
G01 X13.0566 Y48.7914
G01 X12.9982 Y48.7125
G01 X12.9909 Y48.7029
G01 X12.9755 Y48.6843
G01 X12.8934 Y48.5937
G01 X12.8763 Y48.5766
G01 X12.8675 Y48.5684
G01 X12.7857 Y48.4945
G01 X12.7671 Y48.4791
G01 X12.7575 Y48.4718
G01 X12.6786 Y48.4134
G01 X12.6589 Y48.3995
G01 X12.6385 Y48.3865
G01 X12.5648 Y48.3424
G01 X16.9376 Y48.3424
G01 X16.9378 Y50.9221
G01 X16.9418 Y51.0077
G01 X16.9436 Y51.0318
G01 X16.9466 Y51.0557
G01 X16.9574 Y51.1286
G01 X16.9615 Y51.1524
G01 X16.9668 Y51.1759
G01 X16.9847 Y51.2474
G01 X16.9878 Y51.2590
G01 X16.9933 Y51.2775
G01 X16.9463 Y51.3411
G01 X16.9329 Y51.3612
G01 X16.8761 Y51.4557
G01 X16.8700 Y51.4661
G01 X16.8586 Y51.4874
G01 X16.8114 Y51.5870
G01 X16.8016 Y51.6090
G01 X16.7929 Y51.6316
G01 X16.7598 Y51.7240
G01 X16.7523 Y51.7469
G01 X16.7489 Y51.7585
G01 X16.7220 Y51.8654
G01 X16.7167 Y51.8889
G01 X16.7126 Y51.9127
G01 X16.6982 Y52.0098
G01 X16.6952 Y52.0338
G01 X16.6934 Y52.0578
G01 X16.6886 Y52.1559
G01 X16.6880 Y52.1800
G01 X16.6886 Y52.2041
G01 X16.6934 Y52.3022
G01 X16.6952 Y52.3262
G01 X16.6982 Y52.3502
G01 X16.7126 Y52.4473
G01 X16.7167 Y52.4711
G01 X16.7220 Y52.4946
G01 X16.7458 Y52.5898
G01 X16.7523 Y52.6131
G01 X16.7598 Y52.6360
G01 X16.7929 Y52.7284
G01 X16.8016 Y52.7510
G01 X16.8114 Y52.7730
G01 X16.8533 Y52.8617
G01 X16.8642 Y52.8833
G01 X16.8761 Y52.9043
G01 X16.9265 Y52.9885
G01 X16.9395 Y53.0089
G01 X16.9534 Y53.0286
G01 X17.0118 Y53.1075
G01 X17.0267 Y53.1265
G01 X17.0425 Y53.1448
G01 X17.1084 Y53.2175
G01 X17.1250 Y53.2350
G01 X17.1425 Y53.2516
G01 X17.2243 Y53.3255
G01 X17.2429 Y53.3409
G01 X17.2525 Y53.3482
G01 X17.3314 Y53.4066
G01 X17.3511 Y53.4205
G01 X17.3715 Y53.4335
G01 X17.4452 Y53.4776
G01 X14.8846 Y53.4776
G01 X13.0724 Y51.6654
G01 X13.0724 Y50.4661
G00 Z2.0000
G00 X4.4893 Y51.6434
G01 F60.00
G01 Z-0.1700
G01 F120.00
G01 X4.5431 Y51.5540
G01 X4.6028 Y51.4732
G01 X4.6028 Y39.4800
G01 X4.6070 Y39.3940
G01 X4.6186 Y39.3150
G01 X4.6210 Y39.3028
G01 X4.6406 Y39.2254
G01 X4.6674 Y39.1501
G01 X4.6721 Y39.1386
G01 X4.7050 Y39.0693
G01 X4.7095 Y39.0611
G01 X4.7473 Y38.9979
G01 X4.7542 Y38.9876
G01 X4.8019 Y38.9235
G01 X4.8597 Y38.8597
G01 X16.2897 Y27.4297
G01 X16.3535 Y27.3719
G01 X16.4176 Y27.3242
G01 X16.4279 Y27.3173
G01 X16.4911 Y27.2795
G01 X16.5021 Y27.2736
G01 X16.5743 Y27.2396
G01 X16.6554 Y27.2106
G01 X16.7389 Y27.1897
G01 X16.8240 Y27.1770
G01 X16.9100 Y27.1728
G01 X33.9832 Y27.1728
G01 X34.0640 Y27.1131
G01 X34.1588 Y27.0563
G01 X34.2588 Y27.0090
G01 X34.3570 Y26.9737
G01 X34.3689 Y26.9701
G01 X34.4641 Y26.9462
G01 X34.4763 Y26.9438
G01 X34.5796 Y26.9286
G01 X34.6900 Y26.9232
G01 X34.8004 Y26.9286
G01 X34.9037 Y26.9438
G01 X34.9159 Y26.9462
G01 X35.0111 Y26.9701
G01 X35.0230 Y26.9737
G01 X35.1212 Y27.0090
G01 X35.2212 Y27.0563
G01 X35.3160 Y27.1131
G01 X35.3968 Y27.1728
G01 X60.0900 Y27.1728
G01 X60.1698 Y27.1766
G01 X60.1822 Y27.1778
G01 X60.2611 Y27.1897
G01 X60.3416 Y27.2097
G01 X60.3505 Y27.2125
G01 X60.4257 Y27.2396
G01 X60.4979 Y27.2736
G01 X60.5089 Y27.2795
G01 X60.5773 Y27.3207
G01 X60.6416 Y27.3681
G01 X60.6512 Y27.3760
G01 X60.7103 Y27.4297
G01 X77.2203 Y43.9397
G01 X77.2781 Y44.0035
G01 X77.3258 Y44.0676
G01 X77.3327 Y44.0779
G01 X77.3705 Y44.1411
G01 X77.3764 Y44.1521
G01 X77.4104 Y44.2243
G01 X77.4394 Y44.3054
G01 X77.4603 Y44.3889
G01 X77.4730 Y44.4740
G01 X77.4772 Y44.5600
G01 X77.4771 Y49.6431
G01 X77.4734 Y49.7198
G01 X77.4722 Y49.7322
G01 X77.4603 Y49.8111
G01 X77.4411 Y49.8886
G01 X77.4375 Y49.9005
G01 X77.4104 Y49.9757
G01 X77.3764 Y50.0479
G01 X77.3705 Y50.0589
G01 X77.3293 Y50.1273
G01 X77.2819 Y50.1916
G01 X77.2740 Y50.2012
G01 X77.2203 Y50.2603
G01 X68.5872 Y58.8933
G01 X68.5872 Y59.8000
G01 X68.5834 Y59.8798
G01 X68.5826 Y59.8891
G01 X68.5703 Y59.9711
G01 X68.5511 Y60.0486
G01 X68.5475 Y60.0605
G01 X68.5226 Y60.1299
G01 X68.5179 Y60.1414
G01 X68.4836 Y60.2135
G01 X68.4393 Y60.2873
G01 X68.3881 Y60.3565
G01 X68.3371 Y60.4130
G01 X68.3371 Y61.0700
G01 X68.3343 Y61.1284
G01 X68.3333 Y61.1376
G01 X68.3250 Y61.1923
G01 X68.3100 Y61.2520
G01 X68.2893 Y61.3100
G01 X68.2630 Y61.3656
G01 X68.2347 Y61.4131
G01 X68.2278 Y61.4235
G01 X68.1947 Y61.4678
G01 X68.1556 Y61.5112
G01 X67.5454 Y62.1214
G01 X67.5606 Y62.2234
G01 X67.5618 Y62.2358
G01 X67.5668 Y62.3400
G01 X67.5618 Y62.4442
G01 X67.5606 Y62.4566
G01 X67.5451 Y62.5598
G01 X67.5183 Y62.6671
G01 X67.4833 Y62.7654
G01 X67.4785 Y62.7769
G01 X67.4337 Y62.8712
G01 X67.3802 Y62.9608
G01 X67.3733 Y62.9711
G01 X67.3110 Y63.0548
G01 X67.2411 Y63.1323
G01 X67.2345 Y63.1389
G01 X67.1595 Y63.2070
G01 X67.1499 Y63.2149
G01 X67.0660 Y63.2769
G01 X66.9766 Y63.3307
G01 X66.9656 Y63.3365
G01 X66.8712 Y63.3810
G01 X66.7730 Y63.4163
G01 X66.7611 Y63.4199
G01 X66.6598 Y63.4451
G01 X66.5566 Y63.4606
G01 X66.5442 Y63.4618
G01 X66.4400 Y63.4668
G01 X66.3358 Y63.4618
G01 X66.3234 Y63.4606
G01 X66.2202 Y63.4451
G01 X66.1189 Y63.4199
G01 X66.1070 Y63.4163
G01 X66.0088 Y63.3810
G01 X65.9088 Y63.3337
G01 X65.8140 Y63.2769
G01 X65.7301 Y63.2149
G01 X65.7205 Y63.2070
G01 X65.6477 Y63.1411
G01 X65.6389 Y63.1323
G01 X65.5690 Y63.0548
G01 X65.5067 Y62.9711
G01 X65.4998 Y62.9608
G01 X65.4463 Y62.8712
G01 X65.3990 Y62.7712
G01 X65.3617 Y62.6671
G01 X65.3349 Y62.5598
G01 X65.3186 Y62.4504
G01 X65.3132 Y62.3400
G01 X65.3186 Y62.2296
G01 X65.3338 Y62.1263
G01 X65.3362 Y62.1141
G01 X65.3617 Y62.0129
G01 X65.3990 Y61.9088
G01 X65.4463 Y61.8088
G01 X65.4998 Y61.7192
G01 X65.5067 Y61.7089
G01 X65.5690 Y61.6252
G01 X65.6389 Y61.5477
G01 X65.6477 Y61.5389
G01 X65.7205 Y61.4730
G01 X65.7301 Y61.4651
G01 X65.8089 Y61.4067
G01 X65.8192 Y61.3998
G01 X65.9088 Y61.3463
G01 X66.0031 Y61.3015
G01 X66.0146 Y61.2967
G01 X66.1129 Y61.2617
G01 X66.2141 Y61.2362
G01 X66.2263 Y61.2338
G01 X66.3296 Y61.2186
G01 X66.4400 Y61.2132
G01 X66.5504 Y61.2186
G01 X66.6586 Y61.2346
G01 X67.0829 Y60.8103
G01 X67.0829 Y60.4130
G01 X67.0319 Y60.3565
G01 X66.9807 Y60.2873
G01 X66.9364 Y60.2135
G01 X66.8996 Y60.1357
G01 X66.8706 Y60.0546
G01 X66.8497 Y59.9711
G01 X66.8370 Y59.8860
G01 X66.8330 Y59.8062
G01 X66.8328 Y58.5300
G01 X66.8368 Y58.4471
G01 X66.8378 Y58.4378
G01 X66.8497 Y58.3589
G01 X66.8689 Y58.2814
G01 X66.8725 Y58.2695
G01 X66.8996 Y58.1943
G01 X66.9336 Y58.1221
G01 X66.9395 Y58.1111
G01 X66.9807 Y58.0427
G01 X67.0319 Y57.9735
G01 X67.0897 Y57.9097
G01 X75.7228 Y49.2767
G01 X75.7228 Y44.9233
G01 X59.7267 Y28.9272
G01 X35.3968 Y28.9272
G01 X35.3160 Y28.9869
G01 X35.2212 Y29.0437
G01 X35.1212 Y29.0910
G01 X35.0230 Y29.1263
G01 X35.0111 Y29.1299
G01 X34.9159 Y29.1538
G01 X34.9037 Y29.1562
G01 X34.8004 Y29.1714
G01 X34.6900 Y29.1768
G01 X34.5796 Y29.1714
G01 X34.4763 Y29.1562
G01 X34.4641 Y29.1538
G01 X34.3689 Y29.1299
G01 X34.3570 Y29.1263
G01 X34.2588 Y29.0910
G01 X34.1588 Y29.0437
G01 X34.0640 Y28.9869
G01 X33.9832 Y28.9272
G01 X17.2733 Y28.9272
G01 X6.3572 Y39.8433
G01 X6.3572 Y51.3028
G01 X10.1967 Y51.3028
G01 X10.9528 Y50.5467
G01 X10.9528 Y50.3468
G01 X10.8931 Y50.2660
G01 X10.8363 Y50.1712
G01 X10.7890 Y50.0712
G01 X10.7537 Y49.9730
G01 X10.7501 Y49.9611
G01 X10.7262 Y49.8659
G01 X10.7238 Y49.8537
G01 X10.7086 Y49.7504
G01 X10.7034 Y49.6462
G01 X10.7034 Y49.6338
G01 X10.7082 Y49.5358
G01 X10.7094 Y49.5234
G01 X10.7249 Y49.4202
G01 X10.7517 Y49.3129
G01 X10.7867 Y49.2146
G01 X10.7915 Y49.2031
G01 X10.8363 Y49.1088
G01 X10.8931 Y49.0140
G01 X10.9590 Y48.9252
G01 X11.0289 Y48.8477
G01 X11.0377 Y48.8389
G01 X11.1152 Y48.7690
G01 X11.1989 Y48.7067
G01 X11.2092 Y48.6998
G01 X11.2988 Y48.6463
G01 X11.3988 Y48.5990
G01 X11.5029 Y48.5617
G01 X11.6041 Y48.5362
G01 X11.6163 Y48.5338
G01 X11.7196 Y48.5186
G01 X11.8238 Y48.5134
G01 X11.8362 Y48.5134
G01 X11.9404 Y48.5186
G01 X12.0468 Y48.5343
G01 X12.0559 Y48.5362
G01 X12.1511 Y48.5601
G01 X12.1630 Y48.5637
G01 X12.2612 Y48.5990
G01 X12.3612 Y48.6463
G01 X12.4508 Y48.6998
G01 X12.4611 Y48.7067
G01 X12.5448 Y48.7690
G01 X12.6268 Y48.8432
G01 X12.6970 Y48.9205
G01 X12.7049 Y48.9301
G01 X12.7669 Y49.0140
G01 X12.8237 Y49.1088
G01 X12.8685 Y49.2031
G01 X12.8733 Y49.2146
G01 X12.9083 Y49.3129
G01 X12.9351 Y49.4202
G01 X12.9514 Y49.5296
G01 X12.9568 Y49.6400
G01 X12.9514 Y49.7504
G01 X12.9362 Y49.8537
G01 X12.9338 Y49.8659
G01 X12.9083 Y49.9671
G01 X12.8733 Y50.0654
G01 X12.8685 Y50.0769
G01 X12.8265 Y50.1656
G01 X12.8207 Y50.1766
G01 X12.7669 Y50.2660
G01 X12.7072 Y50.3468
G01 X12.7072 Y51.8167
G01 X14.7333 Y53.8428
G01 X20.3567 Y53.8428
G01 X23.6528 Y50.5467
G01 X23.6528 Y50.3468
G01 X23.5931 Y50.2660
G01 X23.5393 Y50.1766
G01 X23.5335 Y50.1656
G01 X23.4890 Y50.0712
G01 X23.4537 Y49.9730
G01 X23.4501 Y49.9611
G01 X23.4249 Y49.8598
G01 X23.4090 Y49.7535
G01 X23.4082 Y49.7442
G01 X23.4032 Y49.6400
G01 X23.4082 Y49.5358
G01 X23.4094 Y49.5234
G01 X23.4249 Y49.4202
G01 X23.4501 Y49.3189
G01 X23.4537 Y49.3070
G01 X23.4867 Y49.2146
G01 X23.4902 Y49.2059
G01 X23.5363 Y49.1088
G01 X23.5898 Y49.0192
G01 X23.5967 Y49.0089
G01 X23.6590 Y48.9252
G01 X23.7289 Y48.8477
G01 X23.7377 Y48.8389
G01 X23.8152 Y48.7690
G01 X23.9040 Y48.7031
G01 X23.9988 Y48.6463
G01 X24.0931 Y48.6015
G01 X24.1046 Y48.5967
G01 X24.2029 Y48.5617
G01 X24.3041 Y48.5362
G01 X24.3163 Y48.5338
G01 X24.4196 Y48.5186
G01 X24.5300 Y48.5132
G01 X24.6404 Y48.5186
G01 X24.7437 Y48.5338
G01 X24.7559 Y48.5362
G01 X24.8511 Y48.5601
G01 X24.8630 Y48.5637
G01 X24.9612 Y48.5990
G01 X25.0612 Y48.6463
G01 X25.1560 Y48.7031
G01 X25.2399 Y48.7651
G01 X25.2495 Y48.7730
G01 X25.3223 Y48.8389
G01 X25.3311 Y48.8477
G01 X25.4010 Y48.9252
G01 X25.4669 Y49.0140
G01 X25.5237 Y49.1088
G01 X25.5685 Y49.2031
G01 X25.5733 Y49.2146
G01 X25.6063 Y49.3070
G01 X25.6091 Y49.3159
G01 X25.6351 Y49.4202
G01 X25.6506 Y49.5234
G01 X25.6518 Y49.5358
G01 X25.6566 Y49.6338
G01 X25.6566 Y49.6462
G01 X25.6514 Y49.7504
G01 X25.6362 Y49.8537
G01 X25.6338 Y49.8659
G01 X25.6083 Y49.9671
G01 X25.5733 Y50.0654
G01 X25.5685 Y50.0769
G01 X25.5265 Y50.1656
G01 X25.5207 Y50.1766
G01 X25.4669 Y50.2660
G01 X25.4072 Y50.3468
G01 X25.4072 Y50.9100
G01 X25.4030 Y50.9960
G01 X25.3903 Y51.0811
G01 X25.3694 Y51.1646
G01 X25.3404 Y51.2457
G01 X25.3064 Y51.3179
G01 X25.3021 Y51.3262
G01 X25.2593 Y51.3973
G01 X25.2119 Y51.4616
G01 X25.2040 Y51.4712
G01 X25.1503 Y51.5303
G01 X21.3380 Y55.3424
G01 X21.2765 Y55.3981
G01 X21.2073 Y55.4493
G01 X21.1335 Y55.4936
G01 X21.0557 Y55.5304
G01 X20.9746 Y55.5594
G01 X20.8911 Y55.5803
G01 X20.8060 Y55.5930
G01 X20.7231 Y55.5971
G01 X14.3700 Y55.5972
G01 X14.2840 Y55.5930
G01 X14.2050 Y55.5814
G01 X14.1928 Y55.5790
G01 X14.1154 Y55.5594
G01 X14.0401 Y55.5326
G01 X14.0286 Y55.5279
G01 X13.9565 Y55.4936
G01 X13.8879 Y55.4527
G01 X13.8776 Y55.4458
G01 X13.8135 Y55.3981
G01 X13.7520 Y55.3424
G01 X11.2097 Y52.8003
G01 X11.1956 Y52.7849
G01 X11.1757 Y52.8045
G01 X11.1212 Y52.8540
G01 X11.1116 Y52.8619
G01 X11.0473 Y52.9093
G01 X10.9789 Y52.9505
G01 X10.9679 Y52.9564
G01 X10.8957 Y52.9904
G01 X10.8146 Y53.0194
G01 X10.7311 Y53.0403
G01 X10.6522 Y53.0522
G01 X10.6429 Y53.0532
G01 X10.5600 Y53.0572
G01 X6.1868 Y53.0572
G01 X6.1060 Y53.1169
G01 X6.0166 Y53.1707
G01 X6.0056 Y53.1765
G01 X5.9169 Y53.2185
G01 X5.9054 Y53.2233
G01 X5.8071 Y53.2583
G01 X5.7059 Y53.2838
G01 X5.6937 Y53.2862
G01 X5.5904 Y53.3014
G01 X5.4800 Y53.3068
G01 X5.3696 Y53.3014
G01 X5.2632 Y53.2857
G01 X5.2541 Y53.2838
G01 X5.1529 Y53.2583
G01 X5.0546 Y53.2233
G01 X5.0431 Y53.2185
G01 X4.9488 Y53.1737
G01 X4.8592 Y53.1202
G01 X4.8489 Y53.1133
G01 X4.7652 Y53.0510
G01 X4.6832 Y52.9768
G01 X4.6130 Y52.8995
G01 X4.6051 Y52.8899
G01 X4.5431 Y52.8060
G01 X4.4893 Y52.7166
G01 X4.4835 Y52.7056
G01 X4.4415 Y52.6169
G01 X4.4367 Y52.6054
G01 X4.4017 Y52.5071
G01 X4.3762 Y52.4059
G01 X4.3738 Y52.3937
G01 X4.3586 Y52.2904
G01 X4.3534 Y52.1862
G01 X4.3534 Y52.1738
G01 X4.3582 Y52.0758
G01 X4.3594 Y52.0634
G01 X4.3749 Y51.9602
G01 X4.4017 Y51.8529
G01 X4.4390 Y51.7488
G01 X4.4835 Y51.6544
G01 X4.4893 Y51.6434
G00 Z2.0000
G00 X4.9488 Y53.7263
G01 F60.00
G01 Z-0.1700
G01 F120.00
G01 X5.0431 Y53.6815
G01 X5.0546 Y53.6767
G01 X5.1529 Y53.6417
G01 X5.2602 Y53.6149
G01 X5.3634 Y53.5994
G01 X5.3758 Y53.5982
G01 X5.4800 Y53.5932
G01 X5.5873 Y53.5984
G01 X5.5966 Y53.5994
G01 X5.6937 Y53.6138
G01 X5.7059 Y53.6162
G01 X5.8071 Y53.6417
G01 X5.9112 Y53.6790
G01 X6.0056 Y53.7235
G01 X6.0166 Y53.7293
G01 X6.1060 Y53.7831
G01 X6.1868 Y53.8428
G01 X8.0200 Y53.8428
G01 X8.1029 Y53.8468
G01 X8.1122 Y53.8478
G01 X8.1911 Y53.8597
G01 X8.2686 Y53.8789
G01 X8.2805 Y53.8825
G01 X8.3557 Y53.9096
G01 X8.4279 Y53.9436
G01 X8.4389 Y53.9495
G01 X8.5073 Y53.9907
G01 X8.5765 Y54.0419
G01 X8.6403 Y54.0997
G01 X9.9103 Y55.3697
G01 X9.9681 Y55.4335
G01 X10.0193 Y55.5027
G01 X10.0636 Y55.5765
G01 X10.0979 Y55.6486
G01 X10.1026 Y55.6601
G01 X10.1294 Y55.7354
G01 X10.1490 Y55.8128
G01 X10.1514 Y55.8250
G01 X10.1630 Y55.9040
G01 X10.1672 Y55.9900
G01 X10.1672 Y56.8967
G01 X11.1956 Y57.9251
G01 X11.2120 Y57.9076
G01 X11.2711 Y57.8539
G01 X11.2784 Y57.8481
G01 X11.3401 Y57.8024
G01 X11.3479 Y57.7973
G01 X11.4165 Y57.7564
G01 X11.4915 Y57.7208
G01 X11.5001 Y57.7174
G01 X11.5754 Y57.6906
G01 X11.6589 Y57.6697
G01 X11.7440 Y57.6570
G01 X11.8300 Y57.6528
G01 X47.3900 Y57.6528
G01 X47.4760 Y57.6570
G01 X47.5611 Y57.6697
G01 X47.6386 Y57.6889
G01 X47.6505 Y57.6925
G01 X47.7257 Y57.7196
G01 X47.8035 Y57.7564
G01 X47.8721 Y57.7973
G01 X47.8824 Y57.8042
G01 X47.9465 Y57.8519
G01 X48.0080 Y57.9076
G01 X49.2824 Y59.1820
G01 X49.3381 Y59.2435
G01 X49.3893 Y59.3127
G01 X49.4336 Y59.3865
G01 X49.4692 Y59.4615
G01 X49.4726 Y59.4701
G01 X49.4994 Y59.5454
G01 X49.5203 Y59.6289
G01 X49.5330 Y59.7140
G01 X49.5371 Y59.7969
G01 X49.5372 Y61.6332
G01 X49.5969 Y61.7140
G01 X49.6507 Y61.8034
G01 X49.6565 Y61.8144
G01 X49.6985 Y61.9031
G01 X49.7033 Y61.9146
G01 X49.7383 Y62.0129
G01 X49.7638 Y62.1141
G01 X49.7662 Y62.1263
G01 X49.7814 Y62.2296
G01 X49.7868 Y62.3400
G01 X49.7814 Y62.4504
G01 X49.7651 Y62.5598
G01 X49.7383 Y62.6671
G01 X49.7033 Y62.7654
G01 X49.6985 Y62.7769
G01 X49.6537 Y62.8712
G01 X49.6002 Y62.9608
G01 X49.5933 Y62.9711
G01 X49.5310 Y63.0548
G01 X49.4611 Y63.1323
G01 X49.4523 Y63.1411
G01 X49.3748 Y63.2110
G01 X49.2911 Y63.2733
G01 X49.2808 Y63.2802
G01 X49.1912 Y63.3337
G01 X49.0969 Y63.3785
G01 X49.0854 Y63.3833
G01 X48.9930 Y63.4163
G01 X48.9811 Y63.4199
G01 X48.8798 Y63.4451
G01 X48.7766 Y63.4606
G01 X48.7642 Y63.4618
G01 X48.6600 Y63.4668
G01 X48.5496 Y63.4614
G01 X48.4463 Y63.4462
G01 X48.4341 Y63.4438
G01 X48.3329 Y63.4183
G01 X48.2288 Y63.3810
G01 X48.1344 Y63.3365
G01 X48.1234 Y63.3307
G01 X48.0340 Y63.2769
G01 X47.9501 Y63.2149
G01 X47.9405 Y63.2070
G01 X47.8632 Y63.1368
G01 X47.7910 Y63.0572
G01 X47.7851 Y63.0499
G01 X47.7231 Y62.9660
G01 X47.6693 Y62.8766
G01 X47.6635 Y62.8656
G01 X47.6215 Y62.7769
G01 X47.6167 Y62.7654
G01 X47.5817 Y62.6671
G01 X47.5549 Y62.5598
G01 X47.5386 Y62.4504
G01 X47.5332 Y62.3400
G01 X47.5386 Y62.2296
G01 X47.5538 Y62.1263
G01 X47.5562 Y62.1141
G01 X47.5801 Y62.0189
G01 X47.5837 Y62.0070
G01 X47.6190 Y61.9088
G01 X47.6663 Y61.8088
G01 X47.7231 Y61.7140
G01 X47.7828 Y61.6332
G01 X47.7828 Y60.1633
G01 X47.0267 Y59.4072
G01 X12.8849 Y59.4072
G01 X12.9083 Y59.4729
G01 X12.9345 Y59.5771
G01 X12.9362 Y59.5863
G01 X12.9506 Y59.6834
G01 X12.9516 Y59.6927
G01 X12.9566 Y59.7938
G01 X12.9566 Y59.8062
G01 X12.9514 Y59.9104
G01 X12.9357 Y60.0168
G01 X12.9338 Y60.0259
G01 X12.9083 Y60.1271
G01 X12.8733 Y60.2254
G01 X12.8685 Y60.2369
G01 X12.8237 Y60.3312
G01 X12.7702 Y60.4208
G01 X12.7633 Y60.4311
G01 X12.7049 Y60.5099
G01 X12.6990 Y60.5172
G01 X12.6268 Y60.5968
G01 X12.5495 Y60.6670
G01 X12.5399 Y60.6749
G01 X12.4560 Y60.7369
G01 X12.3666 Y60.7907
G01 X12.3556 Y60.7965
G01 X12.2612 Y60.8410
G01 X12.1630 Y60.8763
G01 X12.1511 Y60.8799
G01 X12.0498 Y60.9051
G01 X11.9466 Y60.9206
G01 X11.9342 Y60.9218
G01 X11.8300 Y60.9268
G01 X11.7258 Y60.9218
G01 X11.7134 Y60.9206
G01 X11.6102 Y60.9051
G01 X11.5089 Y60.8799
G01 X11.4970 Y60.8763
G01 X11.3988 Y60.8410
G01 X11.2988 Y60.7937
G01 X11.2040 Y60.7369
G01 X11.1201 Y60.6749
G01 X11.1105 Y60.6670
G01 X11.0377 Y60.6011
G01 X11.0311 Y60.5945
G01 X10.9590 Y60.5148
G01 X10.8967 Y60.4311
G01 X10.8898 Y60.4208
G01 X10.8393 Y60.3366
G01 X10.8335 Y60.3256
G01 X10.7890 Y60.2312
G01 X10.7517 Y60.1271
G01 X10.7249 Y60.0198
G01 X10.7100 Y59.9205
G01 X8.6697 Y57.8803
G01 X8.6160 Y57.8212
G01 X8.6081 Y57.8116
G01 X8.5607 Y57.7473
G01 X8.5195 Y57.6789
G01 X8.5136 Y57.6679
G01 X8.4796 Y57.5957
G01 X8.4525 Y57.5205
G01 X8.4489 Y57.5086
G01 X8.4297 Y57.4311
G01 X8.4174 Y57.3491
G01 X8.4166 Y57.3398
G01 X8.4128 Y57.2600
G01 X8.4128 Y56.3533
G01 X7.6567 Y55.5972
G01 X6.1868 Y55.5972
G01 X6.1060 Y55.6569
G01 X6.0112 Y55.7137
G01 X5.9112 Y55.7610
G01 X5.8130 Y55.7963
G01 X5.8011 Y55.7999
G01 X5.7059 Y55.8238
G01 X5.6937 Y55.8262
G01 X5.5904 Y55.8414
G01 X5.4862 Y55.8466
G01 X5.4769 Y55.8468
G01 X5.3696 Y55.8414
G01 X5.2602 Y55.8251
G01 X5.1529 Y55.7983
G01 X5.0488 Y55.7610
G01 X4.9488 Y55.7137
G01 X4.8540 Y55.6569
G01 X4.7652 Y55.5910
G01 X4.6877 Y55.5211
G01 X4.6789 Y55.5123
G01 X4.6130 Y55.4395
G01 X4.6051 Y55.4299
G01 X4.5431 Y55.3460
G01 X4.4893 Y55.2566
G01 X4.4835 Y55.2456
G01 X4.4390 Y55.1512
G01 X4.4017 Y55.0471
G01 X4.3749 Y54.9398
G01 X4.3594 Y54.8366
G01 X4.3582 Y54.8242
G01 X4.3534 Y54.7262
G01 X4.3534 Y54.7138
G01 X4.3586 Y54.6096
G01 X4.3738 Y54.5063
G01 X4.3762 Y54.4941
G01 X4.4017 Y54.3929
G01 X4.4390 Y54.2888
G01 X4.4863 Y54.1888
G01 X4.5398 Y54.0992
G01 X4.5467 Y54.0889
G01 X4.6090 Y54.0052
G01 X4.6789 Y53.9277
G01 X4.6877 Y53.9189
G01 X4.7605 Y53.8530
G01 X4.7701 Y53.8451
G01 X4.8540 Y53.7831
G01 X4.9488 Y53.7263
G00 Z2.0000
G00 X4.9873 Y56.3222
G01 F60.00
G01 Z-0.1700
G01 F120.00
G01 X5.0607 Y56.2874
G01 X5.0746 Y56.2812
G01 X5.0888 Y56.2758
G01 X5.1581 Y56.2510
G01 X5.1725 Y56.2462
G01 X5.1871 Y56.2422
G01 X5.2585 Y56.2243
G01 X5.2733 Y56.2210
G01 X5.2883 Y56.2184
G01 X5.3611 Y56.2076
G01 X5.3762 Y56.2057
G01 X5.3913 Y56.2046
G01 X5.4648 Y56.2010
G01 X5.4800 Y56.2006
G01 X5.4952 Y56.2010
G01 X5.5687 Y56.2046
G01 X5.5838 Y56.2057
G01 X5.5989 Y56.2076
G01 X5.6717 Y56.2184
G01 X5.6867 Y56.2210
G01 X5.7015 Y56.2243
G01 X5.7729 Y56.2422
G01 X5.7875 Y56.2462
G01 X5.8019 Y56.2510
G01 X5.8712 Y56.2758
G01 X5.8854 Y56.2812
G01 X5.8993 Y56.2874
G01 X5.9658 Y56.3189
G01 X5.9794 Y56.3257
G01 X5.9926 Y56.3332
G01 X6.0557 Y56.3710
G01 X6.0686 Y56.3791
G01 X6.0810 Y56.3879
G01 X6.1401 Y56.4317
G01 X6.1521 Y56.4411
G01 X6.1636 Y56.4510
G01 X6.2181 Y56.5004
G01 X6.2291 Y56.5109
G01 X6.2396 Y56.5219
G01 X6.2890 Y56.5764
G01 X6.2989 Y56.5879
G01 X6.3083 Y56.5999
G01 X6.3521 Y56.6590
G01 X6.3609 Y56.6714
G01 X6.3690 Y56.6843
G01 X6.4068 Y56.7474
G01 X6.4143 Y56.7606
G01 X6.4211 Y56.7742
G01 X6.4526 Y56.8407
G01 X6.4588 Y56.8546
G01 X6.4642 Y56.8688
G01 X6.4890 Y56.9381
G01 X6.4938 Y56.9525
G01 X6.4978 Y56.9671
G01 X6.5157 Y57.0385
G01 X6.5190 Y57.0533
G01 X6.5216 Y57.0683
G01 X6.5324 Y57.1411
G01 X6.5343 Y57.1562
G01 X6.5354 Y57.1713
G01 X6.5390 Y57.2448
G01 X6.5394 Y57.2600
G01 X6.5390 Y57.2752
G01 X6.5354 Y57.3487
G01 X6.5343 Y57.3638
G01 X6.5324 Y57.3789
G01 X6.5216 Y57.4517
G01 X6.5190 Y57.4667
G01 X6.5157 Y57.4815
G01 X6.4978 Y57.5529
G01 X6.4938 Y57.5675
G01 X6.4890 Y57.5819
G01 X6.4642 Y57.6512
G01 X6.4588 Y57.6654
G01 X6.4526 Y57.6793
G01 X6.4211 Y57.7458
G01 X6.4143 Y57.7594
G01 X6.4068 Y57.7726
G01 X6.3690 Y57.8357
G01 X6.3609 Y57.8486
G01 X6.3521 Y57.8610
G01 X6.3083 Y57.9201
G01 X6.2989 Y57.9321
G01 X6.2890 Y57.9436
G01 X6.2396 Y57.9981
G01 X6.2291 Y58.0091
G01 X6.2181 Y58.0196
G01 X6.1636 Y58.0690
G01 X6.1521 Y58.0789
G01 X6.1401 Y58.0883
G01 X6.0810 Y58.1321
G01 X6.0686 Y58.1409
G01 X6.0557 Y58.1490
G01 X5.9926 Y58.1868
G01 X5.9794 Y58.1943
G01 X5.9658 Y58.2011
G01 X5.8993 Y58.2326
G01 X5.8854 Y58.2388
G01 X5.8712 Y58.2442
G01 X5.8019 Y58.2690
G01 X5.7875 Y58.2738
G01 X5.7729 Y58.2778
G01 X5.7015 Y58.2957
G01 X5.6867 Y58.2990
G01 X5.6717 Y58.3016
G01 X5.5989 Y58.3124
G01 X5.5838 Y58.3143
G01 X5.5687 Y58.3154
G01 X5.4952 Y58.3190
G01 X5.4800 Y58.3194
G01 X5.4648 Y58.3190
G01 X5.3913 Y58.3154
G01 X5.3762 Y58.3143
G01 X5.3611 Y58.3124
G01 X5.2883 Y58.3016
G01 X5.2733 Y58.2990
G01 X5.2585 Y58.2957
G01 X5.1871 Y58.2778
G01 X5.1725 Y58.2738
G01 X5.1581 Y58.2690
G01 X5.0888 Y58.2442
G01 X5.0746 Y58.2388
G01 X5.0607 Y58.2326
G01 X4.9942 Y58.2011
G01 X4.9806 Y58.1943
G01 X4.9674 Y58.1868
G01 X4.9043 Y58.1490
G01 X4.8914 Y58.1409
G01 X4.8790 Y58.1321
G01 X4.8199 Y58.0883
G01 X4.8079 Y58.0789
G01 X4.7964 Y58.0690
G01 X4.7419 Y58.0196
G01 X4.7309 Y58.0091
G01 X4.7204 Y57.9981
G01 X4.6710 Y57.9436
G01 X4.6611 Y57.9321
G01 X4.6517 Y57.9201
G01 X4.6079 Y57.8610
G01 X4.5991 Y57.8486
G01 X4.5910 Y57.8357
G01 X4.5532 Y57.7726
G01 X4.5457 Y57.7594
G01 X4.5389 Y57.7458
G01 X4.5074 Y57.6793
G01 X4.5012 Y57.6654
G01 X4.4958 Y57.6512
G01 X4.4710 Y57.5819
G01 X4.4662 Y57.5675
G01 X4.4622 Y57.5529
G01 X4.4443 Y57.4815
G01 X4.4410 Y57.4667
G01 X4.4384 Y57.4517
G01 X4.4276 Y57.3789
G01 X4.4257 Y57.3638
G01 X4.4246 Y57.3487
G01 X4.4210 Y57.2752
G01 X4.4206 Y57.2600
G01 X4.4210 Y57.2448
G01 X4.4246 Y57.1713
G01 X4.4257 Y57.1562
G01 X4.4276 Y57.1411
G01 X4.4384 Y57.0683
G01 X4.4410 Y57.0533
G01 X4.4443 Y57.0385
G01 X4.4622 Y56.9671
G01 X4.4662 Y56.9525
G01 X4.4710 Y56.9381
G01 X4.4958 Y56.8688
G01 X4.5012 Y56.8546
G01 X4.5074 Y56.8407
G01 X4.5389 Y56.7742
G01 X4.5457 Y56.7606
G01 X4.5532 Y56.7474
G01 X4.5910 Y56.6843
G01 X4.5991 Y56.6714
G01 X4.6079 Y56.6590
G01 X4.6517 Y56.5999
G01 X4.6611 Y56.5879
G01 X4.6710 Y56.5764
G01 X4.7204 Y56.5219
G01 X4.7309 Y56.5109
G01 X4.7419 Y56.5004
G01 X4.7964 Y56.4510
G01 X4.8079 Y56.4411
G01 X4.8199 Y56.4317
G01 X4.8790 Y56.3879
G01 X4.8914 Y56.3791
G01 X4.9043 Y56.3710
G01 X4.9674 Y56.3332
G01 X4.9873 Y56.3222
G00 Z2.0000
G00 X5.0694 Y56.4853
G01 F60.00
G01 Z-0.1700
G01 F120.00
G01 X5.1445 Y56.4499
G01 X5.2255 Y56.4210
G01 X5.3089 Y56.4000
G01 X5.3941 Y56.3874
G01 X5.4800 Y56.3832
G01 X5.5659 Y56.3874
G01 X5.6511 Y56.4000
G01 X5.7345 Y56.4210
G01 X5.8155 Y56.4499
G01 X5.8933 Y56.4867
G01 X5.9671 Y56.5310
G01 X6.0362 Y56.5822
G01 X6.1000 Y56.6400
G01 X6.1578 Y56.7038
G01 X6.2090 Y56.7729
G01 X6.2533 Y56.8467
G01 X6.2901 Y56.9245
G01 X6.3190 Y57.0055
G01 X6.3400 Y57.0889
G01 X6.3526 Y57.1741
G01 X6.3568 Y57.2600
G01 X6.3526 Y57.3459
G01 X6.3400 Y57.4311
G01 X6.3190 Y57.5145
G01 X6.2901 Y57.5955
G01 X6.2533 Y57.6733
G01 X6.2090 Y57.7471
G01 X6.1578 Y57.8162
G01 X6.1000 Y57.8800
G01 X6.0362 Y57.9378
G01 X5.9671 Y57.9890
G01 X5.8933 Y58.0333
G01 X5.8155 Y58.0701
G01 X5.7345 Y58.0990
G01 X5.6511 Y58.1200
G01 X5.5659 Y58.1326
G01 X5.4800 Y58.1368
G01 X5.3941 Y58.1326
G01 X5.3089 Y58.1200
G01 X5.2255 Y58.0990
G01 X5.1445 Y58.0701
G01 X5.0667 Y58.0333
G01 X4.9929 Y57.9890
G01 X4.9238 Y57.9378
G01 X4.8600 Y57.8800
G01 X4.8022 Y57.8162
G01 X4.7510 Y57.7471
G01 X4.7067 Y57.6733
G01 X4.6699 Y57.5955
G01 X4.6410 Y57.5145
